luts/BattleField.cube
#Generated by Picture Instruments - Unlimited Filters
TITLE "War movie"
LUT_3D_SIZE 9
0.0156863 0 0.00392157
0.109804 0 0
0.215686 0.00392157 0.00392157
0.333333 0.00392157 0.00392157
0.458824 0.00392157 0.00392157
0.65098 0 0
0.819608 0.00392157 0
0.956863 0 0
0.996078 0 0
0.0117647 0.0980392 0.00784314
0.101961 0.0666667 0
0.211765 0.0745098 0
0.32549 0.0862745 0.00392157
0.45098 0.0901961 0
0.643137 0.0941176 0.00392157
0.803922 0.0980392 0.00784314
0.937255 0.0901961 0
0.984314 0.0901961 0.00392157
0.0156863 0.211765 0.0196078
0.0980392 0.180392 0.0196078
0.203922 0.168627 0.0156863
0.309804 0.180392 0.0117647
0.439216 0.192157 0.0196078
0.607843 0.207843 0.0196078
0.772549 0.215686 0.0196078
0.905882 0.243137 0.027451
0.94902 0.235294 0.0313725
0.0156863 0.317647 0.0352941
0.0941176 0.301961 0.0352941
0.207843 0.290196 0.0352941
0.321569 0.286275 0.0313725
0.458824 0.313725 0.0352941
0.623529 0.333333 0.0392157
0.780392 0.34902 0.0392157
0.905882 0.368627 0.0509804
0.960784 0.380392 0.0431373
0.0117647 0.447059 0.0470588
0.0941176 0.435294 0.054902
0.207843 0.427451 0.0470588
0.329412 0.431373 0.0431373
0.443137 0.427451 0.0470588
0.619608 0.458824 0.0470588
0.784314 0.482353 0.0588235
0.917647 0.505882 0.054902
0.976471 0.509804 0.054902
0.0117647 0.627451 0.0666667
0.0941176 0.627451 0.0627451
0.227451 0.623529 0.0666667
0.356863 0.619608 0.0666667
0.490196 0.619608 0.0666667
0.643137 0.615686 0.0666667
0.792157 0.631373 0.0666667
0.92549 0.65098 0.0627451
0.988235 0.654902 0.0627451
0.00784314 0.8 0.0784314
0.113725 0.796078 0.0784314
0.243137 0.780392 0.0823529
0.372549 0.776471 0.0745098
0.513725 0.784314 0.0745098
0.666667 0.780392 0.0745098
0.792157 0.784314 0.0745098
0.941176 0.788235 0.0705882
0.996078 0.792157 0.0705882
0.00392157 0.933333 0.0941176
0.12549 0.92549 0.0901961
0.258824 0.941176 0.0823529
0.396078 0.933333 0.0941176
0.537255 0.933333 0.0862745
0.67451 0.929412 0.0901961
0.811765 0.933333 0.0823529
0.929412 0.933333 0.0862745
0.996078 0.929412 0.0862745
0 0.996078 0.0941176
0.12549 0.996078 0.0941176
0.266667 0.996078 0.101961
0.4 0.996078 0.0941176
0.541176 0.996078 0.0941176
0.678431 1 0.0901961
0.811765 1 0.0901961
0.933333 1 0.0941176
0.996078 1 0.0862745
0.0117647 0 0.0352941
0.109804 0.00392157 0.0392157
0.211765 0.00392157 0.0431373
0.32549 0.00784314 0.0431373
0.462745 0.0117647 0.0392157
0.658824 0.00784314 0.054902
0.819608 0.00392157 0.0588235
0.964706 0.00392157 0.0745098
1 0 0.0823529
0.0156863 0.0823529 0.0509804
0.101961 0.0862745 0.0509804
0.211765 0.0823529 0.0470588
0.32549 0.0901961 0.0470588
0.447059 0.0980392 0.0431373
0.643137 0.101961 0.0588235
0.8 0.105882 0.0666667
0.937255 0.101961 0.0784314
0.980392 0.105882 0.0862745
0.0156863 0.192157 0.0627451
0.0980392 0.192157 0.0588235
0.2 0.176471 0.0509804
0.321569 0.192157 0.054902
0.447059 0.211765 0.0666667
0.639216 0.223529 0.0705882
0.780392 0.231373 0.0901961
0.905882 0.247059 0.101961
0.94902 0.254902 0.109804
0.0156863 0.305882 0.0745098
0.0901961 0.317647 0.0784314
0.207843 0.301961 0.0666667
0.317647 0.294118 0.0588235
0.439216 0.321569 0.0705882
0.631373 0.341176 0.0862745
0.780392 0.360784 0.0941176
0.909804 0.380392 0.113725
0.964706 0.388235 0.117647
0.0196078 0.435294 0.0901961
0.0862745 0.439216 0.0862745
0.203922 0.435294 0.0823529
0.329412 0.443137 0.0823529
0.447059 0.431373 0.0745098
0.639216 0.470588 0.0980392
0.784314 0.486275 0.101961
0.933333 0.517647 0.117647
0.980392 0.52549 0.129412
0.0156863 0.631373 0.12549
0.0980392 0.635294 0.117647
0.223529 0.647059 0.117647
0.352941 0.627451 0.109804
0.490196 0.631373 0.0980392
0.635294 0.623529 0.101961
0.788235 0.639216 0.117647
0.933333 0.670588 0.121569
0.988235 0.666667 0.12549
0.0117647 0.792157 0.145098
0.105882 0.8 0.141176
0.243137 0.796078 0.145098
0.376471 0.792157 0.133333
0.509804 0.788235 0.129412
0.666667 0.792157 0.121569
0.8 0.792157 0.113725
0.92549 0.792157 0.12549
0.996078 0.796078 0.129412
0.00784314 0.929412 0.180392
0.12549 0.933333 0.164706
0.258824 0.933333 0.164706
0.403922 0.933333 0.152941
0.533333 0.929412 0.145098
0.682353 0.933333 0.14902
0.815686 0.937255 0.145098
0.929412 0.937255 0.133333
1 0.933333 0.141176
0 1 0.184314
0.12549 0.996078 0.180392
0.266667 0.996078 0.180392
0.407843 0.996078 0.168627
0.54902 1 0.172549
0.686275 0.996078 0.160784
0.819608 1 0.145098
0.941176 1 0.14902
0.996078 1 0.145098
0.0196078 0.00784314 0.0901961
0.105882 0.00392157 0.109804
0.215686 0 0.113725
0.337255 0.00392157 0.12549
0.47451 0.00784314 0.133333
0.670588 0.00392157 0.145098
0.835294 0.00392157 0.164706
0.968627 0 0.176471
0.996078 0 0.196078
0.0156863 0.0823529 0.109804
0.0941176 0.0823529 0.109804
0.211765 0.0941176 0.12549
0.337255 0.105882 0.129412
0.458824 0.109804 0.133333
0.647059 0.117647 0.145098
0.807843 0.117647 0.168627
0.941176 0.121569 0.196078
0.976471 0.117647 0.196078
0.0196078 0.176471 0.133333
0.0941176 0.188235 0.12549
0.207843 0.196078 0.137255
0.321569 0.207843 0.145098
0.447059 0.223529 0.14902
0.631373 0.231373 0.172549
0.784314 0.254902 0.180392
0.913725 0.262745 0.207843
0.94902 0.266667 0.219608
0.0196078 0.294118 0.14902
0.0862745 0.309804 0.14902
0.207843 0.313725 0.145098
0.329412 0.309804 0.152941
0.470588 0.341176 0.164706
0.647059 0.352941 0.188235
0.788235 0.376471 0.2
0.921569 0.4 0.223529
0.964706 0.4 0.227451
0.0196078 0.431373 0.168627
0.0823529 0.439216 0.164706
0.211765 0.462745 0.172549
0.333333 0.458824 0.172549
0.458824 0.458824 0.176471
0.639216 0.486275 0.192157
0.796078 0.505882 0.211765
0.929412 0.537255 0.231373
0.980392 0.545098 0.243137
0.0156863 0.615686 0.2
0.0941176 0.635294 0.207843
0.223529 0.639216 0.207843
0.368627 0.639216 0.211765
0.509804 0.654902 0.211765
0.654902 0.639216 0.207843
0.803922 0.654902 0.227451
0.937255 0.670588 0.235294
0.988235 0.682353 0.254902
0.0156863 0.788235 0.231373
0.105882 0.8 0.239216
0.243137 0.803922 0.247059
0.388235 0.811765 0.243137
0.517647 0.803922 0.243137
0.67451 0.807843 0.235294
0.8 0.796078 0.239216
0.937255 0.796078 0.247059
0.996078 0.803922 0.25098
0.00784314 0.929412 0.27451
0.109804 0.933333 0.262745
0.258824 0.937255 0.278431
0.403922 0.937255 0.270588
0.556863 0.941176 0.270588
0.690196 0.937255 0.27451
0.819608 0.937255 0.258824
0.941176 0.941176 0.266667
1 0.937255 0.266667
0 0.996078 0.290196
0.117647 1 0.290196
0.262745 1 0.294118
0.415686 0.996078 0.290196
0.564706 1 0.286275
0.694118 1 0.294118
0.823529 1 0.282353
0.937255 1 0.278431
1 1 0.282353
0.027451 0.00392157 0.145098
0.0941176 0.00392157 0.168627
0.211765 0.00392157 0.176471
0.34902 0.00392157 0.203922
0.486275 0.00392157 0.215686
0.682353 0.00392157 0.25098
0.843137 0.00392157 0.278431
0.972549 0 0.298039
1 0 0.317647
0.0196078 0.0823529 0.172549
0.0823529 0.0941176 0.168627
0.207843 0.0980392 0.196078
0.341176 0.105882 0.215686
0.482353 0.117647 0.231373
0.662745 0.121569 0.254902
0.823529 0.121569 0.286275
0.952941 0.129412 0.321569
0.976471 0.12549 0.321569
0.0235294 0.184314 0.2
0.0745098 0.184314 0.196078
0.203922 0.203922 0.203922
0.333333 0.215686 0.223529
0.458824 0.239216 0.243137
0.647059 0.25098 0.27451
0.796078 0.27451 0.294118
0.917647 0.282353 0.32549
0.952941 0.286275 0.333333
0.027451 0.290196 0.223529
0.0862745 0.301961 0.227451
0.2 0.313725 0.227451
0.337255 0.337255 0.243137
0.47451 0.356863 0.262745
0.647059 0.380392 0.298039
0.8 0.403922 0.32549
0.933333 0.419608 0.341176
0.972549 0.423529 0.352941
0.0313725 0.419608 0.247059
0.0745098 0.435294 0.25098
0.207843 0.458824 0.262745
0.34902 0.47451 0.278431
0.478431 0.470588 0.278431
0.662745 0.513725 0.321569
0.815686 0.533333 0.337255
0.945098 0.552941 0.360784
0.980392 0.564706 0.376471
0.0196078 0.615686 0.290196
0.0823529 0.623529 0.290196
0.215686 0.647059 0.305882
0.372549 0.662745 0.321569
0.521569 0.662745 0.317647
0.662745 0.658824 0.333333
0.811765 0.67451 0.356863
0.945098 0.686275 0.380392
0.992157 0.694118 0.388235
0.0235294 0.788235 0.32549
0.0980392 0.792157 0.333333
0.235294 0.803922 0.345098
0.388235 0.807843 0.352941
0.537255 0.811765 0.364706
0.694118 0.811765 0.372549
0.823529 0.807843 0.376471
0.956863 0.811765 0.396078
0.996078 0.811765 0.396078
0.0117647 0.92549 0.364706
0.101961 0.933333 0.368627
0.247059 0.941176 0.384314
0.407843 0.945098 0.4
0.560784 0.945098 0.4
0.698039 0.941176 0.403922
0.823529 0.945098 0.403922
0.945098 0.937255 0.407843
1 0.937255 0.415686
0.00784314 0.996078 0.396078
0.105882 0.996078 0.388235
0.25098 0.996078 0.4
0.423529 0.996078 0.411765
0.568627 1 0.419608
0.709804 1 0.427451
0.827451 0.996078 0.423529
0.945098 1 0.431373
1 1 0.427451
0.0313725 0.00392157 0.207843
0.0823529 0 0.223529
0.196078 0.00392157 0.258824
0.34902 0.00392157 0.294118
0.505882 0 0.313725
0.690196 0.00392157 0.360784
0.85098 0.00392157 0.4
0.980392 0 0.431373
0.996078 0 0.45098
0.027451 0.0901961 0.223529
0.0705882 0.0941176 0.235294
0.184314 0.101961 0.270588
0.341176 0.113725 0.309804
0.494118 0.12549 0.333333
0.67451 0.12549 0.364706
0.823529 0.137255 0.407843
0.94902 0.141176 0.435294
0.976471 0.137255 0.458824
0.0313725 0.180392 0.254902
0.0784314 0.188235 0.270588
0.176471 0.203922 0.278431
0.329412 0.227451 0.32549
0.478431 0.243137 0.341176
0.658824 0.262745 0.380392
0.807843 0.282353 0.419608
0.921569 0.298039 0.454902
0.952941 0.298039 0.470588
0.0313725 0.286275 0.294118
0.0745098 0.301961 0.305882
0.180392 0.313725 0.317647
0.333333 0.352941 0.337255
0.482353 0.372549 0.368627
0.662745 0.403922 0.411765
0.8 0.419608 0.447059
0.937255 0.439216 0.466667
0.972549 0.439216 0.498039
0.0313725 0.411765 0.333333
0.0745098 0.423529 0.337255
0.180392 0.447059 0.356863
0.341176 0.482353 0.372549
0.501961 0.501961 0.4
0.670588 0.529412 0.435294
0.819608 0.560784 0.466667
0.952941 0.580392 0.509804
0.988235 0.584314 0.52549
0.027451 0.607843 0.380392
0.0745098 0.615686 0.384314
0.203922 0.631373 0.403922
0.364706 0.658824 0.427451
0.52549 0.67451 0.443137
0.678431 0.67451 0.462745
0.831373 0.690196 0.494118
0.952941 0.701961 0.521569
0.992157 0.705882 0.541176
0.0313725 0.788235 0.431373
0.0862745 0.788235 0.431373
0.211765 0.8 0.447059
0.376471 0.819608 0.47451
0.556863 0.823529 0.498039
0.694118 0.815686 0.509804
0.831373 0.819608 0.517647
0.945098 0.815686 0.537255
1 0.823529 0.552941
0.0117647 0.92549 0.466667
0.0980392 0.929412 0.486275
0.219608 0.937255 0.490196
0.4 0.937255 0.521569
0.580392 0.945098 0.529412
0.713725 0.941176 0.54902
0.843137 0.945098 0.556863
0.952941 0.941176 0.560784
1 0.941176 0.576471
0.00784314 0.996078 0.501961
0.101961 1 0.505882
0.231373 0.996078 0.52549
0.403922 0.996078 0.541176
0.596078 1 0.564706
0.717647 1 0.576471
0.847059 1 0.580392
0.956863 1 0.592157
1 0.996078 0.592157
0.0352941 0.00392157 0.329412
0.0588235 0.00392157 0.345098
0.160784 0.00784314 0.372549
0.301961 0.00392157 0.427451
0.509804 0.00784314 0.47451
0.705882 0.00392157 0.505882
0.854902 0.00784314 0.545098
0.988235 0 0.568627
0.996078 0 0.588235
0.0352941 0.0941176 0.34902
0.0588235 0.101961 0.360784
0.152941 0.101961 0.384314
0.301961 0.117647 0.431373
0.490196 0.12549 0.482353
0.686275 0.137255 0.513725
0.835294 0.141176 0.54902
0.964706 0.14902 0.580392
0.980392 0.14902 0.584314
0.0313725 0.188235 0.388235
0.0588235 0.192157 0.380392
0.152941 0.207843 0.4
0.286275 0.227451 0.443137
0.47451 0.258824 0.486275
0.67451 0.282353 0.533333
0.815686 0.305882 0.556863
0.937255 0.309804 0.584314
0.952941 0.313725 0.596078
0.0392157 0.298039 0.423529
0.0627451 0.301961 0.423529
0.160784 0.321569 0.439216
0.290196 0.34902 0.470588
0.482353 0.388235 0.521569
0.67451 0.411765 0.54902
0.823529 0.439216 0.592157
0.952941 0.458824 0.607843
0.976471 0.458824 0.615686
0.0392157 0.415686 0.470588
0.0627451 0.423529 0.47451
0.156863 0.447059 0.498039
0.290196 0.482353 0.509804
0.494118 0.521569 0.552941
0.682353 0.552941 0.588235
0.839216 0.580392 0.619608
0.952941 0.592157 0.635294
0.988235 0.607843 0.65098
0.0431373 0.596078 0.529412
0.0705882 0.607843 0.537255
0.164706 0.619608 0.529412
0.313725 0.647059 0.564706
0.521569 0.67451 0.592157
0.705882 0.694118 0.619608
0.839216 0.709804 0.643137
0.964706 0.721569 0.662745
0.996078 0.721569 0.670588
0.0392157 0.780392 0.568627
0.0862745 0.780392 0.576471
0.172549 0.784314 0.596078
0.333333 0.803922 0.615686
0.54902 0.819608 0.635294
0.72549 0.827451 0.65098
0.843137 0.823529 0.658824
0.968627 0.835294 0.686275
1 0.835294 0.678431
0.0235294 0.929412 0.623529
0.0823529 0.933333 0.623529
0.188235 0.937255 0.631373
0.337255 0.941176 0.654902
0.564706 0.945098 0.67451
0.733333 0.94902 0.686275
0.85098 0.94902 0.690196
0.960784 0.945098 0.694118
1 0.945098 0.698039
0.0196078 0.996078 0.643137
0.0862745 0.996078 0.643137
0.196078 0.996078 0.654902
0.34902 0.996078 0.670588
0.568627 0.996078 0.678431
0.74902 1 0.705882
0.854902 1 0.698039
0.960784 0.996078 0.709804
0.996078 0.996078 0.705882
0.0392157 0.00392157 0.501961
0.0705882 0.00784314 0.529412
0.145098 0.00392157 0.537255
0.266667 0.0117647 0.584314
0.470588 0.00392157 0.607843
0.698039 0.00392157 0.654902
0.866667 0.00392157 0.678431
0.992157 0 0.698039
1 0 0.705882
0.0431373 0.0941176 0.533333
0.0588235 0.0980392 0.533333
0.141176 0.105882 0.556863
0.25098 0.113725 0.576471
0.454902 0.133333 0.627451
0.686275 0.14902 0.658824
0.847059 0.164706 0.686275
0.964706 0.160784 0.698039
0.976471 0.160784 0.694118
0.0431373 0.196078 0.552941
0.0588235 0.196078 0.54902
0.137255 0.215686 0.556863
0.247059 0.227451 0.596078
0.470588 0.258824 0.627451
0.666667 0.286275 0.658824
0.823529 0.317647 0.682353
0.945098 0.32549 0.698039
0.960784 0.32549 0.709804
0.0431373 0.305882 0.580392
0.0627451 0.305882 0.592157
0.137255 0.321569 0.588235
0.25098 0.345098 0.619608
0.458824 0.380392 0.65098
0.67451 0.431373 0.686275
0.831373 0.45098 0.713725
0.960784 0.47451 0.721569
0.976471 0.47451 0.737255
0.0509804 0.427451 0.627451
0.0627451 0.435294 0.623529
0.14902 0.454902 0.643137
0.278431 0.486275 0.658824
0.47451 0.521569 0.678431
0.682353 0.564706 0.713725
0.843137 0.592157 0.729412
0.972549 0.619608 0.756863
0.992157 0.619608 0.764706
0.0470588 0.6 0.666667
0.0745098 0.603922 0.682353
0.14902 0.619608 0.682353
0.266667 0.65098 0.701961
0.478431 0.67451 0.717647
0.705882 0.705882 0.745098
0.854902 0.72549 0.760784
0.976471 0.741176 0.780392
0.996078 0.741176 0.788235
0.0470588 0.776471 0.72549
0.0666667 0.776471 0.717647
0.14902 0.784314 0.72549
0.286275 0.8 0.737255
0.509804 0.815686 0.752941
0.717647 0.827451 0.772549
0.870588 0.839216 0.788235
0.980392 0.847059 0.8
1 0.843137 0.796078
0.0352941 0.921569 0.764706
0.0823529 0.933333 0.756863
0.160784 0.933333 0.764706
0.290196 0.937255 0.780392
0.529412 0.941176 0.784314
0.729412 0.941176 0.8
0.870588 0.94902 0.803922
0.968627 0.945098 0.811765
1 0.94902 0.811765
0.027451 0.996078 0.780392
0.0745098 0.996078 0.768627
0.164706 1 0.788235
0.301961 1 0.788235
0.541176 1 0.796078
0.733333 1 0.807843
0.87451 1 0.815686
0.972549 1 0.827451
1 1 0.827451
0.0470588 0 0.721569
0.0627451 0 0.733333
0.137255 0 0.737255
0.231373 0 0.74902
0.443137 0 0.768627
0.686275 0 0.788235
0.858824 0 0.807843
1 0 0.815686
1 0 0.815686
0.0470588 0.0980392 0.717647
0.0627451 0.101961 0.729412
0.117647 0.109804 0.74902
0.215686 0.113725 0.74902
0.427451 0.133333 0.764706
0.662745 0.152941 0.780392
0.839216 0.172549 0.796078
0.964706 0.180392 0.811765
0.972549 0.172549 0.811765
0.0509804 0.2 0.729412
0.0627451 0.203922 0.737255
0.113725 0.219608 0.733333
0.219608 0.239216 0.74902
0.435294 0.258824 0.756863
0.654902 0.294118 0.780392
0.827451 0.32549 0.792157
0.94902 0.341176 0.811765
0.964706 0.333333 0.807843
0.054902 0.313725 0.756863
0.0666667 0.32549 0.768627
0.12549 0.329412 0.756863
0.223529 0.352941 0.772549
0.435294 0.388235 0.788235
0.666667 0.435294 0.803922
0.835294 0.462745 0.831373
0.964706 0.494118 0.835294
0.980392 0.490196 0.847059
0.0627451 0.435294 0.796078
0.0666667 0.443137 0.780392
0.12549 0.454902 0.792157
0.223529 0.478431 0.792157
0.45098 0.529412 0.807843
0.670588 0.572549 0.831373
0.847059 0.611765 0.854902
0.968627 0.635294 0.866667
0.992157 0.639216 0.866667
0.054902 0.607843 0.819608
0.0666667 0.615686 0.823529
0.133333 0.627451 0.823529
0.239216 0.65098 0.835294
0.466667 0.682353 0.843137
0.698039 0.705882 0.858824
0.85098 0.733333 0.882353
0.980392 0.745098 0.878431
0.992157 0.74902 0.882353
0.0470588 0.772549 0.854902
0.0627451 0.776471 0.858824
0.129412 0.780392 0.866667
0.235294 0.792157 0.870588
0.47451 0.819608 0.87451
0.701961 0.827451 0.878431
0.870588 0.847059 0.894118
0.980392 0.854902 0.898039
1 0.854902 0.894118
0.0392157 0.929412 0.886275
0.0627451 0.933333 0.890196
0.129412 0.929412 0.886275
0.243137 0.937255 0.898039
0.482353 0.937255 0.894118
0.709804 0.945098 0.905882
0.866667 0.952941 0.905882
0.984314 0.94902 0.913725
1 0.952941 0.917647
0.0352941 0.996078 0.905882
0.0627451 0.996078 0.905882
0.129412 1 0.901961
0.243137 0.996078 0.901961
0.498039 0.996078 0.909804
0.709804 0.996078 0.913725
0.870588 1 0.92549
0.980392 1 0.921569
1 1 0.921569
0.0588235 0 0.905882
0.0705882 0 0.901961
0.113725 0 0.901961
0.196078 0.00392157 0.901961
0.415686 0 0.901961
0.666667 0 0.909804
0.858824 0 0.917647
0.996078 0 0.913725
1 0 0.913725
0.054902 0.0980392 0.901961
0.0588235 0.101961 0.894118
0.113725 0.109804 0.894118
0.192157 0.117647 0.898039
0.411765 0.129412 0.901961
0.647059 0.14902 0.901961
0.835294 0.160784 0.901961
0.968627 0.176471 0.905882
0.972549 0.180392 0.901961
0.0588235 0.2 0.886275
0.0627451 0.203922 0.890196
0.105882 0.215686 0.882353
0.188235 0.231373 0.886275
0.415686 0.262745 0.882353
0.65098 0.298039 0.894118
0.823529 0.329412 0.894118
0.956863 0.345098 0.905882
0.964706 0.34902 0.905882
0.0588235 0.317647 0.898039
0.0666667 0.321569 0.901961
0.113725 0.333333 0.905882
0.192157 0.360784 0.905882
0.403922 0.392157 0.901961
0.65098 0.439216 0.913725
0.831373 0.466667 0.92549
0.968627 0.505882 0.933333
0.980392 0.501961 0.929412
0.0666667 0.443137 0.92549
0.0705882 0.447059 0.921569
0.117647 0.462745 0.92549
0.207843 0.490196 0.929412
0.435294 0.537255 0.929412
0.658824 0.572549 0.945098
0.839216 0.611765 0.945098
0.972549 0.643137 0.956863
0.988235 0.647059 0.952941
0.0666667 0.611765 0.952941
0.0705882 0.619608 0.952941
0.117647 0.631373 0.952941
0.2 0.65098 0.960784
0.423529 0.682353 0.968627
0.682353 0.713725 0.964706
0.847059 0.733333 0.972549
0.976471 0.752941 0.968627
0.992157 0.756863 0.968627
0.054902 0.776471 0.976471
0.0627451 0.776471 0.980392
0.113725 0.788235 0.980392
0.207843 0.796078 0.988235
0.443137 0.815686 0.980392
0.690196 0.831373 0.984314
0.862745 0.847059 0.980392
0.980392 0.858824 0.980392
0.996078 0.858824 0.984314
0.0509804 0.929412 0.992157
0.054902 0.92549 0.992157
0.109804 0.929412 0.996078
0.2 0.933333 0.996078
0.454902 0.937255 0.996078
0.694118 0.941176 0.996078
0.866667 0.952941 0.996078
0.984314 0.952941 0.992157
1 0.952941 0.988235
0.0392157 0.996078 0.996078
0.0470588 0.996078 0.996078
0.101961 0.996078 0.996078
0.196078 0.996078 0.992157
0.462745 1 0.996078
0.709804 1 0.996078
0.862745 0.996078 0.996078
0.980392 1 0.996078
1 1 0.996078
