luts/BattleField.cube
#Generated by Picture Instruments - Unlimited Filters
TITLE "War movie"
LUT_3D_SIZE 5
0.0156863 0 0.00392157
0.215686 0.00392157 0.00392157
0.458824 0.00392157 0.00392157
0.819608 0.00392157 0
0.996078 0 0
0.0156863 0.211765 0.0196078
0.203922 0.168627 0.0156863
0.439216 0.192157 0.0196078
0.772549 0.215686 0.0196078
0.94902 0.235294 0.0313725
0.0117647 0.447059 0.0470588
0.207843 0.427451 0.0470588
0.443137 0.427451 0.0470588
0.784314 0.482353 0.0588235
0.976471 0.509804 0.054902
0.00784314 0.8 0.0784314
0.243137 0.780392 0.0823529
0.513725 0.784314 0.0745098
0.792157 0.784314 0.0745098
0.996078 0.792157 0.0705882
0 0.996078 0.0941176
0.266667 0.996078 0.101961
0.541176 0.996078 0.0941176
0.811765 1 0.0901961
0.996078 1 0.0862745
0.0196078 0.00784314 0.0901961
0.215686 0 0.113725
0.47451 0.00784314 0.133333
0.835294 0.00392157 0.164706
0.996078 0 0.196078
0.0196078 0.176471 0.133333
0.207843 0.196078 0.137255
0.447059 0.223529 0.14902
0.784314 0.254902 0.180392
0.94902 0.266667 0.219608
0.0196078 0.431373 0.168627
0.211765 0.462745 0.172549
0.458824 0.458824 0.176471
0.796078 0.505882 0.211765
0.980392 0.545098 0.243137
0.0156863 0.788235 0.231373
0.243137 0.803922 0.247059
0.517647 0.803922 0.243137
0.8 0.796078 0.239216
0.996078 0.803922 0.25098
0 0.996078 0.290196
0.262745 1 0.294118
0.564706 1 0.286275
0.823529 1 0.282353
1 1 0.282353
0.0313725 0.00392157 0.207843
0.196078 0.00392157 0.258824
0.505882 0 0.313725
0.85098 0.00392157 0.4
0.996078 0 0.45098
0.0313725 0.180392 0.254902
0.176471 0.203922 0.278431
0.478431 0.243137 0.341176
0.807843 0.282353 0.419608
0.952941 0.298039 0.470588
0.0313725 0.411765 0.333333
0.180392 0.447059 0.356863
0.501961 0.501961 0.4
0.819608 0.560784 0.466667
0.988235 0.584314 0.52549
0.0313725 0.788235 0.431373
0.211765 0.8 0.447059
0.556863 0.823529 0.498039
0.831373 0.819608 0.517647
1 0.823529 0.552941
0.00784314 0.996078 0.501961
0.231373 0.996078 0.52549
0.596078 1 0.564706
0.847059 1 0.580392
1 0.996078 0.592157
0.0392157 0.00392157 0.501961
0.145098 0.00392157 0.537255
0.470588 0.00392157 0.607843
0.866667 0.00392157 0.678431
1 0 0.705882
0.0431373 0.196078 0.552941
0.137255 0.215686 0.556863
0.470588 0.258824 0.627451
0.823529 0.317647 0.682353
0.960784 0.32549 0.709804
0.0509804 0.427451 0.627451
0.14902 0.454902 0.643137
0.47451 0.521569 0.678431
0.843137 0.592157 0.729412
0.992157 0.619608 0.764706
0.0470588 0.776471 0.72549
0.14902 0.784314 0.72549
0.509804 0.815686 0.752941
0.870588 0.839216 0.788235
1 0.843137 0.796078
0.027451 0.996078 0.780392
0.164706 1 0.788235
0.541176 1 0.796078
0.87451 1 0.815686
1 1 0.827451
0.0588235 0 0.905882
0.113725 0 0.901961
0.415686 0 0.901961
0.858824 0 0.917647
1 0 0.913725
0.0588235 0.2 0.886275
0.105882 0.215686 0.882353
0.415686 0.262745 0.882353
0.823529 0.329412 0.894118
0.964706 0.34902 0.905882
0.0666667 0.443137 0.92549
0.117647 0.462745 0.92549
0.435294 0.537255 0.929412
0.839216 0.611765 0.945098
0.988235 0.647059 0.952941
0.054902 0.776471 0.976471
0.113725 0.788235 0.980392
0.443137 0.815686 0.980392
0.862745 0.847059 0.980392
0.996078 0.858824 0.984314
0.0392157 0.996078 0.996078
0.101961 0.996078 0.996078
0.462745 1 0.996078
0.862745 0.996078 0.996078
1 1 0.996078
