luts/BattleField.cube
#Generated by Picture Instruments - Unlimited Filters
TITLE "War movie"
LUT_3D_SIZE 17
0.0156863 0 0.00392157
0.0705882 0 0
0.109804 0 0
0.160784 0.00392157 0.00392157
0.215686 0.00392157 0.00392157
0.278431 0.00392157 0.00392157
0.333333 0.00392157 0.00392157
0.392157 0.00784314 0.00392157
0.458824 0.00392157 0.00392157
0.560784 0.00392157 0
0.65098 0 0
0.741176 0.00392157 0
0.819608 0.00392157 0
0.890196 0.00784314 0
0.956863 0 0
0.996078 0 0
0.996078 0 0
0.0156863 0.0470588 0.00392157
0.0588235 0.0313725 0
0.105882 0.0313725 0.00392157
0.160784 0.0313725 0.00392157
0.207843 0.0352941 0
0.262745 0.0313725 0
0.321569 0.0352941 0
0.384314 0.0352941 0.00392157
0.454902 0.0352941 0.00392157
0.556863 0.0352941 0
0.635294 0.0313725 0
0.72549 0.0313725 0
0.811765 0.0352941 0
0.882353 0.0235294 0
0.945098 0.027451 0
0.996078 0.027451 0
0.996078 0.0196078 0
0.0117647 0.0980392 0.00784314
0.0627451 0.0823529 0.00392157
0.101961 0.0666667 0
0.156863 0.0745098 0.00784314
0.211765 0.0745098 0
0.266667 0.0823529 0.00392157
0.32549 0.0862745 0.00392157
0.380392 0.0784314 0
0.45098 0.0901961 0
0.556863 0.0901961 0.00392157
0.643137 0.0941176 0.00392157
0.717647 0.0901961 0.00392157
0.803922 0.0980392 0.00784314
0.87451 0.0941176 0.00392157
0.937255 0.0901961 0
0.980392 0.0941176 0
0.984314 0.0901961 0.00392157
0.0117647 0.14902 0.0196078
0.0470588 0.141176 0.00784314
0.101961 0.12549 0.0156863
0.156863 0.117647 0.0117647
0.203922 0.121569 0.00784314
0.266667 0.129412 0.0117647
0.313725 0.133333 0.00392157
0.384314 0.137255 0.00784314
0.45098 0.141176 0.0117647
0.537255 0.145098 0.0117647
0.623529 0.152941 0.0156863
0.701961 0.152941 0.0117647
0.792157 0.152941 0.0156863
0.858824 0.160784 0.0117647
0.921569 0.160784 0.0117647
0.972549 0.164706 0.0117647
0.968627 0.160784 0.00784314
0.0156863 0.211765 0.0196078
0.0470588 0.196078 0.0117647
0.0980392 0.180392 0.0196078
0.14902 0.168627 0.0117647
0.203922 0.168627 0.0156863
0.258824 0.184314 0.0156863
0.309804 0.180392 0.0117647
0.376471 0.184314 0.0156863
0.439216 0.192157 0.0196078
0.529412 0.2 0.0156863
0.607843 0.207843 0.0196078
0.694118 0.215686 0.0156863
0.772549 0.215686 0.0196078
0.843137 0.227451 0.027451
0.905882 0.243137 0.027451
0.956863 0.235294 0.0313725
0.94902 0.235294 0.0313725
0.0117647 0.262745 0.027451
0.054902 0.247059 0.027451
0.101961 0.239216 0.027451
0.14902 0.227451 0.0196078
0.207843 0.215686 0.0196078
0.270588 0.223529 0.027451
0.317647 0.235294 0.027451
0.380392 0.243137 0.0235294
0.431373 0.247059 0.027451
0.541176 0.258824 0.027451
0.631373 0.266667 0.027451
0.701961 0.278431 0.0352941
0.768627 0.278431 0.027451
0.839216 0.294118 0.0313725
0.901961 0.301961 0.0392157
0.952941 0.305882 0.0392157
0.952941 0.305882 0.0392157
0.0156863 0.317647 0.0352941
0.0509804 0.313725 0.0352941
0.0941176 0.301961 0.0352941
0.152941 0.290196 0.0235294
0.207843 0.290196 0.0352941
0.262745 0.282353 0.0235294
0.321569 0.286275 0.0313725
0.384314 0.294118 0.0313725
0.458824 0.313725 0.0352941
0.541176 0.309804 0.0352941
0.623529 0.333333 0.0392157
0.698039 0.337255 0.0431373
0.780392 0.34902 0.0392157
0.847059 0.356863 0.0431373
0.905882 0.368627 0.0509804
0.956863 0.372549 0.0431373
0.960784 0.380392 0.0431373
0.0117647 0.380392 0.0431373
0.0470588 0.376471 0.0431373
0.0941176 0.364706 0.0470588
0.14902 0.34902 0.0392157
0.207843 0.352941 0.0392157
0.270588 0.360784 0.0392157
0.321569 0.356863 0.0392157
0.384314 0.352941 0.0352941
0.439216 0.368627 0.0392157
0.529412 0.380392 0.0470588
0.623529 0.388235 0.0431373
0.694118 0.407843 0.0470588
0.776471 0.411765 0.0470588
0.85098 0.423529 0.0588235
0.909804 0.427451 0.0509804
0.968627 0.447059 0.0509804
0.968627 0.447059 0.0509804
0.0117647 0.447059 0.0470588
0.0431373 0.435294 0.0509804
0.0941176 0.435294 0.054902
0.145098 0.435294 0.0470588
0.207843 0.427451 0.0470588
0.262745 0.419608 0.0431373
0.329412 0.431373 0.0431373
0.392157 0.431373 0.0509804
0.443137 0.427451 0.0470588
0.537255 0.443137 0.0588235
0.619608 0.458824 0.0470588
0.705882 0.466667 0.0509804
0.784314 0.482353 0.0588235
0.85098 0.490196 0.054902
0.917647 0.505882 0.054902
0.976471 0.509804 0.054902
0.976471 0.509804 0.054902
0.0156863 0.54902 0.0627451
0.0431373 0.533333 0.0627451
0.0941176 0.529412 0.0588235
0.156863 0.52549 0.054902
0.215686 0.52549 0.0588235
0.282353 0.521569 0.054902
0.337255 0.52549 0.0627451
0.407843 0.521569 0.0588235
0.470588 0.521569 0.0588235
0.54902 0.521569 0.0627451
0.635294 0.533333 0.0588235
0.709804 0.54902 0.0627451
0.784314 0.556863 0.0627451
0.862745 0.572549 0.0588235
0.92549 0.580392 0.0588235
0.984314 0.576471 0.0627451
0.984314 0.580392 0.0588235
0.0117647 0.627451 0.0666667
0.0509804 0.627451 0.0666667
0.0941176 0.627451 0.0627451
0.168627 0.615686 0.0666667
0.227451 0.623529 0.0666667
0.294118 0.611765 0.0588235
0.356863 0.619608 0.0666667
0.415686 0.615686 0.0627451
0.490196 0.619608 0.0666667
0.568627 0.619608 0.0627451
0.643137 0.615686 0.0666667
0.717647 0.631373 0.0627451
0.792157 0.631373 0.0666667
0.866667 0.639216 0.0666667
0.92549 0.65098 0.0627451
0.992157 0.662745 0.0705882
0.988235 0.654902 0.0627451
0.0117647 0.721569 0.0745098
0.0470588 0.717647 0.0745098
0.101961 0.709804 0.0745098
0.172549 0.698039 0.0745098
0.227451 0.717647 0.0745098
0.298039 0.709804 0.0745098
0.364706 0.709804 0.0745098
0.431373 0.705882 0.0745098
0.498039 0.713725 0.0705882
0.568627 0.705882 0.0627451
0.643137 0.709804 0.0666667
0.717647 0.701961 0.0705882
0.796078 0.709804 0.0666667
0.866667 0.721569 0.0666667
0.929412 0.721569 0.0705882
0.988235 0.72549 0.0705882
0.988235 0.721569 0.0705882
0.00784314 0.8 0.0784314
0.0588235 0.796078 0.0823529
0.113725 0.796078 0.0784314
0.184314 0.792157 0.0784314
0.243137 0.780392 0.0823529
0.317647 0.784314 0.0784314
0.372549 0.776471 0.0745098
0.447059 0.780392 0.0784314
0.513725 0.784314 0.0745098
0.592157 0.788235 0.0705882
0.666667 0.780392 0.0745098
0.72549 0.780392 0.0705882
0.792157 0.784314 0.0745098
0.870588 0.784314 0.0705882
0.941176 0.788235 0.0705882
0.996078 0.792157 0.0705882
0.996078 0.792157 0.0705882
0.00392157 0.870588 0.0823529
0.054902 0.862745 0.0823529
0.12549 0.862745 0.0862745
0.188235 0.862745 0.0862745
0.247059 0.858824 0.0823529
0.313725 0.866667 0.0823529
0.388235 0.862745 0.0823529
0.45098 0.858824 0.0823529
0.513725 0.85098 0.0784314
0.596078 0.862745 0.0823529
0.67451 0.862745 0.0862745
0.733333 0.862745 0.0745098
0.807843 0.862745 0.0745098
0.866667 0.858824 0.0784314
0.933333 0.866667 0.0784314
0.992157 0.862745 0.0745098
0.996078 0.862745 0.0745098
0.00392157 0.933333 0.0941176
0.054902 0.929412 0.0941176
0.12549 0.92549 0.0901961
0.188235 0.92549 0.0980392
0.258824 0.941176 0.0823529
0.32549 0.933333 0.0862745
0.396078 0.933333 0.0941176
0.462745 0.929412 0.0901961
0.537255 0.933333 0.0862745
0.603922 0.929412 0.0823529
0.67451 0.929412 0.0901961
0.737255 0.929412 0.0823529
0.811765 0.933333 0.0823529
0.87451 0.933333 0.0901961
0.929412 0.933333 0.0862745
0.988235 0.929412 0.0862745
0.996078 0.929412 0.0862745
0.00392157 0.996078 0.0941176
0.0666667 0.996078 0.101961
0.133333 0.996078 0.0941176
0.2 0.996078 0.0901961
0.270588 0.996078 0.101961
0.341176 0.996078 0.0941176
0.407843 0.996078 0.0941176
0.47451 0.996078 0.0901961
0.54902 0.992157 0.0980392
0.615686 0.996078 0.0941176
0.690196 1 0.0941176
0.741176 1 0.0901961
0.811765 1 0.0901961
0.87451 1 0.0862745
0.933333 1 0.0941176
0.992157 1 0.0862745
0.996078 1 0.0862745
0 0.996078 0.0941176
0.0588235 0.996078 0.101961
0.12549 0.996078 0.0941176
0.2 0.996078 0.0901961
0.266667 0.996078 0.101961
0.333333 0.996078 0.0941176
0.4 0.996078 0.0941176
0.466667 0.996078 0.0901961
0.541176 0.996078 0.0941176
0.615686 0.996078 0.0941176
0.678431 1 0.0901961
0.737255 1 0.0901961
0.811765 1 0.0901961
0.87451 1 0.0862745
0.933333 1 0.0941176
0.992157 1 0.0862745
0.996078 1 0.0862745
0.0196078 0 0.0156863
0.0666667 0 0.0235294
0.113725 0 0.0156863
0.160784 0 0.0156863
0.207843 0.00392157 0.0196078
0.27451 0.00784314 0.0117647
0.32549 0.00392157 0.0196078
0.388235 0.00392157 0.00784314
0.458824 0.00392157 0.00784314
0.568627 0 0.0117647
0.654902 0.00392157 0.0117647
0.733333 0.00392157 0.0156863
0.823529 0.00392157 0.0156863
0.890196 0.00392157 0.0196078
0.960784 0 0.027451
1 0 0.0313725
1 0 0.0313725
0.0117647 0.0352941 0.027451
0.0627451 0.0313725 0.0196078
0.105882 0.0313725 0.0156863
0.152941 0.0313725 0.0196078
0.207843 0.0392157 0.0156863
0.27451 0.0352941 0.0156863
0.32549 0.0392157 0.0156863
0.380392 0.0352941 0.0196078
0.45098 0.0431373 0.00784314
0.556863 0.0352941 0.0156863
0.65098 0.0352941 0.0156863
0.729412 0.0313725 0.0156863
0.811765 0.0313725 0.0117647
0.890196 0.0156863 0.0196078
0.952941 0.027451 0.027451
0.992157 0.0313725 0.027451
0.992157 0.027451 0.027451
0.0117647 0.0941176 0.027451
0.054902 0.0862745 0.027451
0.105882 0.0745098 0.0235294
0.152941 0.0784314 0.0196078
0.203922 0.0784314 0.0196078
0.266667 0.0862745 0.0235294
0.321569 0.0901961 0.0196078
0.380392 0.0941176 0.0196078
0.45098 0.0941176 0.0196078
0.54902 0.0980392 0.0235294
0.635294 0.0980392 0.0235294
0.709804 0.0941176 0.027451
0.803922 0.101961 0.0235294
0.870588 0.0980392 0.0235294
0.933333 0.0980392 0.0352941
0.976471 0.101961 0.0352941
0.980392 0.0980392 0.0392157
0.0117647 0.14902 0.0313725
0.054902 0.145098 0.0313725
0.105882 0.129412 0.027451
0.156863 0.117647 0.0196078
0.207843 0.121569 0.027451
0.270588 0.141176 0.0196078
0.329412 0.133333 0.027451
0.388235 0.137255 0.027451
0.439216 0.137255 0.0196078
0.552941 0.14902 0.027451
0.639216 0.156863 0.027451
0.709804 0.160784 0.0313725
0.788235 0.160784 0.0352941
0.858824 0.164706 0.0352941
0.92549 0.160784 0.0352941
0.968627 0.172549 0.0470588
0.968627 0.164706 0.0431373
0.0117647 0.192157 0.0392157
0.0470588 0.196078 0.0352941
0.101961 0.188235 0.0352941
0.14902 0.172549 0.0313725
0.203922 0.172549 0.027451
0.266667 0.180392 0.027451
0.317647 0.188235 0.027451
0.380392 0.196078 0.0313725
0.435294 0.203922 0.0313725
0.537255 0.207843 0.0352941
0.619608 0.215686 0.0392157
0.698039 0.223529 0.0470588
0.780392 0.227451 0.0470588
0.843137 0.227451 0.0509804
0.901961 0.243137 0.0588235
0.952941 0.239216 0.054902
0.952941 0.243137 0.0666667
0.00784314 0.254902 0.0470588
0.0470588 0.254902 0.0431373
0.0901961 0.239216 0.0392157
0.14902 0.239216 0.0352941
0.203922 0.227451 0.0392157
0.262745 0.223529 0.0235294
0.309804 0.243137 0.0313725
0.372549 0.243137 0.0313725
0.435294 0.25098 0.0313725
0.533333 0.262745 0.0392157
0.623529 0.27451 0.0470588
0.686275 0.282353 0.0509804
0.772549 0.286275 0.0509804
0.839216 0.298039 0.054902
0.905882 0.309804 0.0627451
0.94902 0.313725 0.0705882
0.94902 0.313725 0.0705882
0.0196078 0.313725 0.0509804
0.0470588 0.321569 0.0470588
0.0980392 0.301961 0.0431373
0.152941 0.294118 0.0431373
0.203922 0.290196 0.0392157
0.262745 0.278431 0.0392157
0.321569 0.282353 0.0392157
0.388235 0.298039 0.0352941
0.45098 0.317647 0.0352941
0.541176 0.317647 0.0470588
0.623529 0.333333 0.0470588
0.701961 0.341176 0.054902
0.776471 0.352941 0.0588235
0.839216 0.352941 0.0627451
0.905882 0.372549 0.0666667
0.956863 0.380392 0.0784314
0.956863 0.380392 0.0784314
0.0156863 0.372549 0.0588235
0.0431373 0.376471 0.0509804
0.0901961 0.368627 0.054902
0.14902 0.360784 0.054902
0.196078 0.356863 0.0509804
0.266667 0.364706 0.0470588
0.321569 0.34902 0.0431373
0.380392 0.352941 0.0392157
0.443137 0.372549 0.0431373
0.541176 0.384314 0.0509804
0.627451 0.392157 0.054902
0.705882 0.403922 0.0588235
0.784314 0.415686 0.0627451
0.854902 0.427451 0.0705882
0.921569 0.439216 0.0705882
0.968627 0.443137 0.0705882
0.968627 0.443137 0.0705882
0.0117647 0.443137 0.0705882
0.0392157 0.447059 0.0666667
0.0901961 0.443137 0.0588235
0.152941 0.431373 0.0627451
0.207843 0.423529 0.054902
0.266667 0.427451 0.0509804
0.329412 0.439216 0.0470588
0.388235 0.435294 0.0509804
0.443137 0.427451 0.0470588
0.537255 0.45098 0.054902
0.627451 0.458824 0.0588235
0.705882 0.47451 0.0666667
0.772549 0.482353 0.0627451
0.854902 0.501961 0.0705882
0.921569 0.505882 0.0745098
0.976471 0.517647 0.0745098
0.976471 0.517647 0.0745098
0.0156863 0.537255 0.0784314
0.0392157 0.537255 0.0784314
0.0941176 0.529412 0.0666667
0.152941 0.537255 0.0705882
0.211765 0.537255 0.0745098
0.278431 0.52549 0.0666667
0.329412 0.521569 0.0627451
0.4 0.533333 0.0588235
0.458824 0.537255 0.054902
0.537255 0.52549 0.0666667
0.631373 0.533333 0.0666667
0.705882 0.54902 0.0627451
0.788235 0.560784 0.0705882
0.862745 0.576471 0.0705882
0.921569 0.580392 0.0745098
0.988235 0.584314 0.0784314
0.988235 0.588235 0.0784314
0.0156863 0.627451 0.0941176
0.0470588 0.627451 0.0862745
0.0941176 0.623529 0.0823529
0.164706 0.619608 0.0901961
0.227451 0.623529 0.0823529
0.298039 0.619608 0.0823529
0.360784 0.623529 0.0784314
0.419608 0.619608 0.0666667
0.486275 0.619608 0.0745098
0.568627 0.619608 0.0705882
0.643137 0.615686 0.0666667
0.713725 0.627451 0.0588235
0.792157 0.631373 0.0666667
0.866667 0.639216 0.0745098
0.929412 0.654902 0.0745098
0.992157 0.662745 0.0823529
0.992157 0.662745 0.0823529
0.0117647 0.717647 0.0941176
0.0509804 0.717647 0.0980392
0.105882 0.713725 0.101961
0.164706 0.713725 0.0980392
0.227451 0.713725 0.0862745
0.298039 0.713725 0.0862745
0.368627 0.713725 0.0862745
0.427451 0.705882 0.0862745
0.498039 0.709804 0.0823529
0.572549 0.709804 0.0745098
0.643137 0.709804 0.0666667
0.713725 0.705882 0.0705882
0.796078 0.709804 0.0705882
0.862745 0.717647 0.0666667
0.933333 0.72549 0.0823529
0.992157 0.729412 0.0784314
0.992157 0.72549 0.0823529
0.00784314 0.796078 0.105882
0.0470588 0.796078 0.113725
0.113725 0.796078 0.109804
0.176471 0.792157 0.0980392
0.247059 0.788235 0.105882
0.309804 0.796078 0.105882
0.372549 0.792157 0.0941176
0.443137 0.784314 0.0980392
0.509804 0.784314 0.0901961
0.584314 0.792157 0.0862745
0.658824 0.788235 0.0862745
0.72549 0.784314 0.0745098
0.792157 0.784314 0.0745098
0.866667 0.788235 0.0705882
0.933333 0.792157 0.0705882
0.992157 0.796078 0.0784314
0.992157 0.796078 0.0784314
0.0117647 0.870588 0.12549
0.0627451 0.866667 0.117647
0.121569 0.862745 0.113725
0.184314 0.866667 0.109804
0.25098 0.858824 0.105882
0.329412 0.858824 0.109804
0.392157 0.862745 0.105882
0.45098 0.854902 0.0980392
0.521569 0.866667 0.0980392
0.596078 0.858824 0.0980392
0.666667 0.862745 0.0941176
0.737255 0.862745 0.0823529
0.807843 0.854902 0.0862745
0.866667 0.858824 0.0862745
0.933333 0.866667 0.0745098
1 0.862745 0.0784314
1 0.862745 0.0823529
0.00392157 0.92549 0.129412
0.054902 0.929412 0.12549
0.121569 0.929412 0.12549
0.188235 0.929412 0.121569
0.262745 0.937255 0.121569
0.329412 0.933333 0.117647
0.396078 0.929412 0.113725
0.462745 0.933333 0.105882
0.541176 0.933333 0.101961
0.603922 0.92549 0.105882
0.67451 0.933333 0.101961
0.737255 0.933333 0.0980392
0.803922 0.933333 0.0901961
0.87451 0.933333 0.0901961
0.929412 0.933333 0.0862745
0.992157 0.929412 0.0784314
0.996078 0.929412 0.0901961
0 0.996078 0.133333
0.0588235 1 0.141176
0.12549 0.996078 0.129412
0.196078 0.996078 0.129412
0.266667 0.996078 0.129412
0.337255 1 0.12549
0.403922 0.992157 0.121569
0.478431 0.996078 0.121569
0.545098 0.996078 0.113725
0.615686 1 0.117647
0.682353 1 0.109804
0.741176 0.996078 0.101961
0.815686 1 0.105882
0.870588 1 0.101961
0.933333 1 0.101961
0.992157 1 0.0941176
0.996078 1 0.0901961
0 0.996078 0.133333
0.0588235 1 0.133333
0.12549 0.996078 0.129412
0.196078 0.996078 0.129412
0.262745 0.996078 0.129412
0.337255 1 0.12549
0.403922 0.992157 0.121569
0.47451 0.996078 0.121569
0.541176 0.996078 0.113725
0.615686 1 0.109804
0.682353 1 0.109804
0.741176 0.996078 0.109804
0.815686 1 0.105882
0.870588 1 0.101961
0.933333 1 0.101961
0.992157 1 0.0941176
0.996078 1 0.0901961
0.0117647 0 0.0352941
0.0627451 0 0.0431373
0.109804 0.00392157 0.0392157
0.160784 0.00392157 0.0392157
0.211765 0.00392157 0.0431373
0.278431 0.00392157 0.0431373
0.32549 0.00784314 0.0431373
0.388235 0.00784314 0.0509804
0.462745 0.0117647 0.0392157
0.560784 0.00392157 0.0509804
0.658824 0.00784314 0.054902
0.733333 0.00392157 0.054902
0.819608 0.00392157 0.0588235
0.894118 0.00392157 0.0705882
0.964706 0.00392157 0.0745098
1 0 0.0784314
1 0 0.0823529
0.0117647 0.0313725 0.0431373
0.0588235 0.0352941 0.0431373
0.109804 0.0352941 0.0431373
0.160784 0.0352941 0.0470588
0.211765 0.0392157 0.0431373
0.27451 0.0392157 0.0392157
0.321569 0.0392157 0.0431373
0.392157 0.0392157 0.0470588
0.454902 0.0392157 0.0392157
0.560784 0.0392157 0.0431373
0.65098 0.0392157 0.0509804
0.741176 0.0392157 0.054902
0.823529 0.0352941 0.0588235
0.890196 0.027451 0.0666667
0.952941 0.0352941 0.0705882
0.996078 0.0313725 0.0823529
0.996078 0.0313725 0.0823529
0.0156863 0.0823529 0.0509804
0.0588235 0.0862745 0.054902
0.101961 0.0862745 0.0509804
0.160784 0.0823529 0.0470588
0.211765 0.0823529 0.0470588
0.262745 0.0901961 0.0470588
0.32549 0.0901961 0.0470588
0.380392 0.0980392 0.0509804
0.447059 0.0980392 0.0431373
0.556863 0.0980392 0.0588235
0.643137 0.101961 0.0588235
0.721569 0.101961 0.0588235
0.8 0.105882 0.0666667
0.866667 0.105882 0.0705882
0.937255 0.101961 0.0784314
0.980392 0.105882 0.0862745
0.980392 0.105882 0.0862745
0.0117647 0.141176 0.0588235
0.054902 0.14902 0.054902
0.0980392 0.133333 0.0509804
0.152941 0.12549 0.0509804
0.203922 0.133333 0.054902
0.266667 0.141176 0.0588235
0.32549 0.145098 0.0509804
0.380392 0.145098 0.0431373
0.443137 0.152941 0.054902
0.541176 0.156863 0.0588235
0.627451 0.164706 0.0627451
0.713725 0.164706 0.0666667
0.792157 0.172549 0.0745098
0.858824 0.176471 0.0823529
0.92549 0.180392 0.0862745
0.968627 0.180392 0.101961
0.968627 0.176471 0.0980392
0.0156863 0.192157 0.0627451
0.0509804 0.196078 0.0627451
0.0980392 0.192157 0.0588235
0.156863 0.176471 0.0588235
0.2 0.176471 0.0509804
0.262745 0.184314 0.054902
0.321569 0.192157 0.054902
0.388235 0.2 0.0588235
0.447059 0.211765 0.0666667
0.533333 0.211765 0.0666667
0.639216 0.223529 0.0705882
0.705882 0.227451 0.0745098
0.780392 0.231373 0.0901961
0.847059 0.235294 0.0862745
0.905882 0.247059 0.101961
0.952941 0.247059 0.109804
0.94902 0.254902 0.109804
0.0156863 0.247059 0.0745098
0.0509804 0.254902 0.0666667
0.101961 0.258824 0.0627451
0.152941 0.247059 0.0588235
0.203922 0.231373 0.0588235
0.266667 0.231373 0.0627451
0.321569 0.239216 0.054902
0.376471 0.25098 0.0588235
0.443137 0.254902 0.0627451
0.537255 0.27451 0.0705882
0.631373 0.278431 0.0745098
0.698039 0.290196 0.0823529
0.772549 0.298039 0.0901961
0.843137 0.305882 0.0941176
0.909804 0.313725 0.117647
0.94902 0.317647 0.113725
0.94902 0.317647 0.121569
0.0156863 0.305882 0.0745098
0.0431373 0.309804 0.0705882
0.0901961 0.317647 0.0784314
0.14902 0.305882 0.0627451
0.207843 0.301961 0.0666667
0.258824 0.294118 0.0705882
0.317647 0.294118 0.0588235
0.384314 0.313725 0.0705882
0.439216 0.321569 0.0705882
0.537255 0.32549 0.0745098
0.631373 0.341176 0.0862745
0.713725 0.352941 0.0980392
0.780392 0.360784 0.0941176
0.85098 0.376471 0.105882
0.909804 0.380392 0.113725
0.964706 0.388235 0.117647
0.964706 0.388235 0.117647
0.0117647 0.364706 0.0823529
0.0470588 0.376471 0.0745098
0.0941176 0.368627 0.0823529
0.156863 0.368627 0.0745098
0.203922 0.360784 0.0745098
0.266667 0.360784 0.0705882
0.329412 0.360784 0.0745098
0.388235 0.364706 0.0745098
0.458824 0.384314 0.0745098
0.541176 0.388235 0.0784314
0.627451 0.396078 0.0901961
0.705882 0.411765 0.0941176
0.780392 0.431373 0.109804
0.854902 0.435294 0.113725
0.917647 0.447059 0.109804
0.968627 0.458824 0.121569
0.968627 0.458824 0.12549
0.0196078 0.435294 0.0901961
0.0392157 0.45098 0.0901961
0.0862745 0.439216 0.0862745
0.14902 0.439216 0.0901961
0.203922 0.435294 0.0823529
0.262745 0.431373 0.0784314
0.329412 0.443137 0.0823529
0.388235 0.427451 0.0784314
0.447059 0.431373 0.0745098
0.545098 0.454902 0.0862745
0.639216 0.470588 0.0980392
0.709804 0.47451 0.0980392
0.784314 0.486275 0.101961
0.858824 0.509804 0.109804
0.933333 0.517647 0.117647
0.980392 0.52549 0.129412
0.980392 0.52549 0.129412
0.0156863 0.533333 0.101961
0.0431373 0.537255 0.105882
0.0901961 0.537255 0.0941176
0.152941 0.545098 0.0980392
0.215686 0.537255 0.101961
0.286275 0.529412 0.101961
0.341176 0.529412 0.0980392
0.407843 0.541176 0.0980392
0.47451 0.541176 0.0941176
0.545098 0.529412 0.0980392
0.631373 0.541176 0.0941176
0.713725 0.560784 0.101961
0.792157 0.568627 0.113725
0.854902 0.580392 0.105882
0.92549 0.588235 0.121569
0.984314 0.596078 0.12549
0.984314 0.592157 0.121569
0.0156863 0.631373 0.12549
0.0431373 0.635294 0.121569
0.0980392 0.635294 0.117647
0.168627 0.627451 0.109804
0.223529 0.647059 0.117647
0.290196 0.643137 0.117647
0.352941 0.627451 0.109804
0.415686 0.623529 0.105882
0.490196 0.631373 0.0980392
0.564706 0.635294 0.109804
0.635294 0.623529 0.101961
0.709804 0.631373 0.101961
0.788235 0.639216 0.117647
0.866667 0.647059 0.117647
0.933333 0.670588 0.121569
0.988235 0.666667 0.12549
0.988235 0.666667 0.12549
0.0156863 0.713725 0.133333
0.0509804 0.717647 0.129412
0.113725 0.717647 0.129412
0.172549 0.713725 0.133333
0.235294 0.72549 0.129412
0.301961 0.717647 0.121569
0.368627 0.717647 0.121569
0.439216 0.713725 0.12549
0.501961 0.717647 0.117647
0.580392 0.709804 0.109804
0.658824 0.709804 0.113725
0.729412 0.717647 0.117647
0.796078 0.713725 0.105882
0.866667 0.72549 0.113725
0.941176 0.72549 0.12549
0.992157 0.729412 0.129412
0.992157 0.729412 0.129412
0.0117647 0.792157 0.145098
0.0509804 0.792157 0.145098
0.105882 0.8 0.141176
0.180392 0.796078 0.133333
0.243137 0.796078 0.145098
0.309804 0.792157 0.141176
0.376471 0.792157 0.133333
0.443137 0.792157 0.133333
0.509804 0.788235 0.129412
0.584314 0.788235 0.121569
0.666667 0.792157 0.121569
0.72549 0.788235 0.12549
0.8 0.792157 0.113725
0.866667 0.796078 0.121569
0.92549 0.792157 0.12549
0.996078 0.796078 0.12549
0.996078 0.796078 0.129412
0.0117647 0.870588 0.164706
0.054902 0.878431 0.160784
0.109804 0.870588 0.156863
0.180392 0.866667 0.156863
0.243137 0.862745 0.152941
0.321569 0.862745 0.14902
0.392157 0.866667 0.14902
0.458824 0.866667 0.141176
0.529412 0.866667 0.141176
0.596078 0.862745 0.137255
0.67451 0.870588 0.137255
0.729412 0.866667 0.121569
0.803922 0.862745 0.121569
0.866667 0.862745 0.121569
0.937255 0.870588 0.121569
0.996078 0.87451 0.133333
0.996078 0.866667 0.133333
0.00784314 0.929412 0.180392
0.0627451 0.929412 0.172549
0.12549 0.933333 0.164706
0.188235 0.933333 0.164706
0.258824 0.933333 0.164706
0.329412 0.937255 0.160784
0.403922 0.933333 0.152941
0.47451 0.937255 0.160784
0.533333 0.929412 0.145098
0.603922 0.933333 0.14902
0.682353 0.933333 0.14902
0.745098 0.933333 0.14902
0.815686 0.937255 0.145098
0.87451 0.929412 0.141176
0.929412 0.937255 0.133333
1 0.933333 0.141176
1 0.933333 0.141176
0.00392157 1 0.184314
0.0588235 0.996078 0.184314
0.12549 0.996078 0.184314
0.196078 0.996078 0.176471
0.258824 0.996078 0.180392
0.341176 0.996078 0.172549
0.407843 0.996078 0.168627
0.47451 0.992157 0.176471
0.54902 1 0.164706
0.623529 1 0.160784
0.686275 0.996078 0.160784
0.745098 1 0.160784
0.815686 1 0.145098
0.878431 1 0.14902
0.941176 1 0.156863
0.996078 1 0.145098
0.996078 1 0.145098
0 1 0.184314
0.0588235 0.996078 0.184314
0.12549 0.996078 0.180392
0.196078 0.996078 0.176471
0.266667 0.996078 0.180392
0.341176 0.996078 0.176471
0.407843 0.996078 0.168627
0.47451 0.992157 0.176471
0.54902 1 0.172549
0.623529 1 0.160784
0.686275 0.996078 0.160784
0.74902 1 0.156863
0.819608 1 0.145098
0.878431 0.996078 0.14902
0.941176 1 0.14902
0.996078 1 0.145098
0.996078 1 0.145098
0.0156863 0.00784314 0.0627451
0.0666667 0 0.0705882
0.113725 0 0.0784314
0.164706 0.00392157 0.0745098
0.215686 0 0.0745098
0.270588 0 0.0745098
0.333333 0 0.0745098
0.392157 0.00392157 0.0823529
0.466667 0.00784314 0.0823529
0.576471 0.00392157 0.0941176
0.662745 0.00392157 0.101961
0.745098 0 0.101961
0.827451 0.00392157 0.117647
0.901961 0.00392157 0.12549
0.964706 0.00392157 0.133333
1 0 0.141176
1 0 0.141176
0.0196078 0.0352941 0.0705882
0.0588235 0.0392157 0.0666667
0.113725 0.0352941 0.0784314
0.156863 0.0313725 0.0745098
0.207843 0.0392157 0.0784314
