luts/better_BW_skin.cube
#Generated by Picture Instruments - Unlimited Filters
TITLE "better BW skin"
LUT_3D_SIZE 17
0.0901961 0.0901961 0.0901961
0.0980392 0.0901961 0.0941176
0.113725 0.113725 0.113725
0.137255 0.137255 0.137255
0.156863 0.156863 0.156863
0.188235 0.188235 0.180392
0.215686 0.215686 0.207843
0.243137 0.243137 0.235294
0.27451 0.270588 0.262745
0.305882 0.305882 0.298039
0.345098 0.341176 0.333333
0.376471 0.376471 0.368627
0.415686 0.411765 0.396078
0.45098 0.454902 0.435294
0.494118 0.498039 0.478431
0.537255 0.533333 0.517647
0.568627 0.568627 0.560784
0.0901961 0.0901961 0.0901961
0.0980392 0.0901961 0.0941176
0.113725 0.113725 0.113725
0.141176 0.141176 0.141176
0.156863 0.156863 0.156863
0.188235 0.188235 0.180392
0.215686 0.215686 0.207843
0.243137 0.243137 0.235294
0.278431 0.27451 0.266667
0.309804 0.309804 0.301961
0.345098 0.341176 0.333333
0.380392 0.380392 0.372549
0.415686 0.411765 0.396078
0.454902 0.458824 0.439216
0.494118 0.498039 0.478431
0.537255 0.533333 0.517647
0.580392 0.580392 0.572549
0.0941176 0.0941176 0.0941176
0.101961 0.101961 0.101961
0.117647 0.117647 0.117647
0.141176 0.141176 0.141176
0.164706 0.164706 0.164706
0.192157 0.192157 0.184314
0.219608 0.215686 0.207843
0.247059 0.247059 0.239216
0.282353 0.278431 0.270588
0.313725 0.313725 0.305882
0.352941 0.34902 0.341176
0.380392 0.380392 0.372549
0.419608 0.415686 0.4
0.458824 0.462745 0.443137
0.498039 0.501961 0.482353
0.54902 0.552941 0.533333
0.580392 0.580392 0.572549
0.0941176 0.0941176 0.0941176
0.101961 0.101961 0.101961
0.121569 0.121569 0.121569
0.145098 0.145098 0.145098
0.160784 0.160784 0.160784
0.192157 0.192157 0.184314
0.219608 0.215686 0.207843
0.247059 0.247059 0.239216
0.286275 0.282353 0.27451
0.313725 0.313725 0.305882
0.352941 0.34902 0.341176
0.384314 0.384314 0.376471
0.423529 0.419608 0.403922
0.458824 0.462745 0.443137
0.498039 0.501961 0.482353
0.54902 0.552941 0.533333
0.580392 0.580392 0.572549
0.0980392 0.0901961 0.0941176
0.105882 0.105882 0.105882
0.12549 0.12549 0.12549
0.145098 0.145098 0.145098
0.164706 0.164706 0.164706
0.192157 0.192157 0.184314
0.219608 0.215686 0.207843
0.25098 0.25098 0.243137
0.282353 0.278431 0.270588
0.317647 0.317647 0.309804
0.34902 0.345098 0.337255
0.384314 0.384314 0.376471
0.423529 0.419608 0.403922
0.458824 0.462745 0.443137
0.501961 0.505882 0.486275
0.545098 0.541176 0.52549
0.584314 0.584314 0.576471
0.0980392 0.0901961 0.0941176
0.109804 0.109804 0.109804
0.129412 0.129412 0.129412
0.145098 0.145098 0.145098
0.168627 0.168627 0.168627
0.196078 0.196078 0.188235
0.227451 0.223529 0.215686
0.254902 0.254902 0.247059
0.286275 0.282353 0.27451
0.321569 0.321569 0.313725
0.356863 0.352941 0.345098
0.388235 0.388235 0.380392
0.423529 0.419608 0.403922
0.466667 0.462745 0.447059
0.505882 0.505882 0.498039
0.552941 0.556863 0.537255
0.584314 0.584314 0.576471
0.0980392 0.0901961 0.0941176
0.109804 0.109804 0.109804
0.129412 0.129412 0.129412
0.152941 0.14902 0.141176
0.176471 0.176471 0.176471
0.196078 0.196078 0.188235
0.227451 0.223529 0.215686
0.254902 0.254902 0.247059
0.286275 0.286275 0.278431
0.321569 0.321569 0.313725
0.352941 0.34902 0.341176
0.388235 0.388235 0.380392
0.427451 0.427451 0.419608
0.466667 0.462745 0.447059
0.505882 0.505882 0.498039
0.552941 0.556863 0.537255
0.588235 0.588235 0.580392
0.0980392 0.0901961 0.0941176
0.113725 0.113725 0.113725
0.133333 0.133333 0.133333
0.156863 0.152941 0.145098
0.176471 0.176471 0.176471
0.203922 0.203922 0.196078
0.227451 0.227451 0.227451
0.254902 0.254902 0.247059
0.286275 0.286275 0.278431
0.321569 0.321569 0.313725
0.356863 0.352941 0.345098
0.388235 0.388235 0.380392
0.427451 0.427451 0.419608
0.466667 0.462745 0.447059
0.509804 0.509804 0.501961
0.552941 0.556863 0.537255
0.6 0.596078 0.588235
0.0980392 0.0980392 0.0980392
0.113725 0.113725 0.113725
0.137255 0.137255 0.137255
0.156863 0.156863 0.156863
0.176471 0.176471 0.176471
0.203922 0.203922 0.196078
0.231373 0.231373 0.223529
0.262745 0.262745 0.254902
0.286275 0.286275 0.278431
0.321569 0.321569 0.313725
0.356863 0.352941 0.345098
0.392157 0.392157 0.384314
0.427451 0.427451 0.419608
0.466667 0.462745 0.447059
0.505882 0.505882 0.498039
0.556863 0.556863 0.54902
0.6 0.596078 0.588235
0.101961 0.101961 0.101961
0.121569 0.121569 0.121569
0.141176 0.141176 0.141176
0.156863 0.156863 0.156863
0.188235 0.188235 0.180392
0.211765 0.211765 0.203922
0.235294 0.235294 0.227451
0.262745 0.262745 0.254902
0.294118 0.294118 0.286275
0.329412 0.329412 0.321569
0.356863 0.356863 0.34902
0.396078 0.396078 0.388235
0.431373 0.431373 0.423529
0.47451 0.470588 0.454902
0.517647 0.517647 0.509804
0.556863 0.556863 0.54902
0.603922 0.6 0.592157
0.105882 0.105882 0.105882
0.121569 0.121569 0.121569
0.145098 0.145098 0.145098
0.160784 0.160784 0.160784
0.192157 0.192157 0.184314
0.215686 0.215686 0.207843
0.239216 0.239216 0.231373
0.270588 0.270588 0.262745
0.298039 0.298039 0.290196
0.333333 0.333333 0.32549
0.360784 0.360784 0.352941
0.396078 0.396078 0.388235
0.431373 0.431373 0.423529
0.47451 0.470588 0.454902
0.513725 0.513725 0.505882
0.564706 0.564706 0.556863
0.603922 0.6 0.592157
0.109804 0.109804 0.109804
0.12549 0.12549 0.12549
0.145098 0.145098 0.145098
0.168627 0.168627 0.168627
0.192157 0.192157 0.184314
0.219608 0.215686 0.207843
0.243137 0.243137 0.235294
0.27451 0.270588 0.262745
0.301961 0.301961 0.294118
0.337255 0.337255 0.329412
0.364706 0.364706 0.356863
0.4 0.403922 0.384314
0.431373 0.431373 0.423529
0.478431 0.47451 0.458824
0.513725 0.513725 0.505882
0.564706 0.564706 0.556863
0.603922 0.6 0.592157
0.109804 0.109804 0.109804
0.129412 0.129412 0.129412
0.14902 0.14902 0.141176
0.168627 0.168627 0.168627
0.2 0.2 0.192157
0.227451 0.223529 0.215686
0.247059 0.247059 0.239216
0.278431 0.27451 0.266667
0.309804 0.309804 0.301961
0.341176 0.337255 0.329412
0.372549 0.372549 0.364706
0.403922 0.407843 0.388235
0.439216 0.439216 0.431373
0.482353 0.478431 0.462745
0.529412 0.52549 0.509804
0.568627 0.568627 0.560784
0.607843 0.603922 0.596078
0.109804 0.109804 0.109804
0.129412 0.129412 0.129412
0.156863 0.152941 0.145098
0.176471 0.176471 0.176471
0.2 0.2 0.192157
0.227451 0.223529 0.215686
0.254902 0.254902 0.247059
0.286275 0.282353 0.27451
0.313725 0.313725 0.305882
0.345098 0.341176 0.333333
0.376471 0.376471 0.368627
0.411765 0.407843 0.392157
0.447059 0.45098 0.431373
0.482353 0.478431 0.462745
0.521569 0.521569 0.513725
0.568627 0.568627 0.560784
0.607843 0.603922 0.596078
0.113725 0.113725 0.113725
0.133333 0.133333 0.133333
0.156863 0.152941 0.145098
0.176471 0.176471 0.176471
0.203922 0.203922 0.196078
0.227451 0.227451 0.227451
0.258824 0.258824 0.25098
0.286275 0.286275 0.278431
0.321569 0.321569 0.313725
0.352941 0.34902 0.341176
0.380392 0.380392 0.372549
0.415686 0.411765 0.396078
0.447059 0.45098 0.431373
0.486275 0.490196 0.470588
0.529412 0.52549 0.509804
0.568627 0.568627 0.560784
0.611765 0.607843 0.6
0.121569 0.121569 0.121569
0.141176 0.141176 0.141176
0.156863 0.156863 0.156863
0.180392 0.180392 0.180392
0.207843 0.207843 0.2
0.235294 0.235294 0.227451
0.262745 0.262745 0.254902
0.290196 0.290196 0.282353
0.32549 0.32549 0.317647
0.356863 0.352941 0.345098
0.388235 0.388235 0.380392
0.423529 0.419608 0.403922
0.454902 0.458824 0.439216
0.498039 0.501961 0.482353
0.537255 0.533333 0.517647
0.576471 0.576471 0.568627
0.619608 0.619608 0.611765
0.121569 0.121569 0.121569
0.141176 0.141176 0.141176
0.156863 0.156863 0.156863
0.184314 0.184314 0.180392
0.207843 0.207843 0.2
0.235294 0.235294 0.227451
0.262745 0.262745 0.254902
0.290196 0.290196 0.282353
0.32549 0.32549 0.317647
0.356863 0.352941 0.345098
0.388235 0.388235 0.380392
0.423529 0.419608 0.403922
0.454902 0.458824 0.439216
0.498039 0.501961 0.482353
0.537255 0.533333 0.517647
0.576471 0.576471 0.568627
0.619608 0.619608 0.611765
0.0901961 0.0901961 0.0901961
0.101961 0.101961 0.101961
0.117647 0.117647 0.117647
0.141176 0.141176 0.141176
0.160784 0.160784 0.160784
0.192157 0.192157 0.184314
0.219608 0.215686 0.207843
0.247059 0.247059 0.239216
0.278431 0.27451 0.266667
0.313725 0.313725 0.305882
0.352941 0.34902 0.341176
0.384314 0.384314 0.376471
0.419608 0.415686 0.4
0.454902 0.458824 0.439216
0.498039 0.501961 0.482353
0.54902 0.552941 0.533333
0.580392 0.580392 0.572549
0.0941176 0.0941176 0.0941176
0.105882 0.105882 0.105882
0.12549 0.12549 0.12549
0.145098 0.145098 0.145098
0.168627 0.168627 0.168627
0.196078 0.196078 0.188235
0.227451 0.223529 0.215686
0.254902 0.254902 0.247059
0.286275 0.286275 0.278431
0.321569 0.321569 0.313725
0.356863 0.352941 0.345098
0.392157 0.392157 0.384314
0.427451 0.427451 0.419608
0.466667 0.462745 0.447059
0.509804 0.509804 0.501961
0.552941 0.556863 0.537255
0.6 0.596078 0.588235
0.0980392 0.0901961 0.0941176
0.105882 0.105882 0.105882
0.12549 0.12549 0.12549
0.145098 0.145098 0.145098
0.172549 0.172549 0.172549
0.2 0.2 0.192157
0.227451 0.223529 0.215686
0.254902 0.254902 0.247059
0.286275 0.286275 0.278431
0.32549 0.32549 0.317647
0.356863 0.356863 0.34902
0.392157 0.392157 0.384314
0.431373 0.431373 0.423529
0.470588 0.466667 0.45098
0.513725 0.513725 0.505882
0.552941 0.556863 0.537255
0.6 0.596078 0.588235
0.0980392 0.0901961 0.0941176
0.109804 0.109804 0.109804
0.129412 0.129412 0.129412
0.14902 0.14902 0.141176
0.172549 0.172549 0.172549
0.203922 0.203922 0.196078
0.231373 0.231373 0.223529
0.262745 0.262745 0.254902
0.290196 0.290196 0.282353
0.329412 0.329412 0.321569
0.360784 0.360784 0.352941
0.4 0.403922 0.384314
0.431373 0.431373 0.423529
0.47451 0.470588 0.454902
0.513725 0.513725 0.505882
0.564706 0.564706 0.556863
0.603922 0.6 0.592157
0.0980392 0.0901961 0.0941176
0.109804 0.109804 0.109804
0.129412 0.129412 0.129412
0.156863 0.152941 0.145098
0.176471 0.176471 0.176471
0.203922 0.203922 0.196078
0.231373 0.231373 0.223529
0.262745 0.262745 0.254902
0.290196 0.290196 0.282353
0.333333 0.333333 0.32549
0.360784 0.360784 0.352941
0.4 0.403922 0.384314
0.431373 0.431373 0.423529
0.478431 0.47451 0.458824
0.517647 0.517647 0.509804
0.564706 0.564706 0.556863
0.603922 0.6 0.592157
0.0980392 0.0980392 0.0980392
0.113725 0.113725 0.113725
0.133333 0.133333 0.133333
0.156863 0.152941 0.145098
0.176471 0.176471 0.176471
0.203922 0.203922 0.196078
0.231373 0.231373 0.223529
0.262745 0.262745 0.254902
0.294118 0.294118 0.286275
0.329412 0.329412 0.321569
0.364706 0.364706 0.356863
0.396078 0.396078 0.388235
0.439216 0.439216 0.431373
0.478431 0.47451 0.458824
0.517647 0.517647 0.509804
0.568627 0.568627 0.560784
0.603922 0.6 0.592157
0.0980392 0.0980392 0.0980392
0.121569 0.121569 0.121569
0.141176 0.141176 0.141176
0.156863 0.156863 0.156863
0.180392 0.180392 0.180392
0.207843 0.207843 0.2
0.235294 0.235294 0.227451
0.266667 0.266667 0.258824
0.301961 0.301961 0.294118
0.333333 0.333333 0.32549
0.364706 0.364706 0.356863
0.407843 0.403922 0.388235
0.443137 0.447059 0.427451
0.478431 0.47451 0.458824
0.521569 0.521569 0.513725
0.568627 0.568627 0.560784
0.607843 0.603922 0.596078
0.101961 0.101961 0.101961
0.121569 0.121569 0.121569
0.141176 0.141176 0.141176
0.156863 0.156863 0.156863
0.188235 0.188235 0.180392
0.215686 0.215686 0.207843
0.235294 0.235294 0.227451
0.266667 0.266667 0.258824
0.298039 0.298039 0.290196
0.337255 0.337255 0.329412
0.364706 0.364706 0.356863
0.403922 0.407843 0.388235
0.443137 0.447059 0.427451
0.482353 0.478431 0.462745
0.529412 0.52549 0.509804
0.568627 0.568627 0.560784
0.611765 0.607843 0.6
0.105882 0.105882 0.105882
0.12549 0.12549 0.12549
0.145098 0.145098 0.145098
0.164706 0.164706 0.164706
0.192157 0.192157 0.184314
0.219608 0.215686 0.207843
0.239216 0.239216 0.231373
0.27451 0.270588 0.262745
0.301961 0.301961 0.294118
0.337255 0.337255 0.329412
0.368627 0.368627 0.360784
0.407843 0.403922 0.388235
0.439216 0.439216 0.431373
0.482353 0.478431 0.462745
0.529412 0.52549 0.509804
0.572549 0.572549 0.564706
0.611765 0.607843 0.6
0.109804 0.109804 0.109804
0.12549 0.12549 0.12549
0.145098 0.145098 0.145098
0.168627 0.168627 0.168627
0.192157 0.192157 0.184314
0.219608 0.215686 0.207843
0.243137 0.243137 0.235294
0.27451 0.270588 0.262745
0.305882 0.305882 0.298039
0.337255 0.337255 0.329412
0.364706 0.364706 0.356863
0.407843 0.403922 0.388235
0.447059 0.45098 0.431373
0.482353 0.478431 0.462745
0.529412 0.52549 0.509804
0.568627 0.568627 0.560784
0.619608 0.619608 0.611765
0.109804 0.109804 0.109804
0.129412 0.129412 0.129412
0.152941 0.14902 0.141176
0.172549 0.172549 0.172549
0.2 0.2 0.192157
0.227451 0.223529 0.215686
0.254902 0.254902 0.247059
0.282353 0.278431 0.270588
0.309804 0.309804 0.301961
0.345098 0.341176 0.333333
0.376471 0.376471 0.368627
0.411765 0.407843 0.392157
0.447059 0.45098 0.431373
0.486275 0.490196 0.470588
0.537255 0.533333 0.517647
0.584314 0.584314 0.576471
0.619608 0.619608 0.611765
0.109804 0.109804 0.109804
0.133333 0.133333 0.133333
0.156863 0.152941 0.145098
0.176471 0.176471 0.176471
0.203922 0.203922 0.196078
0.227451 0.227451 0.227451
0.254902 0.254902 0.247059
0.286275 0.286275 0.278431
0.317647 0.317647 0.309804
0.34902 0.345098 0.337255
0.380392 0.380392 0.372549
0.415686 0.411765 0.396078
0.447059 0.45098 0.431373
0.494118 0.498039 0.478431
0.537255 0.533333 0.517647
0.576471 0.576471 0.568627
0.619608 0.619608 0.611765
0.113725 0.113725 0.113725
0.133333 0.133333 0.133333
0.156863 0.152941 0.145098
0.176471 0.176471 0.176471
0.207843 0.207843 0.2
0.235294 0.235294 0.227451
0.258824 0.258824 0.25098
0.286275 0.286275 0.278431
0.321569 0.321569 0.313725
0.352941 0.34902 0.341176
0.380392 0.380392 0.372549
0.415686 0.411765 0.396078
0.45098 0.454902 0.435294
0.494118 0.498039 0.478431
0.541176 0.537255 0.521569
0.576471 0.576471 0.568627
0.623529 0.623529 0.615686
0.121569 0.121569 0.121569
0.141176 0.141176 0.141176
0.156863 0.156863 0.156863
0.184314 0.184314 0.176471
0.207843 0.207843 0.2
0.239216 0.239216 0.231373
0.266667 0.266667 0.258824
0.290196 0.290196 0.282353
0.32549 0.32549 0.317647
0.356863 0.356863 0.34902
0.388235 0.388235 0.380392
0.423529 0.423529 0.415686
0.454902 0.458824 0.439216
0.498039 0.501961 0.482353
0.545098 0.541176 0.52549
0.588235 0.588235 0.580392
0.623529 0.623529 0.615686
0.121569 0.121569 0.121569
0.145098 0.145098 0.145098
0.160784 0.160784 0.160784
0.192157 0.192157 0.184314
0.219608 0.215686 0.207843
0.239216 0.239216 0.231373
0.270588 0.270588 0.262745
0.298039 0.298039 0.290196
0.333333 0.333333 0.32549
0.360784 0.360784 0.352941
0.392157 0.392157 0.384314
0.427451 0.427451 0.419608
0.462745 0.458824 0.443137
0.501961 0.505882 0.486275
0.545098 0.541176 0.52549
0.588235 0.588235 0.580392
0.627451 0.627451 0.619608
0.12549 0.12549 0.12549
0.145098 0.145098 0.145098
0.164706 0.164706 0.164706
0.192157 0.192157 0.184314
0.219608 0.215686 0.207843
0.243137 0.243137 0.235294
0.270588 0.270588 0.262745
0.301961 0.301961 0.294118
0.337255 0.337255 0.329412
0.364706 0.364706 0.356863
0.4 0.403922 0.384314
0.431373 0.431373 0.423529
0.470588 0.466667 0.45098
0.505882 0.505882 0.498039
0.552941 0.556863 0.537255
0.588235 0.588235 0.580392
0.635294 0.635294 0.627451
0.12549 0.12549 0.12549
0.145098 0.145098 0.141176
0.164706 0.164706 0.164706
0.192157 0.192157 0.184314
0.219608 0.215686 0.207843
0.243137 0.243137 0.235294
0.27451 0.270588 0.262745
0.305882 0.305882 0.298039
0.337255 0.337255 0.329412
0.368627 0.368627 0.360784
0.4 0.403922 0.384314
0.435294 0.435294 0.427451
0.470588 0.466667 0.45098
0.509804 0.509804 0.501961
0.552941 0.556863 0.545098
0.588235 0.588235 0.580392
0.635294 0.635294 0.627451
0.0901961 0.0901961 0.0901961
0.0980392 0.0980392 0.0980392
0.121569 0.121569 0.121569
0.141176 0.141176 0.141176
0.168627 0.168627 0.168627
0.192157 0.192157 0.184314
0.219608 0.215686 0.207843
0.25098 0.25098 0.243137
0.286275 0.282353 0.27451
0.317647 0.317647 0.309804
0.352941 0.34902 0.341176
0.384314 0.384314 0.376471
0.423529 0.419608 0.403922
0.462745 0.458824 0.443137
0.501961 0.505882 0.486275
0.54902 0.552941 0.533333
0.584314 0.584314 0.576471
0.0941176 0.0941176 0.0941176
0.105882 0.105882 0.105882
0.129412 0.129412 0.129412
0.14902 0.14902 0.141176
0.176471 0.176471 0.176471
0.203922 0.203922 0.196078
0.231373 0.231373 0.223529
0.262745 0.262745 0.254902
0.290196 0.290196 0.282353
0.32549 0.32549 0.317647
0.360784 0.360784 0.352941
0.4 0.403922 0.384314
0.431373 0.431373 0.423529
0.47451 0.470588 0.454902
0.513725 0.513725 0.505882
0.564706 0.564706 0.556863
0.6 0.596078 0.588235
0.0980392 0.0901961 0.0941176
0.109804 0.109804 0.109804
0.133333 0.133333 0.133333
0.156863 0.152941 0.145098
0.180392 0.180392 0.180392
0.207843 0.207843 0.2
0.235294 0.235294 0.227451
0.270588 0.270588 0.262745
0.301961 0.301961 0.294118
0.337255 0.337255 0.329412
0.368627 0.368627 0.360784
0.407843 0.403922 0.388235
0.447059 0.45098 0.431373
0.482353 0.478431 0.462745
0.529412 0.52549 0.509804
0.572549 0.572549 0.564706
0.611765 0.607843 0.6
0.0980392 0.0980392 0.0980392
0.113725 0.113725 0.113725
0.133333 0.133333 0.133333
0.156863 0.152941 0.145098
0.180392 0.180392 0.180392
0.211765 0.211765 0.203922
0.239216 0.239216 0.231373
0.266667 0.266667 0.258824
0.301961 0.301961 0.294118
0.337255 0.337255 0.329412
0.372549 0.372549 0.364706
0.411765 0.407843 0.392157
0.447059 0.45098 0.431373
0.486275 0.490196 0.470588
0.533333 0.529412 0.513725
0.576471 0.576471 0.568627
0.619608 0.619608 0.611765
0.0980392 0.0980392 0.0980392
0.121569 0.121569 0.121569
0.141176 0.141176 0.141176
0.156863 0.156863 0.156863
0.184314 0.184314 0.176471
0.211765 0.211765 0.203922
0.243137 0.243137 0.235294
0.27451 0.270588 0.262745
0.305882 0.305882 0.298039
0.341176 0.337255 0.329412
0.376471 0.376471 0.368627
0.415686 0.411765 0.396078
0.45098 0.454902 0.435294
0.486275 0.490196 0.470588
0.537255 0.533333 0.517647
0.576471 0.576471 0.568627
0.619608 0.619608 0.611765
0.105882 0.105882 0.105882
0.121569 0.121569 0.121569
0.145098 0.145098 0.145098
0.160784 0.160784 0.160784
0.192157 0.192157 0.184314
0.219608 0.215686 0.207843
0.239216 0.239216 0.231373
0.27451 0.270588 0.262745
0.305882 0.305882 0.298039
0.341176 0.337255 0.329412
0.380392 0.380392 0.372549
0.415686 0.411765 0.396078
0.45098 0.454902 0.435294
0.494118 0.498039 0.478431
0.541176 0.537255 0.521569
0.584314 0.584314 0.576471
0.619608 0.619608 0.611765
0.105882 0.105882 0.105882
0.12549 0.12549 0.12549
0.145098 0.145098 0.145098
0.164706 0.164706 0.164706
0.192157 0.192157 0.184314
0.219608 0.215686 0.207843
0.243137 0.243137 0.235294
0.27451 0.270588 0.262745
0.305882 0.305882 0.298039
0.345098 0.341176 0.333333
0.376471 0.376471 0.368627
0.415686 0.411765 0.396078
0.447059 0.45098 0.431373
0.498039 0.501961 0.482353
0.541176 0.537255 0.521569
0.584314 0.584314 0.576471
0.623529 0.623529 0.615686
0.109804 0.109804 0.109804
0.129412 0.129412 0.129412
0.152941 0.14902 0.141176
0.172549 0.172549 0.172549
0.196078 0.196078 0.188235
0.223529 0.219608 0.211765
0.25098 0.25098 0.243137
0.282353 0.278431 0.270588
0.313725 0.313725 0.305882
0.352941 0.34902 0.341176
0.380392 0.380392 0.372549
0.419608 0.415686 0.4
0.458824 0.462745 0.443137
0.498039 0.501961 0.482353
0.541176 0.537255 0.521569
0.588235 0.588235 0.580392
0.627451 0.627451 0.619608
0.109804 0.109804 0.109804
0.129412 0.129412 0.129412
0.152941 0.14902 0.141176
0.176471 0.176471 0.176471
0.2 0.2 0.192157
0.227451 0.223529 0.215686
0.254902 0.254902 0.247059
0.282353 0.278431 0.270588
0.313725 0.313725 0.305882
0.34902 0.345098 0.337255
0.384314 0.384314 0.376471
0.419608 0.415686 0.4
0.454902 0.458824 0.439216
0.498039 0.501961 0.482353
0.54902 0.552941 0.533333
0.588235 0.588235 0.580392
0.627451 0.627451 0.619608
0.109804 0.109804 0.109804
0.133333 0.133333 0.133333
0.156863 0.152941 0.145098
0.176471 0.176471 0.176471
0.203922 0.203922 0.196078
0.227451 0.227451 0.227451
0.258824 0.258824 0.25098
0.286275 0.286275 0.278431
0.321569 0.321569 0.313725
0.352941 0.34902 0.341176
0.384314 0.384314 0.376471
0.423529 0.419608 0.403922
0.458824 0.462745 0.443137
0.498039 0.501961 0.482353
0.54902 0.552941 0.533333
0.588235 0.588235 0.580392
0.635294 0.635294 0.627451
0.113725 0.113725 0.113725
0.133333 0.133333 0.133333
0.156863 0.156863 0.156863
0.180392 0.180392 0.180392
0.207843 0.207843 0.2
0.235294 0.235294 0.227451
0.262745 0.262745 0.254902
0.286275 0.286275 0.278431
0.321569 0.321569 0.313725
0.356863 0.352941 0.345098
0.384314 0.384314 0.376471
0.419608 0.415686 0.4
0.458824 0.462745 0.443137
0.501961 0.505882 0.486275
0.54902 0.552941 0.533333
0.588235 0.588235 0.580392
0.635294 0.635294 0.627451
0.121569 0.121569 0.121569
0.141176 0.141176 0.141176
0.160784 0.160784 0.160784
0.188235 0.188235 0.180392
0.211765 0.211765 0.203922
0.239216 0.239216 0.231373
0.270588 0.270588 0.262745
0.298039 0.298039 0.290196
0.329412 0.329412 0.321569
0.356863 0.356863 0.34902
0.392157 0.392157 0.384314
0.427451 0.427451 0.419608
0.462745 0.458824 0.443137
0.505882 0.505882 0.498039
0.552941 0.556863 0.537255
0.603922 0.6 0.592157
0.635294 0.635294 0.627451
0.121569 0.121569 0.121569
0.145098 0.145098 0.145098
0.164706 0.164706 0.164706
0.192157 0.192157 0.184314
0.219608 0.215686 0.207843
0.239216 0.239216 0.231373
0.27451 0.270588 0.262745
0.301961 0.301961 0.294118
0.337255 0.337255 0.329412
0.364706 0.364706 0.356863
0.396078 0.396078 0.388235
0.431373 0.431373 0.423529
0.466667 0.462745 0.447059
0.505882 0.505882 0.498039
0.552941 0.556863 0.537255
0.603922 0.6 0.592157
0.639216 0.639216 0.631373
0.12549 0.12549 0.12549
0.145098 0.145098 0.145098
0.168627 0.168627 0.168627
0.192157 0.192157 0.184314
0.219608 0.215686 0.207843
0.247059 0.247059 0.239216
0.278431 0.27451 0.266667
0.301961 0.301961 0.294118
0.337255 0.337255 0.329412
0.368627 0.368627 0.360784
0.403922 0.407843 0.388235
0.431373 0.431373 0.423529
0.470588 0.466667 0.45098
0.509804 0.509804 0.501961
0.552941 0.556863 0.537255
0.607843 0.603922 0.596078
0.639216 0.639216 0.631373
0.129412 0.129412 0.129412
0.152941 0.14902 0.141176
0.176471 0.176471 0.176471
0.2 0.2 0.192157
0.227451 0.223529 0.215686
0.25098 0.25098 0.243137
0.286275 0.282353 0.27451
0.313725 0.313725 0.305882
0.341176 0.337255 0.329412
0.372549 0.372549 0.364706
0.411765 0.407843 0.392157
0.443137 0.447059 0.427451
0.482353 0.478431 0.462745
0.513725 0.513725 0.505882
0.556863 0.556863 0.54902
0.607843 0.603922 0.596078
0.639216 0.639216 0.631373
0.133333 0.133333 0.133333
0.156863 0.152941 0.145098
0.176471 0.176471 0.176471
0.203922 0.203922 0.196078
0.227451 0.227451 0.227451
0.258824 0.258824 0.25098
0.286275 0.282353 0.27451
0.317647 0.317647 0.309804
0.34902 0.345098 0.337255
0.380392 0.380392 0.372549
0.415686 0.411765 0.396078
0.447059 0.45098 0.431373
0.482353 0.478431 0.462745
0.521569 0.521569 0.513725
0.568627 0.568627 0.560784
0.607843 0.603922 0.596078
0.65098 0.65098 0.643137
0.133333 0.133333 0.133333
0.156863 0.152941 0.145098
0.176471 0.176471 0.176471
0.203922 0.203922 0.196078
0.231373 0.231373 0.227451
0.258824 0.258824 0.25098
0.286275 0.282353 0.27451
0.317647 0.317647 0.309804
0.352941 0.34902 0.341176
0.380392 0.380392 0.372549
0.415686 0.411765 0.396078
0.45098 0.454902 0.435294
0.490196 0.494118 0.47451
0.529412 0.52549 0.513725
0.568627 0.568627 0.560784
0.607843 0.603922 0.596078
0.65098 0.65098 0.643137
0.0901961 0.0901961 0.0901961
0.0980392 0.0980392 0.0980392
0.121569 0.121569 0.121569
0.145098 0.145098 0.145098
0.168627 0.168627 0.168627
0.192157 0.192157 0.184314
0.227451 0.223529 0.215686
0.254902 0.254902 0.247059
0.286275 0.286275 0.278431
0.321569 0.321569 0.313725
0.356863 0.352941 0.345098
0.388235 0.388235 0.380392
0.427451 0.427451 0.419608
0.466667 0.462745 0.447059
0.509804 0.509804 0.501961
0.552941 0.556863 0.537255
0.588235 0.588235 0.580392
0.0941176 0.0941176 0.0941176
0.101961 0.101961 0.101961
0.12549 0.12549 0.12549
0.152941 0.14902 0.141176
0.176471 0.176471 0.176471
0.207843 0.207843 0.2
0.235294 0.235294 0.227451
0.262745 0.262745 0.254902
0.294118 0.294118 0.286275
0.333333 0.333333 0.32549
0.364706 0.364706 0.356863
0.403922 0.407843 0.388235
0.431373 0.431373 0.423529
