luts/better_BW_skin.cube
#Generated by Picture Instruments - Unlimited Filters
TITLE "better BW skin"
LUT_3D_SIZE 5
0.0901961 0.0901961 0.0901961
0.156863 0.156863 0.156863
0.27451 0.270588 0.262745
0.415686 0.411765 0.396078
0.568627 0.568627 0.560784
0.0980392 0.0901961 0.0941176
0.164706 0.164706 0.164706
0.282353 0.278431 0.270588
0.423529 0.419608 0.403922
0.584314 0.584314 0.576471
0.0980392 0.0980392 0.0980392
0.176471 0.176471 0.176471
0.286275 0.286275 0.278431
0.427451 0.427451 0.419608
0.6 0.596078 0.588235
0.109804 0.109804 0.109804
0.2 0.2 0.192157
0.309804 0.309804 0.301961
0.439216 0.439216 0.431373
0.607843 0.603922 0.596078
0.121569 0.121569 0.121569
0.207843 0.207843 0.2
0.32549 0.32549 0.317647
0.454902 0.458824 0.439216
0.619608 0.619608 0.611765
0.0901961 0.0901961 0.0901961
0.172549 0.172549 0.172549
0.290196 0.290196 0.282353
0.431373 0.431373 0.423529
0.603922 0.6 0.592157
0.109804 0.109804 0.109804
0.203922 0.203922 0.196078
0.329412 0.329412 0.321569
0.478431 0.47451 0.458824
0.65098 0.65098 0.643137
0.121569 0.121569 0.121569
0.223529 0.219608 0.211765
0.337255 0.337255 0.329412
0.482353 0.478431 0.462745
0.658824 0.658824 0.65098
0.133333 0.133333 0.133333
0.235294 0.235294 0.227451
0.356863 0.352941 0.345098
0.494118 0.498039 0.478431
0.670588 0.670588 0.662745
0.145098 0.145098 0.145098
0.25098 0.25098 0.243137
0.372549 0.372549 0.364706
0.513725 0.513725 0.505882
0.686275 0.682353 0.67451
0.0901961 0.0901961 0.0901961
0.168627 0.168627 0.168627
0.309804 0.309804 0.301961
0.454902 0.458824 0.439216
0.623529 0.623529 0.615686
0.109804 0.109804 0.109804
0.2 0.2 0.192157
0.34902 0.345098 0.337255
0.498039 0.501961 0.482353
0.670588 0.670588 0.662745
0.14902 0.14902 0.141176
0.254902 0.254902 0.247059
0.384314 0.384314 0.376471
0.54902 0.552941 0.533333
0.729412 0.729412 0.721569
0.156863 0.156863 0.156863
0.27451 0.270588 0.262745
0.411765 0.407843 0.392157
0.556863 0.556863 0.54902
0.745098 0.741176 0.733333
0.172549 0.172549 0.172549
0.286275 0.286275 0.278431
0.427451 0.427451 0.419608
0.584314 0.584314 0.576471
0.756863 0.756863 0.74902
0.0901961 0.0901961 0.0901961
0.160784 0.160784 0.160784
0.301961 0.301961 0.294118
0.470588 0.466667 0.45098
0.643137 0.643137 0.635294
0.105882 0.105882 0.105882
0.196078 0.196078 0.188235
0.345098 0.341176 0.333333
0.521569 0.521569 0.513725
0.701961 0.701961 0.694118
0.145098 0.145098 0.145098
0.25098 0.25098 0.243137
0.380392 0.380392 0.372549
0.568627 0.568627 0.560784
0.752941 0.74902 0.741176
0.192157 0.192157 0.184314
0.313725 0.313725 0.305882
0.45098 0.454902 0.435294
0.623529 0.623529 0.615686
0.815686 0.815686 0.815686
0.207843 0.207843 0.2
0.333333 0.333333 0.32549
0.47451 0.470588 0.454902
0.65098 0.65098 0.643137
0.827451 0.827451 0.819608
0.0901961 0.0901961 0.0901961
0.156863 0.156863 0.156863
0.294118 0.294118 0.286275
0.466667 0.462745 0.447059
0.666667 0.666667 0.658824
0.101961 0.101961 0.101961
0.192157 0.192157 0.184314
0.337255 0.337255 0.329412
0.513725 0.513725 0.505882
0.721569 0.721569 0.713725
0.141176 0.141176 0.141176
0.243137 0.243137 0.235294
0.376471 0.376471 0.368627
0.568627 0.568627 0.560784
0.776471 0.776471 0.768627
0.192157 0.192157 0.184314
0.305882 0.305882 0.298039
0.447059 0.45098 0.431373
0.615686 0.611765 0.603922
0.835294 0.835294 0.835294
0.235294 0.235294 0.227451
0.364706 0.364706 0.356863
0.521569 0.517647 0.501961
0.701961 0.701961 0.694118
0.890196 0.890196 0.890196
