luts/better_BW_skin.cube
#Generated by Picture Instruments - Unlimited Filters
TITLE "better BW skin"
LUT_3D_SIZE 9
0.0901961 0.0901961 0.0901961
0.113725 0.113725 0.113725
0.156863 0.156863 0.156863
0.215686 0.215686 0.207843
0.27451 0.270588 0.262745
0.345098 0.341176 0.333333
0.415686 0.411765 0.396078
0.494118 0.498039 0.478431
0.568627 0.568627 0.560784
0.0941176 0.0941176 0.0941176
0.117647 0.117647 0.117647
0.164706 0.164706 0.164706
0.219608 0.215686 0.207843
0.282353 0.278431 0.270588
0.352941 0.34902 0.341176
0.419608 0.415686 0.4
0.498039 0.501961 0.482353
0.580392 0.580392 0.572549
0.0980392 0.0901961 0.0941176
0.12549 0.12549 0.12549
0.164706 0.164706 0.164706
0.219608 0.215686 0.207843
0.282353 0.278431 0.270588
0.34902 0.345098 0.337255
0.423529 0.419608 0.403922
0.501961 0.505882 0.486275
0.584314 0.584314 0.576471
0.0980392 0.0901961 0.0941176
0.129412 0.129412 0.129412
0.176471 0.176471 0.176471
0.227451 0.223529 0.215686
0.286275 0.286275 0.278431
0.352941 0.34902 0.341176
0.427451 0.427451 0.419608
0.505882 0.505882 0.498039
0.588235 0.588235 0.580392
0.0980392 0.0980392 0.0980392
0.137255 0.137255 0.137255
0.176471 0.176471 0.176471
0.231373 0.231373 0.223529
0.286275 0.286275 0.278431
0.356863 0.352941 0.345098
0.427451 0.427451 0.419608
0.505882 0.505882 0.498039
0.6 0.596078 0.588235
0.105882 0.105882 0.105882
0.145098 0.145098 0.145098
0.192157 0.192157 0.184314
0.239216 0.239216 0.231373
0.298039 0.298039 0.290196
0.360784 0.360784 0.352941
0.431373 0.431373 0.423529
0.513725 0.513725 0.505882
0.603922 0.6 0.592157
0.109804 0.109804 0.109804
0.14902 0.14902 0.141176
0.2 0.2 0.192157
0.247059 0.247059 0.239216
0.309804 0.309804 0.301961
0.372549 0.372549 0.364706
0.439216 0.439216 0.431373
0.529412 0.52549 0.509804
0.607843 0.603922 0.596078
0.113725 0.113725 0.113725
0.156863 0.152941 0.145098
0.203922 0.203922 0.196078
0.258824 0.258824 0.25098
0.321569 0.321569 0.313725
0.380392 0.380392 0.372549
0.447059 0.45098 0.431373
0.529412 0.52549 0.509804
0.611765 0.607843 0.6
0.121569 0.121569 0.121569
0.156863 0.156863 0.156863
0.207843 0.207843 0.2
0.262745 0.262745 0.254902
0.32549 0.32549 0.317647
0.388235 0.388235 0.380392
0.454902 0.458824 0.439216
0.537255 0.533333 0.517647
0.619608 0.619608 0.611765
0.0901961 0.0901961 0.0901961
0.121569 0.121569 0.121569
0.168627 0.168627 0.168627
0.219608 0.215686 0.207843
0.286275 0.282353 0.27451
0.352941 0.34902 0.341176
0.423529 0.419608 0.403922
0.501961 0.505882 0.486275
0.584314 0.584314 0.576471
0.0980392 0.0901961 0.0941176
0.133333 0.133333 0.133333
0.180392 0.180392 0.180392
0.235294 0.235294 0.227451
0.301961 0.301961 0.294118
0.368627 0.368627 0.360784
0.447059 0.45098 0.431373
0.529412 0.52549 0.509804
0.611765 0.607843 0.6
0.0980392 0.0980392 0.0980392
0.141176 0.141176 0.141176
0.184314 0.184314 0.176471
0.243137 0.243137 0.235294
0.305882 0.305882 0.298039
0.376471 0.376471 0.368627
0.45098 0.454902 0.435294
0.537255 0.533333 0.517647
0.619608 0.619608 0.611765
0.105882 0.105882 0.105882
0.145098 0.145098 0.145098
0.192157 0.192157 0.184314
0.243137 0.243137 0.235294
0.305882 0.305882 0.298039
0.376471 0.376471 0.368627
0.447059 0.45098 0.431373
0.541176 0.537255 0.521569
0.623529 0.623529 0.615686
0.109804 0.109804 0.109804
0.152941 0.14902 0.141176
0.2 0.2 0.192157
0.254902 0.254902 0.247059
0.313725 0.313725 0.305882
0.384314 0.384314 0.376471
0.454902 0.458824 0.439216
0.54902 0.552941 0.533333
0.627451 0.627451 0.619608
0.113725 0.113725 0.113725
0.156863 0.156863 0.156863
0.207843 0.207843 0.2
0.262745 0.262745 0.254902
0.321569 0.321569 0.313725
0.384314 0.384314 0.376471
0.458824 0.462745 0.443137
0.54902 0.552941 0.533333
0.635294 0.635294 0.627451
0.121569 0.121569 0.121569
0.164706 0.164706 0.164706
0.219608 0.215686 0.207843
0.27451 0.270588 0.262745
0.337255 0.337255 0.329412
0.396078 0.396078 0.388235
0.466667 0.462745 0.447059
0.552941 0.556863 0.537255
0.639216 0.639216 0.631373
0.129412 0.129412 0.129412
0.176471 0.176471 0.176471
0.227451 0.223529 0.215686
0.286275 0.282353 0.27451
0.341176 0.337255 0.329412
0.411765 0.407843 0.392157
0.482353 0.478431 0.462745
0.556863 0.556863 0.54902
0.639216 0.639216 0.631373
0.133333 0.133333 0.133333
0.176471 0.176471 0.176471
0.231373 0.231373 0.227451
0.286275 0.282353 0.27451
0.352941 0.34902 0.341176
0.415686 0.411765 0.396078
0.490196 0.494118 0.47451
0.568627 0.568627 0.560784
0.65098 0.65098 0.643137
0.0901961 0.0901961 0.0901961
0.121569 0.121569 0.121569
0.172549 0.172549 0.172549
0.227451 0.227451 0.227451
0.290196 0.290196 0.282353
0.356863 0.356863 0.34902
0.431373 0.431373 0.423529
0.513725 0.513725 0.505882
0.603922 0.6 0.592157
0.0980392 0.0901961 0.0941176
0.129412 0.129412 0.129412
0.188235 0.188235 0.180392
0.247059 0.247059 0.239216
0.305882 0.305882 0.298039
0.380392 0.380392 0.372549
0.454902 0.458824 0.439216
0.541176 0.537255 0.521569
0.623529 0.623529 0.615686
0.109804 0.109804 0.109804
0.156863 0.152941 0.145098
0.203922 0.203922 0.196078
0.262745 0.262745 0.254902
0.329412 0.329412 0.321569
0.4 0.403922 0.384314
0.478431 0.47451 0.458824
0.568627 0.568627 0.560784
0.65098 0.65098 0.643137
0.117647 0.117647 0.117647
0.156863 0.156863 0.156863
0.215686 0.215686 0.207843
0.266667 0.266667 0.258824
0.337255 0.337255 0.329412
0.407843 0.403922 0.388235
0.482353 0.478431 0.462745
0.572549 0.572549 0.564706
0.654902 0.654902 0.647059
0.121569 0.121569 0.121569
0.164706 0.164706 0.164706
0.223529 0.219608 0.211765
0.27451 0.270588 0.262745
0.337255 0.337255 0.329412
0.407843 0.403922 0.388235
0.482353 0.478431 0.462745
0.568627 0.568627 0.560784
0.658824 0.658824 0.65098
0.129412 0.129412 0.129412
0.176471 0.176471 0.176471
0.227451 0.223529 0.215686
0.286275 0.282353 0.27451
0.352941 0.34902 0.341176
0.415686 0.411765 0.396078
0.498039 0.501961 0.482353
0.576471 0.576471 0.568627
0.670588 0.670588 0.662745
0.133333 0.133333 0.133333
0.180392 0.180392 0.180392
0.235294 0.235294 0.227451
0.294118 0.294118 0.286275
0.356863 0.352941 0.345098
0.423529 0.419608 0.403922
0.494118 0.498039 0.478431
0.584314 0.584314 0.576471
0.670588 0.670588 0.662745
0.141176 0.141176 0.141176
0.192157 0.192157 0.184314
0.243137 0.243137 0.235294
0.301961 0.301961 0.294118
0.364706 0.364706 0.356863
0.431373 0.431373 0.423529
0.505882 0.505882 0.498039
0.588235 0.588235 0.580392
0.678431 0.67451 0.666667
0.145098 0.145098 0.145098
0.192157 0.192157 0.184314
0.25098 0.25098 0.243137
0.309804 0.309804 0.301961
0.372549 0.372549 0.364706
0.443137 0.447059 0.431373
0.513725 0.513725 0.505882
0.603922 0.6 0.592157
0.686275 0.682353 0.67451
0.0901961 0.0901961 0.0901961
0.117647 0.117647 0.117647
0.168627 0.168627 0.168627
0.235294 0.235294 0.227451
0.298039 0.298039 0.290196
0.364706 0.364706 0.356863
0.439216 0.439216 0.431373
0.529412 0.52549 0.509804
0.611765 0.607843 0.6
0.0980392 0.0901961 0.0941176
0.129412 0.129412 0.129412
0.188235 0.188235 0.180392
0.254902 0.254902 0.247059
0.321569 0.321569 0.313725
0.388235 0.388235 0.380392
0.462745 0.458824 0.443137
0.552941 0.556863 0.537255
0.635294 0.635294 0.627451
0.109804 0.109804 0.109804
0.14902 0.14902 0.141176
0.203922 0.203922 0.196078
0.270588 0.270588 0.262745
0.341176 0.337255 0.329412
0.407843 0.403922 0.388235
0.486275 0.490196 0.470588
0.576471 0.576471 0.568627
0.666667 0.666667 0.658824
0.129412 0.129412 0.129412
0.176471 0.176471 0.176471
0.227451 0.227451 0.227451
0.286275 0.286275 0.278431
0.356863 0.356863 0.34902
0.427451 0.427451 0.419608
0.509804 0.509804 0.501961
0.607843 0.603922 0.596078
0.690196 0.686275 0.678431
0.133333 0.133333 0.133333
0.184314 0.184314 0.176471
0.235294 0.235294 0.227451
0.301961 0.301961 0.294118
0.360784 0.360784 0.352941
0.439216 0.439216 0.431373
0.517647 0.517647 0.509804
0.611765 0.607843 0.6
0.694118 0.694118 0.686275
0.141176 0.141176 0.141176
0.192157 0.192157 0.184314
0.243137 0.243137 0.235294
0.309804 0.309804 0.301961
0.368627 0.368627 0.360784
0.439216 0.439216 0.431373
0.517647 0.517647 0.509804
0.611765 0.607843 0.6
0.701961 0.701961 0.694118
0.14902 0.14902 0.141176
0.196078 0.196078 0.188235
0.254902 0.254902 0.247059
0.317647 0.317647 0.309804
0.380392 0.380392 0.372549
0.45098 0.454902 0.435294
0.529412 0.52549 0.509804
0.623529 0.623529 0.615686
0.705882 0.705882 0.698039
0.156863 0.152941 0.145098
0.203922 0.203922 0.196078
0.262745 0.262745 0.254902
0.32549 0.32549 0.317647
0.392157 0.392157 0.384314
0.458824 0.462745 0.443137
0.541176 0.537255 0.521569
0.623529 0.623529 0.615686
0.713725 0.713725 0.705882
0.156863 0.156863 0.156863
0.207843 0.207843 0.2
0.270588 0.270588 0.262745
0.337255 0.337255 0.329412
0.396078 0.4 0.384314
0.470588 0.466667 0.45098
0.54902 0.552941 0.533333
0.635294 0.635294 0.627451
0.717647 0.717647 0.709804
0.0901961 0.0901961 0.0901961
0.113725 0.113725 0.113725
0.168627 0.168627 0.168627
0.235294 0.235294 0.227451
0.309804 0.309804 0.301961
0.376471 0.376471 0.368627
0.454902 0.458824 0.439216
0.541176 0.537255 0.521569
0.623529 0.623529 0.615686
0.0980392 0.0901961 0.0941176
0.129412 0.129412 0.129412
0.184314 0.184314 0.176471
0.25098 0.25098 0.243137
0.329412 0.329412 0.321569
0.396078 0.396078 0.388235
0.47451 0.470588 0.454902
0.556863 0.556863 0.54902
0.65098 0.65098 0.643137
0.109804 0.109804 0.109804
0.152941 0.14902 0.141176
0.2 0.2 0.192157
0.270588 0.270588 0.262745
0.34902 0.345098 0.337255
0.419608 0.415686 0.4
0.498039 0.501961 0.482353
0.588235 0.588235 0.580392
0.670588 0.670588 0.662745
0.129412 0.129412 0.129412
0.172549 0.172549 0.172549
0.227451 0.223529 0.215686
0.286275 0.286275 0.278431
0.364706 0.364706 0.356863
0.443137 0.447059 0.427451
0.517647 0.517647 0.509804
0.615686 0.611765 0.603922
0.705882 0.705882 0.698039
0.14902 0.14902 0.141176
0.2 0.2 0.192157
0.254902 0.254902 0.247059
0.321569 0.321569 0.313725
0.384314 0.384314 0.376471
0.462745 0.458824 0.443137
0.54902 0.552941 0.533333
0.639216 0.639216 0.631373
0.729412 0.729412 0.721569
0.156863 0.156863 0.156863
0.207843 0.207843 0.2
0.266667 0.266667 0.258824
0.329412 0.329412 0.321569
0.4 0.403922 0.384314
0.466667 0.462745 0.447059
0.556863 0.556863 0.54902
0.647059 0.647059 0.639216
0.733333 0.733333 0.72549
0.156863 0.156863 0.156863
0.215686 0.215686 0.207843
0.27451 0.270588 0.262745
0.337255 0.337255 0.329412
0.411765 0.407843 0.392157
0.478431 0.47451 0.458824
0.556863 0.556863 0.54902
0.647059 0.647059 0.639216
0.745098 0.741176 0.733333
0.168627 0.168627 0.168627
0.227451 0.223529 0.215686
0.282353 0.278431 0.270588
0.352941 0.34902 0.341176
0.415686 0.411765 0.396078
0.486275 0.490196 0.470588
0.572549 0.572549 0.564706
0.658824 0.658824 0.65098
0.745098 0.741176 0.733333
0.172549 0.172549 0.172549
0.227451 0.223529 0.223529
0.286275 0.286275 0.278431
0.352941 0.34902 0.341176
0.427451 0.427451 0.419608
0.498039 0.501961 0.482353
0.584314 0.584314 0.576471
0.666667 0.666667 0.658824
0.756863 0.756863 0.74902
0.0901961 0.0901961 0.0901961
0.113725 0.113725 0.113725
0.164706 0.164706 0.164706
0.231373 0.231373 0.223529
0.305882 0.305882 0.298039
0.384314 0.384314 0.376471
0.462745 0.458824 0.443137
0.54902 0.552941 0.533333
0.635294 0.635294 0.627451
0.0980392 0.0901961 0.0941176
0.129412 0.129412 0.129412
0.180392 0.180392 0.180392
0.25098 0.25098 0.243137
0.32549 0.32549 0.317647
0.411765 0.407843 0.392157
0.482353 0.478431 0.462745
0.576471 0.576471 0.568627
0.658824 0.658824 0.65098
0.105882 0.105882 0.105882
0.145098 0.145098 0.145098
0.196078 0.196078 0.188235
0.266667 0.266667 0.258824
0.345098 0.341176 0.333333
0.427451 0.427451 0.419608
0.505882 0.505882 0.498039
0.603922 0.6 0.592157
0.690196 0.686275 0.678431
0.129412 0.129412 0.129412
0.168627 0.168627 0.168627
0.227451 0.223529 0.215686
0.286275 0.282353 0.27451
0.364706 0.364706 0.356863
0.447059 0.45098 0.431373
0.537255 0.533333 0.517647
0.627451 0.627451 0.619608
0.717647 0.717647 0.709804
0.145098 0.145098 0.145098
0.192157 0.192157 0.184314
0.254902 0.254902 0.247059
0.313725 0.313725 0.305882
0.384314 0.384314 0.376471
0.470588 0.466667 0.45098
0.564706 0.564706 0.556863
0.647059 0.647059 0.639216
0.745098 0.741176 0.733333
0.168627 0.168627 0.168627
0.227451 0.223529 0.215686
0.286275 0.282353 0.27451
0.352941 0.34902 0.341176
0.419608 0.415686 0.4
0.498039 0.501961 0.482353
0.588235 0.588235 0.580392
0.67451 0.67451 0.666667
0.768627 0.768627 0.760784
0.176471 0.176471 0.176471
0.235294 0.235294 0.227451
0.290196 0.290196 0.282353
0.360784 0.360784 0.352941
0.427451 0.427451 0.419608
0.509804 0.509804 0.501961
0.588235 0.588235 0.580392
0.694118 0.690196 0.682353
0.776471 0.776471 0.768627
0.184314 0.184314 0.176471
0.235294 0.235294 0.227451
0.301961 0.301961 0.294118
0.364706 0.364706 0.356863
0.439216 0.439216 0.431373
0.521569 0.521569 0.513725
0.607843 0.603922 0.596078
0.694118 0.690196 0.682353
0.780392 0.780392 0.772549
0.192157 0.192157 0.184314
0.243137 0.243137 0.235294
0.305882 0.305882 0.298039
0.376471 0.376471 0.368627
0.447059 0.45098 0.431373
0.533333 0.529412 0.513725
0.611765 0.607843 0.6
0.701961 0.701961 0.694118
0.788235 0.788235 0.780392
0.0901961 0.0901961 0.0901961
0.109804 0.109804 0.109804
0.160784 0.160784 0.160784
0.227451 0.227451 0.227451
0.301961 0.301961 0.294118
0.384314 0.384314 0.376471
0.470588 0.466667 0.45098
0.556863 0.556863 0.54902
0.643137 0.643137 0.635294
0.0941176 0.0941176 0.0941176
0.12549 0.12549 0.12549
0.176471 0.176471 0.176471
0.243137 0.243137 0.235294
0.321569 0.321569 0.313725
0.407843 0.403922 0.388235
0.498039 0.501961 0.482353
0.588235 0.588235 0.580392
0.670588 0.670588 0.662745
0.105882 0.105882 0.105882
0.145098 0.145098 0.145098
0.196078 0.196078 0.188235
0.262745 0.262745 0.254902
0.345098 0.341176 0.333333
0.423529 0.423529 0.415686
0.521569 0.521569 0.513725
0.611765 0.607843 0.6
0.701961 0.701961 0.694118
0.12549 0.12549 0.12549
0.168627 0.168627 0.168627
0.219608 0.215686 0.207843
0.282353 0.278431 0.270588
0.360784 0.360784 0.352941
0.447059 0.45098 0.431373
0.54902 0.552941 0.533333
0.639216 0.639216 0.631373
0.729412 0.729412 0.721569
0.145098 0.145098 0.145098
0.196078 0.196078 0.188235
0.25098 0.25098 0.243137
0.317647 0.317647 0.309804
0.380392 0.380392 0.372549
0.470588 0.466667 0.45098
0.568627 0.568627 0.560784
0.662745 0.662745 0.654902
0.752941 0.74902 0.741176
0.168627 0.168627 0.168627
0.219608 0.215686 0.207843
0.278431 0.27451 0.266667
0.34902 0.345098 0.337255
0.415686 0.411765 0.396078
0.494118 0.498039 0.478431
0.592157 0.592157 0.584314
0.694118 0.690196 0.682353
0.780392 0.780392 0.772549
0.192157 0.192157 0.184314
0.25098 0.25098 0.243137
0.313725 0.313725 0.305882
0.380392 0.380392 0.372549
0.45098 0.454902 0.435294
0.537255 0.533333 0.517647
0.623529 0.623529 0.615686
0.721569 0.721569 0.713725
0.815686 0.815686 0.815686
0.203922 0.203922 0.196078
0.258824 0.258824 0.25098
0.32549 0.32549 0.317647
0.388235 0.388235 0.380392
0.466667 0.462745 0.447059
0.54902 0.552941 0.533333
0.639216 0.639216 0.631373
0.72549 0.72549 0.717647
0.815686 0.815686 0.815686
0.207843 0.207843 0.2
0.262745 0.262745 0.254902
0.333333 0.333333 0.32549
0.396078 0.4 0.384314
0.47451 0.470588 0.454902
0.556863 0.556863 0.54902
0.65098 0.65098 0.643137
0.737255 0.737255 0.737255
0.827451 0.827451 0.819608
0.0901961 0.0901961 0.0901961
0.109804 0.109804 0.109804
0.160784 0.160784 0.160784
0.227451 0.223529 0.215686
0.301961 0.301961 0.294118
0.380392 0.380392 0.372549
0.470588 0.466667 0.45098
0.572549 0.572549 0.564706
0.654902 0.654902 0.647059
0.0941176 0.0941176 0.0941176
0.121569 0.121569 0.121569
0.176471 0.176471 0.176471
0.239216 0.239216 0.231373
0.321569 0.321569 0.313725
0.4 0.403922 0.384314
0.494118 0.498039 0.478431
0.592157 0.592157 0.584314
0.690196 0.686275 0.678431
0.101961 0.101961 0.101961
0.145098 0.145098 0.145098
0.192157 0.192157 0.184314
0.262745 0.262745 0.254902
0.337255 0.337255 0.329412
0.423529 0.419608 0.403922
0.517647 0.517647 0.509804
0.623529 0.623529 0.615686
0.713725 0.713725 0.705882
0.12549 0.12549 0.12549
0.168627 0.168627 0.168627
0.223529 0.219608 0.211765
0.282353 0.278431 0.270588
0.356863 0.356863 0.34902
0.447059 0.45098 0.431373
0.545098 0.541176 0.52549
0.654902 0.654902 0.647059
0.737255 0.737255 0.737255
0.145098 0.145098 0.145098
0.192157 0.192157 0.184314
0.247059 0.247059 0.239216
0.305882 0.305882 0.298039
0.376471 0.376471 0.368627
0.466667 0.462745 0.447059
0.568627 0.568627 0.560784
0.67451 0.67451 0.666667
0.768627 0.768627 0.760784
0.164706 0.164706 0.164706
0.219608 0.215686 0.207843
0.282353 0.278431 0.270588
0.345098 0.341176 0.333333
0.415686 0.411765 0.396078
0.486275 0.490196 0.470588
0.592157 0.592157 0.584314
0.705882 0.705882 0.698039
0.796078 0.796078 0.796078
0.192157 0.192157 0.184314
0.247059 0.247059 0.239216
0.305882 0.305882 0.298039
0.372549 0.372549 0.364706
0.447059 0.45098 0.431373
0.529412 0.52549 0.509804
0.623529 0.623529 0.615686
0.729412 0.729412 0.721569
0.831373 0.831373 0.823529
0.219608 0.215686 0.207843
0.278431 0.27451 0.266667
0.345098 0.341176 0.333333
0.415686 0.411765 0.396078
0.486275 0.490196 0.470588
0.572549 0.572549 0.564706
0.662745 0.662745 0.654902
0.764706 0.764706 0.756863
0.854902 0.854902 0.854902
0.223529 0.219608 0.211765
0.282353 0.282353 0.27451
0.34902 0.345098 0.337255
0.419608 0.415686 0.4
0.494118 0.498039 0.478431
0.584314 0.584314 0.576471
0.67451 0.67451 0.666667
0.768627 0.768627 0.760784
0.858824 0.858824 0.858824
0.0901961 0.0901961 0.0901961
0.109804 0.109804 0.109804
0.156863 0.156863 0.156863
0.227451 0.223529 0.215686
0.294118 0.294118 0.286275
0.376471 0.376471 0.368627
0.466667 0.462745 0.447059
0.568627 0.568627 0.560784
0.666667 0.666667 0.658824
0.0941176 0.0941176 0.0941176
0.121569 0.121569 0.121569
0.176471 0.176471 0.176471
0.239216 0.239216 0.231373
0.317647 0.317647 0.309804
0.4 0.403922 0.384314
0.486275 0.490196 0.470588
0.592157 0.592157 0.584314
0.690196 0.690196 0.682353
0.101961 0.101961 0.101961
0.145098 0.145098 0.145098
0.192157 0.192157 0.184314
0.258824 0.258824 0.25098
0.337255 0.337255 0.329412
0.423529 0.419608 0.403922
0.513725 0.513725 0.505882
0.623529 0.623529 0.615686
0.721569 0.721569 0.713725
0.121569 0.121569 0.121569
0.160784 0.160784 0.160784
0.219608 0.215686 0.207843
0.27451 0.270588 0.262745
0.356863 0.352941 0.345098
0.439216 0.439216 0.427451
0.541176 0.537255 0.521569
0.643137 0.643137 0.635294
0.74902 0.745098 0.737255
0.141176 0.141176 0.141176
0.192157 0.192157 0.184314
0.243137 0.243137 0.235294
0.309804 0.309804 0.301961
0.376471 0.376471 0.368627
0.462745 0.458824 0.443137
0.568627 0.568627 0.560784
0.67451 0.67451 0.666667
0.776471 0.776471 0.768627
0.160784 0.160784 0.160784
0.219608 0.215686 0.207843
0.27451 0.270588 0.262745
0.341176 0.337255 0.329412
0.407843 0.403922 0.388235
0.482353 0.478431 0.462745
0.588235 0.588235 0.580392
0.698039 0.698039 0.690196
0.803922 0.803922 0.803922
0.192157 0.192157 0.184314
0.239216 0.239216 0.231373
0.305882 0.305882 0.298039
0.372549 0.372549 0.364706
0.447059 0.45098 0.431373
0.533333 0.529412 0.513725
0.615686 0.611765 0.603922
0.729412 0.729412 0.721569
0.835294 0.835294 0.835294
0.219608 0.215686 0.207843
0.27451 0.270588 0.262745
0.341176 0.337255 0.329412
0.407843 0.403922 0.388235
0.482353 0.486275 0.466667
0.568627 0.568627 0.560784
0.658824 0.658824 0.65098
0.764706 0.764706 0.756863
0.866667 0.866667 0.866667
0.235294 0.235294 0.227451
0.294118 0.294118 0.286275
0.364706 0.364706 0.356863
0.439216 0.443137 0.423529
0.521569 0.517647 0.501961
0.607843 0.603922 0.596078
0.701961 0.701961 0.694118
0.796078 0.796078 0.796078
0.890196 0.890196 0.890196
