luts/Bleach_Bypass_Cold.cube
#Generated by Picture Instruments - Unlimited Filters
TITLE "Bleach Bypass Cold"
LUT_3D_SIZE 9
0 0 0
0.0196078 0.00392157 0.00784314
0.0705882 0.0156863 0.0156863
0.156863 0.0392157 0.0392157
0.270588 0.0705882 0.0666667
0.407843 0.109804 0.109804
0.603922 0.164706 0.160784
0.717647 0.196078 0.2
0.796078 0.211765 0.219608
0 0.0196078 0.00392157
0.0156863 0.0196078 0
0.0705882 0.0431373 0.0196078
0.156863 0.0588235 0.0431373
0.270588 0.0941176 0.0745098
0.415686 0.12549 0.113725
0.603922 0.180392 0.168627
0.729412 0.211765 0.196078
0.8 0.239216 0.223529
0.0117647 0.0862745 0.0117647
0.0313725 0.0862745 0.0196078
0.0862745 0.101961 0.0352941
0.160784 0.113725 0.0509804
0.278431 0.14902 0.0901961
0.415686 0.192157 0.12549
0.611765 0.239216 0.168627
0.729412 0.270588 0.203922
0.803922 0.294118 0.231373
0.0313725 0.192157 0.0352941
0.0509804 0.192157 0.0431373
0.0980392 0.2 0.0470588
0.172549 0.215686 0.0588235
0.294118 0.239216 0.0941176
0.427451 0.278431 0.133333
0.615686 0.32549 0.188235
0.737255 0.356863 0.219608
0.807843 0.384314 0.235294
0.0588235 0.329412 0.0666667
0.0784314 0.341176 0.0784314
0.121569 0.341176 0.0862745
0.196078 0.356863 0.0980392
0.294118 0.368627 0.109804
0.435294 0.403922 0.14902
0.627451 0.45098 0.196078
0.745098 0.478431 0.231373
0.827451 0.498039 0.254902
0.0901961 0.505882 0.113725
0.109804 0.509804 0.117647
0.156863 0.509804 0.117647
0.227451 0.529412 0.129412
0.333333 0.537255 0.152941
0.454902 0.54902 0.164706
0.643137 0.584314 0.219608
0.74902 0.611765 0.25098
0.835294 0.623529 0.270588
0.137255 0.67451 0.164706
0.145098 0.666667 0.164706
0.192157 0.678431 0.168627
0.254902 0.682353 0.184314
0.368627 0.690196 0.203922
0.501961 0.705882 0.219608
0.654902 0.717647 0.239216
0.776471 0.741176 0.282353
0.843137 0.752941 0.305882
0.160784 0.772549 0.2
0.172549 0.776471 0.203922
0.219608 0.784314 0.207843
0.286275 0.780392 0.219608
0.388235 0.792157 0.231373
0.521569 0.8 0.258824
0.686275 0.811765 0.27451
0.776471 0.823529 0.298039
0.866667 0.831373 0.317647
0.176471 0.835294 0.219608
0.188235 0.839216 0.219608
0.235294 0.839216 0.227451
0.305882 0.847059 0.239216
0.407843 0.854902 0.254902
0.54902 0.862745 0.278431
0.701961 0.87451 0.298039
0.8 0.890196 0.317647
0.866667 0.890196 0.321569
0.00392157 0 0.0196078
0.0235294 0.0156863 0.0352941
0.0784314 0.0196078 0.0392157
0.156863 0.0431373 0.0588235
0.27451 0.0745098 0.0941176
0.411765 0.113725 0.129412
0.607843 0.164706 0.188235
0.729412 0.2 0.223529
0.803922 0.219608 0.243137
0.00392157 0.0196078 0.0235294
0.0235294 0.027451 0.0352941
0.0784314 0.0392157 0.0431373
0.160784 0.0588235 0.0627451
0.282353 0.0941176 0.0941176
0.411765 0.137255 0.145098
0.607843 0.184314 0.184314
0.72549 0.215686 0.215686
0.803922 0.239216 0.243137
0.0156863 0.0862745 0.0392157
0.0313725 0.0941176 0.0431373
0.0862745 0.101961 0.0470588
0.160784 0.12549 0.0666667
0.286275 0.152941 0.105882
0.427451 0.192157 0.14902
0.619608 0.243137 0.196078
0.737255 0.27451 0.227451
0.811765 0.301961 0.25098
0.0352941 0.192157 0.0588235
0.054902 0.2 0.0666667
0.101961 0.203922 0.0666667
0.176471 0.215686 0.0823529
0.286275 0.243137 0.117647
0.431373 0.278431 0.156863
0.611765 0.32549 0.2
0.737255 0.364706 0.239216
0.811765 0.384314 0.262745
0.0627451 0.337255 0.0941176
0.0745098 0.345098 0.0980392
0.12549 0.345098 0.105882
0.207843 0.364706 0.117647
0.298039 0.368627 0.12549
0.447059 0.407843 0.168627
0.631373 0.45098 0.219608
0.74902 0.478431 0.254902
0.823529 0.501961 0.27451
0.0941176 0.517647 0.129412
0.113725 0.509804 0.141176
0.156863 0.52549 0.145098
0.227451 0.529412 0.160784
0.329412 0.541176 0.172549
0.454902 0.552941 0.196078
0.643137 0.588235 0.239216
0.760784 0.615686 0.270588
0.831373 0.627451 0.298039
0.133333 0.678431 0.188235
0.14902 0.67451 0.184314
0.196078 0.678431 0.192157
0.270588 0.686275 0.207843
0.364706 0.694118 0.219608
0.501961 0.713725 0.243137
0.662745 0.721569 0.262745
0.772549 0.745098 0.298039
0.847059 0.756863 0.317647
0.160784 0.772549 0.211765
0.176471 0.776471 0.219608
0.223529 0.776471 0.223529
0.294118 0.784314 0.235294
0.392157 0.792157 0.258824
0.533333 0.796078 0.278431
0.694118 0.815686 0.305882
0.784314 0.823529 0.309804
0.866667 0.835294 0.337255
0.176471 0.839216 0.239216
0.192157 0.839216 0.243137
0.239216 0.843137 0.254902
0.309804 0.847059 0.258824
0.411765 0.85098 0.278431
0.545098 0.862745 0.298039
0.705882 0.87451 0.317647
0.8 0.890196 0.341176
0.862745 0.890196 0.34902
0.0156863 0.0117647 0.0823529
0.027451 0.0156863 0.0901961
0.0862745 0.0352941 0.101961
0.164706 0.0588235 0.12549
0.294118 0.0941176 0.160784
0.431373 0.129412 0.207843
0.623529 0.180392 0.258824
0.733333 0.211765 0.278431
0.811765 0.235294 0.305882
0.0117647 0.027451 0.0745098
0.027451 0.0352941 0.0862745
0.0862745 0.054902 0.105882
0.168627 0.0745098 0.129412
0.282353 0.109804 0.160784
0.427451 0.145098 0.2
0.615686 0.196078 0.258824
0.733333 0.231373 0.282353
0.807843 0.25098 0.305882
0.0235294 0.101961 0.0980392
0.0392157 0.101961 0.101961
0.0901961 0.113725 0.113725
0.176471 0.137255 0.141176
0.290196 0.164706 0.168627
0.435294 0.203922 0.211765
0.623529 0.254902 0.254902
0.737255 0.282353 0.286275
0.819608 0.309804 0.317647
0.0392157 0.203922 0.12549
0.0627451 0.2 0.121569
0.109804 0.215686 0.141176
0.184314 0.219608 0.152941
0.301961 0.258824 0.188235
0.443137 0.298039 0.223529
0.635294 0.341176 0.266667
0.752941 0.380392 0.309804
0.827451 0.4 0.321569
0.0705882 0.345098 0.14902
0.0862745 0.345098 0.156863
0.137255 0.364706 0.168627
0.215686 0.372549 0.176471
0.309804 0.384314 0.203922
0.45098 0.419608 0.239216
0.647059 0.462745 0.282353
0.74902 0.498039 0.317647
0.839216 0.513725 0.341176
0.101961 0.513725 0.192157
0.113725 0.517647 0.192157
0.164706 0.533333 0.203922
0.243137 0.537255 0.215686
0.34902 0.54902 0.239216
0.470588 0.564706 0.258824
0.662745 0.6 0.305882
0.772549 0.623529 0.329412
0.847059 0.639216 0.364706
0.137255 0.678431 0.239216
0.156863 0.682353 0.247059
0.203922 0.690196 0.258824
0.282353 0.698039 0.266667
0.380392 0.705882 0.282353
0.513725 0.721569 0.305882
0.670588 0.729412 0.32549
0.780392 0.74902 0.360784
0.862745 0.760784 0.388235
0.164706 0.780392 0.27451
0.180392 0.784314 0.27451
0.235294 0.784314 0.294118
0.301961 0.788235 0.301961
0.407843 0.8 0.321569
0.541176 0.807843 0.341176
0.698039 0.819608 0.360784
0.8 0.835294 0.376471
0.870588 0.843137 0.396078
0.180392 0.839216 0.294118
0.196078 0.843137 0.301961
0.254902 0.85098 0.321569
0.32549 0.85098 0.329412
0.419608 0.862745 0.345098
0.560784 0.87451 0.360784
0.713725 0.886275 0.388235
0.807843 0.894118 0.4
0.87451 0.894118 0.407843
0.0117647 0.0196078 0.168627
0.0352941 0.027451 0.184314
0.0901961 0.0509804 0.196078
0.184314 0.0784314 0.239216
0.298039 0.109804 0.258824
0.447059 0.152941 0.305882
0.631373 0.2 0.352941
0.74902 0.239216 0.388235
0.823529 0.254902 0.407843
0.0156863 0.0392157 0.180392
0.0352941 0.0470588 0.184314
0.0941176 0.0666667 0.2
0.184314 0.101961 0.231373
0.301961 0.129412 0.266667
0.447059 0.164706 0.309804
0.639216 0.215686 0.356863
0.74902 0.258824 0.392157
0.823529 0.270588 0.403922
0.0313725 0.113725 0.196078
0.0470588 0.109804 0.2
0.101961 0.12549 0.211765
0.188235 0.156863 0.247059
0.305882 0.192157 0.278431
0.439216 0.223529 0.313725
0.639216 0.27451 0.34902
0.752941 0.313725 0.4
0.831373 0.333333 0.415686
0.0470588 0.203922 0.203922
0.0666667 0.215686 0.219608
0.121569 0.223529 0.227451
0.207843 0.25098 0.258824
0.317647 0.27451 0.290196
0.454902 0.321569 0.32549
0.647059 0.364706 0.376471
0.760784 0.392157 0.396078
0.831373 0.415686 0.423529
0.0784314 0.345098 0.247059
0.0901961 0.360784 0.25098
0.14902 0.368627 0.262745
0.235294 0.392157 0.286275
0.333333 0.396078 0.294118
0.482353 0.443137 0.345098
0.662745 0.490196 0.392157
0.772549 0.513725 0.419608
0.847059 0.533333 0.435294
0.109804 0.52549 0.282353
0.129412 0.529412 0.282353
0.180392 0.537255 0.305882
0.262745 0.556863 0.32549
0.364706 0.564706 0.333333
0.490196 0.580392 0.360784
0.67451 0.615686 0.4
0.780392 0.635294 0.431373
0.858824 0.65098 0.454902
0.145098 0.682353 0.329412
0.160784 0.678431 0.341176
0.211765 0.690196 0.34902
0.294118 0.709804 0.364706
0.388235 0.717647 0.384314
0.533333 0.737255 0.403922
0.686275 0.745098 0.427451
0.8 0.764706 0.470588
0.866667 0.776471 0.478431
0.180392 0.780392 0.364706
0.188235 0.780392 0.360784
0.243137 0.796078 0.388235
0.321569 0.8 0.403922
0.415686 0.807843 0.419608
0.556863 0.819608 0.439216
0.709804 0.835294 0.454902
0.807843 0.847059 0.470588
0.890196 0.85098 0.501961
0.188235 0.843137 0.396078
0.207843 0.847059 0.396078
0.258824 0.85098 0.407843
0.337255 0.862745 0.419608
0.435294 0.87451 0.435294
0.580392 0.882353 0.466667
0.729412 0.890196 0.47451
0.823529 0.905882 0.501961
0.890196 0.909804 0.505882
0.0235294 0.0352941 0.305882
0.0470588 0.0431373 0.317647
0.109804 0.0666667 0.333333
0.2 0.101961 0.368627
0.333333 0.141176 0.4
0.466667 0.184314 0.443137
0.662745 0.235294 0.498039
0.768627 0.262745 0.517647
0.839216 0.290196 0.537255
0.0352941 0.054902 0.305882
0.0431373 0.0588235 0.309804
0.109804 0.0823529 0.345098
0.2 0.113725 0.364706
0.32549 0.160784 0.411765
0.470588 0.2 0.447059
0.647059 0.25098 0.486275
0.768627 0.27451 0.513725
0.843137 0.301961 0.537255
0.0392157 0.12549 0.321569
0.0627451 0.12549 0.32549
0.113725 0.141176 0.345098
0.207843 0.176471 0.376471
0.333333 0.215686 0.411765
0.478431 0.258824 0.45098
0.666667 0.305882 0.505882
0.776471 0.337255 0.52549
0.843137 0.360784 0.545098
0.0627451 0.223529 0.341176
0.0823529 0.235294 0.356863
0.129412 0.243137 0.360784
0.211765 0.270588 0.392157
0.333333 0.305882 0.427451
0.486275 0.345098 0.454902
0.666667 0.388235 0.505882
0.780392 0.435294 0.533333
0.862745 0.443137 0.552941
0.0901961 0.368627 0.376471
0.101961 0.368627 0.372549
0.156863 0.384314 0.392157
0.239216 0.403922 0.4
0.352941 0.435294 0.439216
0.505882 0.470588 0.482353
0.682353 0.505882 0.517647
0.792157 0.541176 0.545098
0.866667 0.556863 0.568627
0.113725 0.537255 0.411765
0.141176 0.537255 0.419608
0.192157 0.54902 0.427451
0.270588 0.564706 0.447059
0.380392 0.588235 0.478431
0.513725 0.603922 0.501961
0.701961 0.631373 0.537255
0.803922 0.658824 0.556863
0.87451 0.670588 0.576471
0.160784 0.690196 0.458824
0.176471 0.694118 0.458824
0.219608 0.705882 0.470588
0.309804 0.717647 0.486275
0.415686 0.741176 0.521569
0.556863 0.74902 0.533333
0.709804 0.760784 0.552941
0.811765 0.784314 0.580392
0.894118 0.792157 0.6
0.184314 0.792157 0.486275
0.203922 0.796078 0.486275
0.258824 0.8 0.505882
0.333333 0.811765 0.52549
0.435294 0.827451 0.545098
0.584314 0.843137 0.564706
0.737255 0.854902 0.580392
0.827451 0.854902 0.592157
0.898039 0.866667 0.611765
0.207843 0.85098 0.509804
0.223529 0.85098 0.513725
0.270588 0.858824 0.517647
0.34902 0.87451 0.541176
0.466667 0.886275 0.564706
0.603922 0.898039 0.580392
0.74902 0.909804 0.6
0.839216 0.917647 0.607843
0.905882 0.921569 0.615686
0.0431373 0.054902 0.466667
0.0705882 0.0666667 0.47451
0.12549 0.0823529 0.482353
0.211765 0.113725 0.513725
0.341176 0.156863 0.556863
0.509804 0.219608 0.6
0.682353 0.270588 0.631373
0.792157 0.305882 0.65098
0.870588 0.329412 0.670588
0.0431373 0.0745098 0.462745
0.0666667 0.0823529 0.47451
0.12549 0.105882 0.498039
0.223529 0.137255 0.529412
0.341176 0.180392 0.556863
0.509804 0.239216 0.596078
0.686275 0.282353 0.631373
0.8 0.321569 0.662745
0.87451 0.341176 0.670588
0.0627451 0.141176 0.482353
0.0745098 0.145098 0.482353
0.129412 0.156863 0.501961
0.227451 0.196078 0.533333
0.34902 0.243137 0.560784
0.513725 0.301961 0.607843
0.686275 0.341176 0.639216
0.8 0.380392 0.662745
0.870588 0.396078 0.67451
0.0823529 0.243137 0.501961
0.0901961 0.25098 0.501961
0.145098 0.258824 0.517647
0.227451 0.282353 0.537255
0.360784 0.32549 0.572549
0.517647 0.376471 0.615686
0.701961 0.431373 0.647059
0.807843 0.458824 0.670588
0.878431 0.47451 0.682353
0.101961 0.388235 0.52549
0.121569 0.388235 0.533333
0.172549 0.407843 0.54902
0.247059 0.419608 0.556863
0.364706 0.462745 0.584314
0.529412 0.501961 0.623529
0.713725 0.545098 0.654902
0.807843 0.572549 0.67451
0.890196 0.584314 0.686275
0.141176 0.552941 0.564706
0.152941 0.552941 0.568627
0.207843 0.564706 0.568627
0.286275 0.580392 0.592157
0.4 0.6 0.611765
0.54902 0.627451 0.631373
0.72549 0.662745 0.67451
0.823529 0.682353 0.682353
0.898039 0.694118 0.701961
0.176471 0.705882 0.588235
0.188235 0.709804 0.596078
0.243137 0.713725 0.607843
0.321569 0.729412 0.623529
0.435294 0.74902 0.643137
0.6 0.772549 0.67451
0.741176 0.780392 0.682353
0.843137 0.803922 0.705882
0.917647 0.807843 0.713725
0.203922 0.796078 0.619608
0.223529 0.8 0.623529
0.270588 0.807843 0.627451
0.341176 0.815686 0.639216
0.458824 0.839216 0.670588
0.619608 0.858824 0.694118
0.760784 0.866667 0.705882
0.85098 0.878431 0.713725
0.92549 0.890196 0.729412
0.219608 0.858824 0.635294
0.239216 0.862745 0.635294
0.286275 0.870588 0.643137
0.360784 0.882353 0.658824
0.478431 0.898039 0.678431
0.631373 0.917647 0.701961
0.772549 0.933333 0.713725
0.866667 0.937255 0.733333
0.929412 0.941176 0.733333
0.0705882 0.0823529 0.627451
0.0901961 0.0862745 0.635294
0.141176 0.109804 0.647059
0.235294 0.141176 0.67451
0.360784 0.184314 0.690196
0.52549 0.25098 0.729412
0.709804 0.317647 0.772549
0.827451 0.345098 0.792157
0.901961 0.368627 0.803922
0.0745098 0.105882 0.627451
0.0901961 0.105882 0.631373
0.14902 0.12549 0.65098
0.235294 0.156863 0.670588
0.360784 0.203922 0.694118
0.529412 0.262745 0.729412
0.717647 0.333333 0.776471
0.831373 0.368627 0.8
0.898039 0.384314 0.8
0.0823529 0.168627 0.639216
0.0941176 0.168627 0.639216
0.14902 0.184314 0.65098
0.243137 0.211765 0.678431
0.368627 0.262745 0.705882
0.537255 0.317647 0.737255
0.729412 0.384314 0.776471
0.831373 0.415686 0.8
0.905882 0.443137 0.811765
0.0980392 0.270588 0.65098
0.117647 0.27451 0.658824
0.164706 0.282353 0.666667
0.247059 0.305882 0.678431
0.376471 0.34902 0.713725
0.541176 0.407843 0.745098
0.733333 0.470588 0.784314
0.831373 0.501961 0.803922
0.905882 0.521569 0.811765
0.121569 0.407843 0.678431
0.141176 0.411765 0.67451
0.192157 0.415686 0.678431
0.27451 0.447059 0.701961
0.388235 0.470588 0.717647
0.556863 0.52549 0.756863
0.745098 0.576471 0.788235
0.839216 0.603922 0.807843
0.921569 0.619608 0.823529
0.152941 0.572549 0.698039
0.172549 0.576471 0.698039
0.215686 0.580392 0.709804
0.305882 0.6 0.721569
0.407843 0.615686 0.737255
0.572549 0.647059 0.764706
0.74902 0.690196 0.803922
0.854902 0.713725 0.815686
0.933333 0.72549 0.835294
0.192157 0.72549 0.72549
0.211765 0.721569 0.721569
0.254902 0.733333 0.737255
0.337255 0.745098 0.74902
0.447059 0.760784 0.764706
0.611765 0.784314 0.788235
0.768627 0.807843 0.811765
0.87451 0.835294 0.839216
0.941176 0.839216 0.843137
0.215686 0.807843 0.741176
0.239216 0.815686 0.745098
0.290196 0.819608 0.760784
0.360784 0.835294 0.768627
0.486275 0.85098 0.780392
0.639216 0.866667 0.811765
0.8 0.894118 0.831373
0.886275 0.901961 0.843137
0.952941 0.917647 0.858824
0.235294 0.87451 0.760784
0.254902 0.878431 0.760784
0.305882 0.890196 0.776471
0.384314 0.894118 0.784314
0.505882 0.917647 0.8
0.65098 0.92549 0.819608
0.811765 0.952941 0.843137
0.898039 0.960784 0.854902
0.956863 0.964706 0.854902
0.0823529 0.101961 0.713725
0.0941176 0.105882 0.721569
0.152941 0.12549 0.733333
0.247059 0.156863 0.752941
0.376471 0.203922 0.780392
0.541176 0.262745 0.811765
0.729412 0.333333 0.85098
0.85098 0.384314 0.878431
0.921569 0.403922 0.882353
0.0862745 0.121569 0.721569
0.105882 0.12549 0.721569
0.164706 0.145098 0.741176
0.247059 0.176471 0.756863
0.372549 0.219608 0.780392
0.537255 0.278431 0.811765
0.733333 0.345098 0.843137
0.843137 0.396078 0.87451
0.917647 0.415686 0.882353
0.0941176 0.184314 0.733333
0.105882 0.192157 0.729412
0.164706 0.2 0.745098
0.258824 0.235294 0.760784
0.376471 0.278431 0.780392
0.54902 0.337255 0.815686
0.737255 0.407843 0.854902
0.85098 0.45098 0.882353
0.921569 0.470588 0.886275
0.105882 0.282353 0.741176
0.133333 0.294118 0.74902
0.180392 0.305882 0.74902
0.258824 0.321569 0.764706
0.388235 0.364706 0.796078
0.556863 0.419608 0.827451
0.741176 0.490196 0.858824
0.858824 0.533333 0.886275
0.92549 0.54902 0.898039
0.137255 0.415686 0.760784
0.156863 0.435294 0.756863
0.207843 0.447059 0.772549
0.282353 0.458824 0.784314
0.4 0.490196 0.803922
0.568627 0.537255 0.831373
0.74902 0.592157 0.866667
0.866667 0.627451 0.890196
0.937255 0.635294 0.901961
0.164706 0.580392 0.784314
0.184314 0.580392 0.784314
0.235294 0.596078 0.796078
0.309804 0.607843 0.803922
0.427451 0.623529 0.815686
0.588235 0.658824 0.839216
0.768627 0.701961 0.878431
0.878431 0.733333 0.901961
0.952941 0.745098 0.909804
0.211765 0.733333 0.807843
0.223529 0.729412 0.811765
0.270588 0.737255 0.815686
0.34902 0.752941 0.827451
0.466667 0.776471 0.843137
0.615686 0.796078 0.858824
0.780392 0.827451 0.890196
0.890196 0.847059 0.909804
0.964706 0.858824 0.92549
0.235294 0.823529 0.827451
0.254902 0.827451 0.827451
0.305882 0.835294 0.847059
0.380392 0.843137 0.843137
0.498039 0.854902 0.858824
0.647059 0.882353 0.886275
0.803922 0.905882 0.901961
0.905882 0.921569 0.92549
0.968627 0.929412 0.933333
0.258824 0.886275 0.839216
0.27451 0.886275 0.843137
0.321569 0.894118 0.843137
0.396078 0.905882 0.858824
0.513725 0.917647 0.87451
0.662745 0.937255 0.894118
0.811765 0.960784 0.909804
0.921569 0.972549 0.933333
0.980392 0.980392 0.933333
0.0862745 0.105882 0.780392
0.109804 0.117647 0.788235
0.160784 0.133333 0.8
0.258824 0.172549 0.811765
0.380392 0.215686 0.835294
0.545098 0.27451 0.862745
0.741176 0.341176 0.901961
0.847059 0.392157 0.929412
0.92549 0.427451 0.941176
0.0862745 0.12549 0.780392
0.109804 0.133333 0.784314
0.172549 0.156863 0.796078
0.258824 0.184314 0.811765
0.384314 0.231373 0.839216
0.545098 0.294118 0.866667
0.733333 0.360784 0.901961
0.847059 0.407843 0.921569
0.929412 0.439216 0.941176
0.101961 0.196078 0.792157
0.117647 0.196078 0.796078
0.172549 0.211765 0.8
0.258824 0.243137 0.811765
0.384314 0.294118 0.843137
0.556863 0.34902 0.866667
0.745098 0.411765 0.909804
0.862745 0.462745 0.933333
0.937255 0.494118 0.94902
0.121569 0.298039 0.803922
0.137255 0.298039 0.807843
0.192157 0.313725 0.803922
0.270588 0.329412 0.819608
0.392157 0.376471 0.847059
0.564706 0.431373 0.87451
0.74902 0.498039 0.909804
0.862745 0.541176 0.933333
0.937255 0.568627 0.94902
0.145098 0.435294 0.823529
0.160784 0.439216 0.823529
0.211765 0.447059 0.823529
0.294118 0.470588 0.839216
0.403922 0.498039 0.858824
0.576471 0.545098 0.882353
0.764706 0.6 0.921569
0.87451 0.631373 0.937255
0.94902 0.658824 0.960784
0.176471 0.588235 0.843137
0.192157 0.592157 0.843137
0.239216 0.6 0.847059
0.32549 0.615686 0.854902
0.435294 0.635294 0.870588
0.592157 0.662745 0.890196
0.768627 0.709804 0.929412
0.890196 0.737255 0.952941
0.960784 0.752941 0.972549
0.215686 0.737255 0.866667
0.231373 0.741176 0.862745
0.282353 0.745098 0.870588
0.356863 0.760784 0.878431
0.47451 0.776471 0.894118
0.635294 0.8 0.921569
0.788235 0.827451 0.937255
0.901961 0.85098 0.968627
0.968627 0.862745 0.976471
0.239216 0.827451 0.882353
0.258824 0.827451 0.886275
0.309804 0.839216 0.882353
0.384314 0.847059 0.898039
0.505882 0.862745 0.913725
0.65098 0.882353 0.933333
0.811765 0.905882 0.956863
0.909804 0.92549 0.968627
0.988235 0.933333 0.984314
0.258824 0.886275 0.890196
0.278431 0.886275 0.894118
0.329412 0.894118 0.898039
0.403922 0.909804 0.909804
0.52549 0.917647 0.917647
0.670588 0.941176 0.945098
0.823529 0.968627 0.964706
0.92549 0.984314 0.984314
0.992157 0.992157 0.992157
