luts/Bleach_Bypass_Cold.cube
#Generated by Picture Instruments - Unlimited Filters
TITLE "Bleach Bypass Cold"
LUT_3D_SIZE 5
0 0 0
0.0705882 0.0156863 0.0156863
0.270588 0.0705882 0.0666667
0.603922 0.164706 0.160784
0.796078 0.211765 0.219608
0.0117647 0.0862745 0.0117647
0.0862745 0.101961 0.0352941
0.278431 0.14902 0.0901961
0.611765 0.239216 0.168627
0.803922 0.294118 0.231373
0.0588235 0.329412 0.0666667
0.121569 0.341176 0.0862745
0.294118 0.368627 0.109804
0.627451 0.45098 0.196078
0.827451 0.498039 0.254902
0.137255 0.67451 0.164706
0.192157 0.678431 0.168627
0.368627 0.690196 0.203922
0.654902 0.717647 0.239216
0.843137 0.752941 0.305882
0.176471 0.835294 0.219608
0.235294 0.839216 0.227451
0.407843 0.854902 0.254902
0.701961 0.87451 0.298039
0.866667 0.890196 0.321569
0.0156863 0.0117647 0.0823529
0.0862745 0.0352941 0.101961
0.294118 0.0941176 0.160784
0.623529 0.180392 0.258824
0.811765 0.235294 0.305882
0.0235294 0.101961 0.0980392
0.0901961 0.113725 0.113725
0.290196 0.164706 0.168627
0.623529 0.254902 0.254902
0.819608 0.309804 0.317647
0.0705882 0.345098 0.14902
0.137255 0.364706 0.168627
0.309804 0.384314 0.203922
0.647059 0.462745 0.282353
0.839216 0.513725 0.341176
0.137255 0.678431 0.239216
0.203922 0.690196 0.258824
0.380392 0.705882 0.282353
0.670588 0.729412 0.32549
0.862745 0.760784 0.388235
0.180392 0.839216 0.294118
0.254902 0.85098 0.321569
0.419608 0.862745 0.345098
0.713725 0.886275 0.388235
0.87451 0.894118 0.407843
0.0235294 0.0352941 0.305882
0.109804 0.0666667 0.333333
0.333333 0.141176 0.4
0.662745 0.235294 0.498039
0.839216 0.290196 0.537255
0.0392157 0.12549 0.321569
0.113725 0.141176 0.345098
0.333333 0.215686 0.411765
0.666667 0.305882 0.505882
0.843137 0.360784 0.545098
0.0901961 0.368627 0.376471
0.156863 0.384314 0.392157
0.352941 0.435294 0.439216
0.682353 0.505882 0.517647
0.866667 0.556863 0.568627
0.160784 0.690196 0.458824
0.219608 0.705882 0.470588
0.415686 0.741176 0.521569
0.709804 0.760784 0.552941
0.894118 0.792157 0.6
0.207843 0.85098 0.509804
0.270588 0.858824 0.517647
0.466667 0.886275 0.564706
0.74902 0.909804 0.6
0.905882 0.921569 0.615686
0.0705882 0.0823529 0.627451
0.141176 0.109804 0.647059
0.360784 0.184314 0.690196
0.709804 0.317647 0.772549
0.901961 0.368627 0.803922
0.0823529 0.168627 0.639216
0.14902 0.184314 0.65098
0.368627 0.262745 0.705882
0.729412 0.384314 0.776471
0.905882 0.443137 0.811765
0.121569 0.407843 0.678431
0.192157 0.415686 0.678431
0.388235 0.470588 0.717647
0.745098 0.576471 0.788235
0.921569 0.619608 0.823529
0.192157 0.72549 0.72549
0.254902 0.733333 0.737255
0.447059 0.760784 0.764706
0.768627 0.807843 0.811765
0.941176 0.839216 0.843137
0.235294 0.87451 0.760784
0.305882 0.890196 0.776471
0.505882 0.917647 0.8
0.811765 0.952941 0.843137
0.956863 0.964706 0.854902
0.0862745 0.105882 0.780392
0.160784 0.133333 0.8
0.380392 0.215686 0.835294
0.741176 0.341176 0.901961
0.92549 0.427451 0.941176
0.101961 0.196078 0.792157
0.172549 0.211765 0.8
0.384314 0.294118 0.843137
0.745098 0.411765 0.909804
0.937255 0.494118 0.94902
0.145098 0.435294 0.823529
0.211765 0.447059 0.823529
0.403922 0.498039 0.858824
0.764706 0.6 0.921569
0.94902 0.658824 0.960784
0.215686 0.737255 0.866667
0.282353 0.745098 0.870588
0.47451 0.776471 0.894118
0.788235 0.827451 0.937255
0.968627 0.862745 0.976471
0.258824 0.886275 0.890196
0.329412 0.894118 0.898039
0.52549 0.917647 0.917647
0.823529 0.968627 0.964706
0.992157 0.992157 0.992157
