luts/Bleach_Bypass_Cold.cube
#Generated by Picture Instruments - Unlimited Filters
TITLE "Bleach Bypass Cold"
LUT_3D_SIZE 17
0 0 0
0.00392157 0 0
0.0196078 0.00392157 0.00784314
0.0352941 0.0117647 0.0117647
0.0705882 0.0156863 0.0156863
0.105882 0.027451 0.0313725
0.156863 0.0392157 0.0392157
0.211765 0.054902 0.054902
0.270588 0.0705882 0.0666667
0.337255 0.0941176 0.0980392
0.407843 0.109804 0.109804
0.505882 0.137255 0.141176
0.603922 0.164706 0.160784
0.67451 0.180392 0.184314
0.717647 0.196078 0.2
0.764706 0.207843 0.203922
0.796078 0.211765 0.219608
0.00392157 0.00392157 0.00392157
0.00392157 0.00392157 0.00392157
0.0196078 0.00392157 0.00784314
0.0392157 0.0156863 0.0156863
0.0745098 0.0196078 0.0196078
0.105882 0.0352941 0.0352941
0.152941 0.0431373 0.0392157
0.215686 0.0588235 0.0588235
0.270588 0.0745098 0.0705882
0.337255 0.0941176 0.0980392
0.407843 0.109804 0.109804
0.505882 0.137255 0.141176
0.603922 0.164706 0.160784
0.67451 0.180392 0.184314
0.717647 0.196078 0.2
0.768627 0.211765 0.207843
0.8 0.219608 0.219608
0 0.0196078 0.00392157
0 0.0196078 0.00392157
0.0156863 0.0196078 0
0.0431373 0.027451 0.0156863
0.0705882 0.0431373 0.0196078
0.109804 0.0509804 0.0392157
0.156863 0.0588235 0.0431373
0.207843 0.0705882 0.054902
0.270588 0.0941176 0.0745098
0.341176 0.109804 0.0941176
0.415686 0.12549 0.113725
0.505882 0.156863 0.141176
0.603922 0.180392 0.168627
0.678431 0.2 0.188235
0.729412 0.211765 0.196078
0.768627 0.219608 0.215686
0.8 0.239216 0.223529
0.0156863 0.0431373 0.0117647
0.0117647 0.0509804 0.0156863
0.0235294 0.054902 0.0117647
0.0431373 0.0470588 0.0156863
0.0745098 0.0588235 0.0156863
0.109804 0.0705882 0.0352941
0.160784 0.0823529 0.0470588
0.211765 0.0941176 0.054902
0.282353 0.113725 0.0784314
0.341176 0.12549 0.0980392
0.415686 0.152941 0.117647
0.509804 0.176471 0.14902
0.607843 0.196078 0.172549
0.678431 0.219608 0.184314
0.72549 0.239216 0.207843
0.772549 0.25098 0.215686
0.8 0.254902 0.227451
0.0117647 0.0862745 0.0117647
0.0156863 0.0862745 0.0235294
0.0313725 0.0862745 0.0196078
0.0470588 0.0901961 0.0235294
0.0862745 0.101961 0.0352941
0.113725 0.109804 0.0392157
0.160784 0.113725 0.0509804
0.215686 0.129412 0.0745098
0.278431 0.14902 0.0901961
0.34902 0.168627 0.105882
0.415686 0.192157 0.12549
0.509804 0.211765 0.14902
0.611765 0.239216 0.168627
0.686275 0.254902 0.196078
0.729412 0.270588 0.203922
0.764706 0.282353 0.219608
0.803922 0.294118 0.231373
0.027451 0.129412 0.0313725
0.027451 0.129412 0.0313725
0.0431373 0.137255 0.0352941
0.0588235 0.137255 0.0313725
0.0862745 0.133333 0.0392157
0.129412 0.145098 0.0470588
0.164706 0.156863 0.0588235
0.223529 0.176471 0.0745098
0.286275 0.184314 0.0941176
0.352941 0.207843 0.105882
0.427451 0.223529 0.129412
0.521569 0.258824 0.156863
0.611765 0.27451 0.176471
0.686275 0.301961 0.203922
0.737255 0.313725 0.211765
0.776471 0.321569 0.223529
0.807843 0.329412 0.235294
0.0313725 0.192157 0.0352941
0.0352941 0.192157 0.0470588
0.0509804 0.192157 0.0431373
0.0705882 0.196078 0.0431373
0.0980392 0.2 0.0470588
0.129412 0.196078 0.054902
0.172549 0.215686 0.0588235
0.219608 0.219608 0.0784314
0.294118 0.239216 0.0941176
0.356863 0.254902 0.109804
0.427451 0.278431 0.133333
0.517647 0.298039 0.152941
0.615686 0.32549 0.188235
0.694118 0.34902 0.207843
0.737255 0.356863 0.219608
0.776471 0.372549 0.235294
0.807843 0.384314 0.235294
0.0470588 0.258824 0.054902
0.0509804 0.262745 0.0588235
0.0627451 0.258824 0.0588235
0.0745098 0.262745 0.0588235
0.105882 0.262745 0.0666667
0.141176 0.27451 0.0745098
0.184314 0.278431 0.0823529
0.231373 0.278431 0.0823529
0.290196 0.298039 0.101961
0.364706 0.317647 0.121569
0.431373 0.337255 0.14902
0.521569 0.356863 0.168627
0.619608 0.384314 0.188235
0.690196 0.4 0.207843
0.737255 0.415686 0.227451
0.780392 0.435294 0.247059
0.819608 0.443137 0.254902
0.0588235 0.329412 0.0666667
0.0627451 0.333333 0.0705882
0.0784314 0.341176 0.0784314
0.0941176 0.337255 0.0745098
0.121569 0.341176 0.0862745
0.14902 0.34902 0.0901961
0.196078 0.356863 0.0980392
0.243137 0.364706 0.101961
0.294118 0.368627 0.109804
0.360784 0.388235 0.12549
0.435294 0.403922 0.14902
0.533333 0.415686 0.164706
0.627451 0.45098 0.196078
0.701961 0.466667 0.223529
0.745098 0.478431 0.231373
0.784314 0.494118 0.247059
0.827451 0.498039 0.254902
0.0745098 0.415686 0.0980392
0.0784314 0.411765 0.0941176
0.0862745 0.419608 0.0941176
0.109804 0.419608 0.101961
0.137255 0.431373 0.105882
0.168627 0.435294 0.101961
0.211765 0.439216 0.109804
0.258824 0.443137 0.12549
0.313725 0.45098 0.121569
0.376471 0.462745 0.141176
0.447059 0.47451 0.160784
0.545098 0.501961 0.188235
0.631373 0.517647 0.203922
0.705882 0.537255 0.231373
0.74902 0.54902 0.239216
0.796078 0.552941 0.258824
0.827451 0.568627 0.262745
0.0901961 0.505882 0.113725
0.0901961 0.505882 0.109804
0.109804 0.509804 0.117647
0.12549 0.509804 0.113725
0.156863 0.509804 0.117647
0.184314 0.517647 0.121569
0.227451 0.529412 0.129412
0.27451 0.52549 0.145098
0.333333 0.537255 0.152941
0.388235 0.545098 0.164706
0.454902 0.54902 0.164706
0.54902 0.576471 0.2
0.643137 0.584314 0.219608
0.705882 0.6 0.243137
0.74902 0.611765 0.25098
0.8 0.623529 0.266667
0.835294 0.623529 0.270588
0.109804 0.592157 0.137255
0.109804 0.592157 0.137255
0.12549 0.588235 0.141176
0.137255 0.596078 0.145098
0.172549 0.603922 0.152941
0.207843 0.6 0.152941
0.243137 0.607843 0.160784
0.298039 0.611765 0.168627
0.34902 0.623529 0.176471
0.4 0.619608 0.184314
0.47451 0.627451 0.2
0.560784 0.639216 0.203922
0.65098 0.658824 0.231373
0.72549 0.678431 0.254902
0.768627 0.678431 0.262745
0.807843 0.682353 0.278431
0.839216 0.686275 0.282353
0.137255 0.67451 0.164706
0.137255 0.67451 0.164706
0.145098 0.666667 0.164706
0.164706 0.678431 0.168627
0.192157 0.678431 0.168627
0.227451 0.678431 0.172549
0.254902 0.682353 0.184314
0.309804 0.682353 0.188235
0.368627 0.690196 0.203922
0.427451 0.698039 0.207843
0.501961 0.705882 0.219608
0.576471 0.709804 0.235294
0.654902 0.717647 0.239216
0.733333 0.733333 0.262745
0.776471 0.741176 0.282353
0.815686 0.74902 0.294118
0.843137 0.752941 0.305882
0.141176 0.733333 0.180392
0.152941 0.733333 0.184314
0.160784 0.737255 0.188235
0.184314 0.737255 0.188235
0.207843 0.745098 0.2
0.239216 0.741176 0.203922
0.282353 0.745098 0.203922
0.333333 0.752941 0.211765
0.384314 0.752941 0.219608
0.439216 0.760784 0.235294
0.513725 0.760784 0.247059
0.6 0.768627 0.254902
0.682353 0.784314 0.262745
0.741176 0.784314 0.27451
0.780392 0.792157 0.286275
0.819608 0.8 0.305882
0.854902 0.8 0.309804
0.160784 0.772549 0.2
0.156863 0.768627 0.2
0.172549 0.776471 0.203922
0.188235 0.772549 0.207843
0.219608 0.784314 0.207843
0.247059 0.780392 0.207843
0.286275 0.780392 0.219608
0.341176 0.784314 0.227451
0.388235 0.792157 0.231373
0.447059 0.792157 0.247059
0.521569 0.8 0.258824
0.607843 0.807843 0.262745
0.686275 0.811765 0.27451
0.74902 0.819608 0.286275
0.776471 0.823529 0.298039
0.823529 0.831373 0.309804
0.866667 0.831373 0.317647
0.164706 0.803922 0.211765
0.176471 0.803922 0.207843
0.184314 0.807843 0.211765
0.203922 0.807843 0.219608
0.231373 0.807843 0.219608
0.262745 0.811765 0.227451
0.305882 0.815686 0.235294
0.34902 0.819608 0.235294
0.407843 0.819608 0.25098
0.466667 0.835294 0.262745
0.541176 0.835294 0.266667
0.619608 0.843137 0.282353
0.694118 0.847059 0.294118
0.764706 0.854902 0.305882
0.8 0.854902 0.309804
0.831373 0.858824 0.317647
0.858824 0.862745 0.321569
0.176471 0.835294 0.219608
0.176471 0.835294 0.219608
0.188235 0.839216 0.219608
0.207843 0.839216 0.227451
0.235294 0.839216 0.227451
0.262745 0.843137 0.231373
0.305882 0.847059 0.239216
0.352941 0.85098 0.254902
0.407843 0.854902 0.254902
0.478431 0.854902 0.262745
0.54902 0.862745 0.278431
0.619608 0.866667 0.286275
0.701961 0.87451 0.298039
0.760784 0.882353 0.313725
0.8 0.890196 0.317647
0.835294 0.890196 0.321569
0.866667 0.890196 0.321569
0 0 0.00784314
0 0 0
0.0196078 0.00392157 0.00784314
0.0352941 0.0117647 0.0117647
0.0745098 0.0196078 0.0196078
0.113725 0.0352941 0.0392157
0.160784 0.0431373 0.0431373
0.211765 0.054902 0.0588235
0.270588 0.0745098 0.0784314
0.345098 0.0941176 0.0941176
0.411765 0.113725 0.113725
0.509804 0.141176 0.145098
0.603922 0.164706 0.160784
0.67451 0.188235 0.188235
0.72549 0.2 0.203922
0.772549 0.211765 0.219608
0.8 0.219608 0.219608
0.00392157 0.00392157 0.00392157
0.00392157 0.00392157 0.00392157
0.0156863 0.00784314 0.0117647
0.0392157 0.0156863 0.0156863
0.0745098 0.0196078 0.0196078
0.105882 0.0352941 0.0352941
0.160784 0.0431373 0.0431373
0.215686 0.0588235 0.0588235
0.270588 0.0745098 0.0784314
0.337255 0.0941176 0.0980392
0.411765 0.113725 0.113725
0.501961 0.141176 0.145098
0.603922 0.164706 0.160784
0.67451 0.188235 0.188235
0.721569 0.2 0.203922
0.772549 0.211765 0.219608
0.803922 0.219608 0.227451
0 0.0196078 0.00392157
0.0117647 0.0196078 0.00784314
0.0196078 0.0196078 0.0117647
0.0431373 0.027451 0.0156863
0.0784314 0.0392157 0.0352941
0.109804 0.0509804 0.0392157
0.156863 0.0588235 0.0431373
0.207843 0.0705882 0.054902
0.270588 0.0941176 0.0745098
0.341176 0.105882 0.101961
0.407843 0.129412 0.121569
0.501961 0.14902 0.145098
0.603922 0.180392 0.168627
0.678431 0.2 0.196078
0.729412 0.211765 0.203922
0.764706 0.223529 0.215686
0.8 0.235294 0.231373
0.0117647 0.0509804 0.0156863
0.0117647 0.0509804 0.0156863
0.0235294 0.0509804 0.0196078
0.0392157 0.0509804 0.0156863
0.0745098 0.054902 0.0313725
0.109804 0.0705882 0.0352941
0.160784 0.0823529 0.054902
0.219608 0.101961 0.0627451
0.27451 0.113725 0.0901961
0.34902 0.133333 0.105882
0.415686 0.152941 0.121569
0.513725 0.180392 0.152941
0.607843 0.196078 0.172549
0.678431 0.219608 0.192157
0.729412 0.243137 0.211765
0.772549 0.25098 0.223529
0.803922 0.258824 0.239216
0.0117647 0.0823529 0.0196078
0.0156863 0.0862745 0.0235294
0.027451 0.0941176 0.0313725
0.0470588 0.0980392 0.0313725
0.0862745 0.101961 0.0352941
0.113725 0.109804 0.0392157
0.156863 0.121569 0.054902
0.219608 0.137255 0.0705882
0.278431 0.14902 0.0901961
0.352941 0.168627 0.105882
0.415686 0.192157 0.12549
0.513725 0.211765 0.14902
0.603922 0.239216 0.172549
0.682353 0.262745 0.2
0.729412 0.270588 0.203922
0.764706 0.282353 0.223529
0.811765 0.294118 0.235294
0.027451 0.12549 0.0392157
0.027451 0.137255 0.0392157
0.0431373 0.137255 0.0352941
0.0588235 0.137255 0.0392157
0.0862745 0.141176 0.0392157
0.121569 0.141176 0.0509804
0.164706 0.156863 0.0588235
0.219608 0.172549 0.0705882
0.286275 0.192157 0.0980392
0.352941 0.203922 0.113725
0.419608 0.223529 0.133333
0.509804 0.25098 0.156863
0.607843 0.278431 0.184314
0.686275 0.298039 0.207843
0.737255 0.309804 0.219608
0.772549 0.32549 0.231373
0.811765 0.333333 0.243137
0.0352941 0.192157 0.0470588
0.0352941 0.192157 0.0470588
0.0470588 0.196078 0.0509804
0.0705882 0.196078 0.0509804
0.0941176 0.196078 0.0509804
0.133333 0.2 0.0588235
0.172549 0.211765 0.0666667
0.223529 0.223529 0.0823529
0.294118 0.243137 0.105882
0.356863 0.254902 0.117647
0.431373 0.282353 0.141176
0.529412 0.301961 0.156863
0.615686 0.32549 0.188235
0.686275 0.337255 0.203922
0.733333 0.364706 0.223529
0.780392 0.368627 0.243137
0.811765 0.380392 0.243137
0.0470588 0.258824 0.0627451
0.0470588 0.258824 0.0627451
0.0666667 0.262745 0.0627451
0.0823529 0.262745 0.0705882
0.113725 0.270588 0.0666667
0.145098 0.278431 0.0784314
0.180392 0.27451 0.0784314
0.235294 0.282353 0.0941176
0.294118 0.301961 0.105882
0.360784 0.321569 0.121569
0.431373 0.337255 0.14902
0.529412 0.364706 0.168627
0.623529 0.384314 0.2
0.698039 0.407843 0.215686
0.741176 0.419608 0.235294
0.776471 0.431373 0.243137
0.819608 0.443137 0.254902
0.0588235 0.337255 0.0784314
0.0627451 0.333333 0.0784314
0.0705882 0.341176 0.0862745
0.0941176 0.337255 0.0901961
0.121569 0.341176 0.0862745
0.152941 0.345098 0.0901961
0.196078 0.356863 0.0980392
0.243137 0.364706 0.101961
0.294118 0.368627 0.117647
0.364706 0.384314 0.12549
0.443137 0.403922 0.160784
0.541176 0.431373 0.176471
0.627451 0.447059 0.203922
0.701961 0.466667 0.223529
0.745098 0.478431 0.239216
0.784314 0.494118 0.254902
0.827451 0.498039 0.262745
0.0745098 0.415686 0.0980392
0.0745098 0.415686 0.0980392
0.0862745 0.419608 0.101961
0.109804 0.431373 0.101961
0.141176 0.435294 0.109804
0.164706 0.435294 0.109804
0.207843 0.439216 0.117647
0.258824 0.443137 0.12549
0.309804 0.458824 0.12549
0.368627 0.458824 0.145098
0.447059 0.47451 0.160784
0.541176 0.498039 0.184314
0.631373 0.517647 0.211765
0.709804 0.541176 0.235294
0.74902 0.545098 0.247059
0.788235 0.556863 0.258824
0.827451 0.568627 0.270588
0.0901961 0.505882 0.113725
0.0941176 0.509804 0.117647
0.105882 0.505882 0.113725
0.12549 0.509804 0.121569
0.160784 0.513725 0.129412
0.188235 0.517647 0.133333
0.231373 0.521569 0.141176
0.27451 0.52549 0.145098
0.32549 0.537255 0.160784
0.388235 0.545098 0.164706
0.458824 0.552941 0.176471
0.54902 0.568627 0.2
0.647059 0.588235 0.223529
0.705882 0.6 0.243137
0.756863 0.611765 0.262745
0.8 0.623529 0.266667
0.835294 0.623529 0.278431
0.109804 0.592157 0.137255
0.113725 0.596078 0.14902
0.12549 0.588235 0.141176
0.14902 0.596078 0.14902
0.172549 0.6 0.14902
0.211765 0.603922 0.156863
0.243137 0.607843 0.160784
0.298039 0.611765 0.168627
0.352941 0.619608 0.176471
0.411765 0.623529 0.188235
0.478431 0.627451 0.2
0.560784 0.635294 0.211765
0.65098 0.658824 0.239216
0.72549 0.670588 0.258824
0.768627 0.678431 0.270588
0.807843 0.682353 0.278431
0.839216 0.682353 0.298039
0.133333 0.678431 0.172549
0.137255 0.67451 0.164706
0.145098 0.67451 0.168627
0.164706 0.678431 0.168627
0.188235 0.678431 0.176471
0.227451 0.682353 0.184314
0.254902 0.682353 0.184314
0.313725 0.682353 0.196078
0.360784 0.690196 0.203922
0.431373 0.705882 0.219608
0.501961 0.705882 0.219608
0.576471 0.717647 0.239216
0.662745 0.72549 0.247059
0.737255 0.741176 0.270588
0.772549 0.74902 0.278431
0.811765 0.752941 0.301961
0.843137 0.752941 0.305882
0.141176 0.733333 0.188235
0.152941 0.733333 0.192157
0.160784 0.733333 0.196078
0.180392 0.733333 0.192157
0.211765 0.741176 0.2
0.243137 0.737255 0.203922
0.282353 0.745098 0.203922
0.333333 0.74902 0.215686
0.384314 0.74902 0.227451
0.443137 0.764706 0.239216
0.517647 0.756863 0.247059
0.603922 0.772549 0.258824
0.67451 0.772549 0.262745
0.741176 0.784314 0.282353
0.784314 0.796078 0.290196
0.831373 0.8 0.309804
0.858824 0.8 0.317647
0.156863 0.768627 0.2
0.156863 0.768627 0.2
0.172549 0.776471 0.203922
0.188235 0.772549 0.207843
0.219608 0.776471 0.211765
0.258824 0.780392 0.219608
0.286275 0.780392 0.219608
0.337255 0.788235 0.227451
0.396078 0.792157 0.243137
0.447059 0.792157 0.247059
0.533333 0.8 0.262745
0.607843 0.807843 0.270588
0.686275 0.811765 0.282353
0.74902 0.819608 0.294118
0.780392 0.819608 0.305882
0.827451 0.835294 0.313725
0.862745 0.835294 0.317647
0.164706 0.8 0.219608
0.168627 0.807843 0.215686
0.184314 0.807843 0.211765
0.203922 0.807843 0.219608
0.231373 0.807843 0.219608
0.258824 0.815686 0.235294
0.298039 0.815686 0.243137
0.34902 0.819608 0.243137
0.4 0.823529 0.254902
0.458824 0.831373 0.258824
0.541176 0.835294 0.266667
0.611765 0.843137 0.278431
0.698039 0.85098 0.298039
0.74902 0.854902 0.301961
0.8 0.854902 0.309804
0.831373 0.862745 0.321569
0.858824 0.862745 0.329412
0.176471 0.835294 0.219608
0.176471 0.835294 0.227451
0.188235 0.835294 0.223529
0.207843 0.839216 0.231373
0.235294 0.843137 0.239216
0.27451 0.843137 0.243137
0.305882 0.847059 0.243137
0.352941 0.85098 0.254902
0.403922 0.85098 0.262745
0.478431 0.854902 0.270588
0.54902 0.862745 0.278431
0.623529 0.866667 0.298039
0.701961 0.87451 0.298039
0.756863 0.882353 0.313725
0.8 0.886275 0.317647
0.835294 0.886275 0.329412
0.866667 0.886275 0.337255
0.00392157 0 0.0196078
0.00784314 0.00392157 0.0235294
0.0235294 0.0156863 0.0352941
0.0392157 0.0156863 0.0313725
0.0784314 0.0196078 0.0392157
0.109804 0.0352941 0.0509804
0.156863 0.0431373 0.0588235
0.211765 0.0588235 0.0784314
0.27451 0.0745098 0.0941176
0.341176 0.105882 0.113725
0.411765 0.113725 0.129412
0.498039 0.137255 0.156863
0.607843 0.164706 0.188235
0.678431 0.184314 0.2
0.729412 0.2 0.223529
0.772549 0.211765 0.235294
0.803922 0.219608 0.243137
0 0.00392157 0.0196078
0.00784314 0.00392157 0.0235294
0.0235294 0.0156863 0.0352941
0.0392157 0.0117647 0.0392157
0.0745098 0.027451 0.0431373
0.113725 0.0392157 0.054902
0.164706 0.0509804 0.0588235
0.219608 0.0666667 0.0784314
0.27451 0.0823529 0.0941176
0.341176 0.105882 0.113725
0.415686 0.121569 0.141176
0.517647 0.145098 0.160784
0.611765 0.168627 0.192157
0.678431 0.188235 0.203922
0.729412 0.2 0.223529
0.768627 0.215686 0.239216
0.803922 0.219608 0.243137
0.00392157 0.0196078 0.0235294
0.0117647 0.0196078 0.0156863
0.0235294 0.027451 0.0352941
0.0392157 0.0313725 0.0352941
0.0784314 0.0392157 0.0431373
0.113725 0.0509804 0.0509804
0.160784 0.0588235 0.0627451
0.211765 0.0784314 0.0823529
0.282353 0.0941176 0.0941176
0.34902 0.113725 0.113725
0.411765 0.137255 0.145098
0.509804 0.156863 0.156863
0.607843 0.184314 0.184314
0.682353 0.2 0.207843
0.72549 0.215686 0.215686
0.768627 0.235294 0.243137
0.803922 0.239216 0.243137
0.0117647 0.054902 0.0313725
0.0117647 0.054902 0.0313725
0.027451 0.0509804 0.0352941
0.0470588 0.054902 0.0431373
0.0862745 0.0666667 0.0431373
0.113725 0.0705882 0.054902
0.160784 0.0862745 0.0627451
0.211765 0.101961 0.0862745
0.27451 0.113725 0.105882
0.352941 0.137255 0.117647
0.415686 0.160784 0.145098
0.509804 0.184314 0.160784
0.607843 0.2 0.188235
0.682353 0.219608 0.211765
0.729412 0.247059 0.227451
0.772549 0.254902 0.239216
0.803922 0.258824 0.247059
0.0156863 0.0862745 0.0392157
0.0235294 0.0941176 0.0392157
0.0313725 0.0941176 0.0431373
0.054902 0.101961 0.0470588
0.0862745 0.101961 0.0470588
0.117647 0.109804 0.0588235
0.160784 0.12549 0.0666667
0.223529 0.137255 0.0862745
0.286275 0.152941 0.105882
0.356863 0.168627 0.121569
0.427451 0.192157 0.14902
0.521569 0.215686 0.168627
0.619608 0.243137 0.196078
0.682353 0.258824 0.211765
0.737255 0.27451 0.227451
0.776471 0.290196 0.243137
0.811765 0.301961 0.25098
0.027451 0.137255 0.0509804
0.0313725 0.129412 0.0470588
0.0431373 0.141176 0.054902
0.054902 0.141176 0.0588235
0.0862745 0.145098 0.0627451
0.133333 0.152941 0.0666667
0.164706 0.160784 0.0784314
0.223529 0.180392 0.0941176
0.282353 0.196078 0.105882
0.352941 0.211765 0.12549
0.423529 0.235294 0.14902
0.517647 0.258824 0.172549
0.611765 0.278431 0.2
0.690196 0.301961 0.219608
0.733333 0.313725 0.235294
0.776471 0.32549 0.25098
0.807843 0.333333 0.258824
0.0352941 0.192157 0.0588235
0.0392157 0.196078 0.0588235
0.054902 0.2 0.0666667
0.0666667 0.2 0.0705882
0.101961 0.203922 0.0666667
0.137255 0.203922 0.0784314
0.176471 0.215686 0.0823529
0.231373 0.235294 0.101961
0.286275 0.243137 0.117647
0.360784 0.266667 0.133333
0.431373 0.278431 0.156863
0.521569 0.309804 0.176471
0.611765 0.32549 0.2
0.686275 0.345098 0.227451
0.737255 0.364706 0.239216
0.784314 0.372549 0.258824
0.811765 0.384314 0.262745
0.0392157 0.258824 0.0666667
0.0431373 0.262745 0.0784314
0.0588235 0.262745 0.0745098
0.0862745 0.27451 0.0862745
0.105882 0.270588 0.0823529
0.141176 0.270588 0.0941176
0.188235 0.282353 0.0941176
0.231373 0.294118 0.109804
0.298039 0.305882 0.121569
0.368627 0.32549 0.145098
0.435294 0.341176 0.160784
0.537255 0.368627 0.192157
0.635294 0.388235 0.219608
0.698039 0.407843 0.231373
0.741176 0.415686 0.25098
0.784314 0.435294 0.262745
0.823529 0.443137 0.27451
0.0627451 0.337255 0.0941176
0.0627451 0.337255 0.0941176
0.0745098 0.345098 0.0980392
0.0901961 0.341176 0.101961
0.12549 0.345098 0.105882
0.160784 0.34902 0.105882
0.207843 0.364706 0.117647
0.247059 0.356863 0.12549
0.298039 0.368627 0.12549
0.364706 0.388235 0.152941
0.447059 0.407843 0.168627
0.533333 0.431373 0.2
0.631373 0.45098 0.219608
0.705882 0.466667 0.243137
0.74902 0.478431 0.254902
0.796078 0.498039 0.270588
0.823529 0.501961 0.27451
0.0745098 0.423529 0.109804
0.0784314 0.419608 0.109804
0.0901961 0.419608 0.113725
0.109804 0.431373 0.109804
0.145098 0.435294 0.12549
0.172549 0.435294 0.12549
0.211765 0.443137 0.129412
0.262745 0.454902 0.145098
0.313725 0.458824 0.152941
0.376471 0.466667 0.160784
0.447059 0.478431 0.184314
0.54902 0.501961 0.203922
0.639216 0.52549 0.227451
0.709804 0.537255 0.243137
0.745098 0.54902 0.262745
0.796078 0.560784 0.278431
0.831373 0.564706 0.286275
0.0941176 0.517647 0.129412
0.0980392 0.513725 0.129412
0.113725 0.509804 0.141176
0.133333 0.513725 0.141176
0.156863 0.52549 0.145098
0.188235 0.521569 0.152941
0.227451 0.529412 0.160784
0.278431 0.533333 0.164706
0.329412 0.541176 0.172549
0.388235 0.54902 0.180392
0.454902 0.552941 0.196078
0.54902 0.572549 0.219608
0.643137 0.588235 0.239216
0.709804 0.603922 0.254902
0.760784 0.615686 0.270588
0.803922 0.623529 0.286275
0.831373 0.627451 0.298039
0.113725 0.592157 0.156863
0.113725 0.592157 0.156863
0.133333 0.596078 0.164706
0.145098 0.592157 0.156863
0.176471 0.6 0.164706
0.215686 0.607843 0.168627
0.247059 0.607843 0.180392
0.294118 0.615686 0.184314
0.34902 0.619608 0.2
0.407843 0.627451 0.207843
0.486275 0.631373 0.215686
0.572549 0.639216 0.223529
0.65098 0.662745 0.258824
0.72549 0.67451 0.266667
0.768627 0.67451 0.282353
0.811765 0.682353 0.301961
0.847059 0.690196 0.305882
0.133333 0.678431 0.188235
0.141176 0.67451 0.188235
0.14902 0.67451 0.184314
0.168627 0.678431 0.192157
0.196078 0.678431 0.192157
0.227451 0.682353 0.2
0.270588 0.686275 0.207843
0.313725 0.690196 0.207843
0.364706 0.694118 0.219608
0.427451 0.701961 0.223529
0.501961 0.713725 0.243137
0.584314 0.713725 0.254902
0.662745 0.721569 0.262745
0.737255 0.741176 0.282353
0.772549 0.745098 0.298039
0.815686 0.745098 0.305882
0.847059 0.756863 0.317647
0.14902 0.741176 0.203922
0.156863 0.737255 0.203922
0.164706 0.737255 0.207843
0.184314 0.741176 0.207843
0.207843 0.741176 0.215686
0.247059 0.745098 0.223529
0.290196 0.74902 0.227451
0.329412 0.74902 0.231373
0.384314 0.756863 0.247059
0.443137 0.760784 0.247059
0.521569 0.768627 0.258824
0.596078 0.772549 0.266667
0.678431 0.780392 0.282353
0.741176 0.788235 0.301961
0.780392 0.8 0.305882
0.823529 0.8 0.321569
0.858824 0.803922 0.32549
0.160784 0.772549 0.211765
0.160784 0.772549 0.211765
0.176471 0.776471 0.219608
0.2 0.776471 0.227451
0.223529 0.776471 0.223529
0.25098 0.780392 0.235294
0.294118 0.784314 0.235294
0.341176 0.788235 0.243137
0.392157 0.792157 0.258824
0.45098 0.796078 0.262745
0.533333 0.796078 0.278431
0.611765 0.807843 0.278431
0.694118 0.815686 0.305882
0.752941 0.819608 0.309804
0.784314 0.823529 0.309804
0.831373 0.835294 0.32549
0.866667 0.835294 0.337255
0.172549 0.807843 0.231373
0.172549 0.807843 0.231373
0.188235 0.807843 0.235294
0.207843 0.811765 0.239216
0.231373 0.807843 0.247059
0.270588 0.815686 0.247059
0.301961 0.819608 0.25098
0.352941 0.819608 0.262745
0.403922 0.823529 0.266667
0.470588 0.835294 0.282353
0.545098 0.839216 0.282353
0.619608 0.85098 0.301961
0.701961 0.85098 0.313725
0.760784 0.854902 0.321569
0.8 0.854902 0.32549
0.835294 0.858824 0.333333
0.862745 0.862745 0.345098
0.176471 0.839216 0.239216
0.180392 0.835294 0.239216
0.192157 0.839216 0.243137
0.215686 0.839216 0.243137
0.239216 0.843137 0.254902
0.270588 0.843137 0.254902
0.309804 0.847059 0.258824
0.356863 0.854902 0.270588
0.411765 0.85098 0.278431
0.47451 0.858824 0.290196
0.545098 0.862745 0.298039
0.627451 0.870588 0.301961
0.705882 0.87451 0.317647
0.768627 0.882353 0.32549
0.8 0.890196 0.341176
0.835294 0.890196 0.345098
0.862745 0.890196 0.34902
0.00392157 0.00392157 0.0431373
0.0117647 0.00392157 0.0470588
0.0235294 0.0117647 0.054902
0.0431373 0.0196078 0.0588235
0.0784314 0.027451 0.0666667
0.105882 0.0392157 0.0705882
0.160784 0.054902 0.0901961
0.223529 0.0666667 0.101961
0.278431 0.0823529 0.117647
0.34902 0.101961 0.145098
0.419608 0.121569 0.160784
0.505882 0.141176 0.184314
0.607843 0.172549 0.207843
0.686275 0.192157 0.235294
0.729412 0.203922 0.239216
0.772549 0.215686 0.262745
0.807843 0.219608 0.262745
0 0.0117647 0.0392157
0.0117647 0.0117647 0.0431373
0.0235294 0.0196078 0.0509804
0.0431373 0.0196078 0.0588235
