luts/CineMagic_NT_Film2P.cube
#Generated by Picture Instruments - Unlimited Filters
TITLE "CineMagic NT Film2P"
LUT_3D_SIZE 17
0 0 0
0.0235294 0 0
0.0392157 0 0.00392157
0.0745098 0.00392157 0.00392157
0.121569 0.00392157 0.00392157
0.172549 0.00784314 0.0117647
0.235294 0.0156863 0.0196078
0.317647 0.0196078 0.027451
0.4 0.027451 0.0352941
0.486275 0.0352941 0.0470588
0.576471 0.0509804 0.054902
0.666667 0.0627451 0.0666667
0.737255 0.0705882 0.0745098
0.796078 0.0784314 0.0862745
0.847059 0.0862745 0.0901961
0.890196 0.0901961 0.101961
0.921569 0.0901961 0.0980392
0.00392157 0.00392157 0.00392157
0.0196078 0.00392157 0
0.0431373 0.00392157 0
0.0784314 0.00784314 0.00784314
0.121569 0.0117647 0.00784314
0.168627 0.0196078 0.0156863
0.227451 0.027451 0.0156863
0.313725 0.0352941 0.027451
0.396078 0.0509804 0.0352941
0.482353 0.0588235 0.0470588
0.572549 0.0627451 0.054902
0.666667 0.0823529 0.0666667
0.741176 0.0941176 0.0784314
0.796078 0.0980392 0.0901961
0.843137 0.101961 0.0941176
0.882353 0.105882 0.0941176
0.921569 0.105882 0.0980392
0.00392157 0.0117647 0
0.0235294 0.00784314 0.00392157
0.0470588 0.00784314 0.00392157
0.0745098 0.0156863 0.00392157
0.117647 0.0196078 0.00392157
0.172549 0.027451 0.00392157
0.235294 0.0431373 0.0235294
0.305882 0.054902 0.0196078
0.4 0.0784314 0.0352941
0.490196 0.0901961 0.0431373
0.580392 0.101961 0.0588235
0.662745 0.105882 0.0666667
0.737255 0.117647 0.0745098
0.8 0.12549 0.0862745
0.847059 0.133333 0.0901961
0.890196 0.137255 0.0941176
0.921569 0.137255 0.0941176
0 0.054902 0.00392157
0.0235294 0.0470588 0.00784314
0.0431373 0.0509804 0.00784314
0.0784314 0.0470588 0.00392157
0.117647 0.054902 0.00392157
0.168627 0.0666667 0.0156863
0.235294 0.0823529 0.0156863
0.317647 0.0941176 0.0196078
0.403922 0.109804 0.0352941
0.486275 0.12549 0.0431373
0.576471 0.137255 0.0588235
0.662745 0.141176 0.0666667
0.741176 0.152941 0.0784314
0.792157 0.160784 0.0823529
0.843137 0.168627 0.0901961
0.886275 0.172549 0.0901961
0.917647 0.172549 0.0941176
0.00392157 0.105882 0.00784314
0.0235294 0.101961 0.00392157
0.0470588 0.101961 0.00392157
0.0784314 0.0980392 0.00784314
0.121569 0.105882 0.00784314
0.176471 0.113725 0.0117647
0.239216 0.121569 0.0196078
0.313725 0.137255 0.0235294
0.4 0.152941 0.0313725
0.490196 0.164706 0.0470588
0.572549 0.180392 0.054902
0.670588 0.188235 0.0666667
0.741176 0.196078 0.0745098
0.796078 0.203922 0.0823529
0.843137 0.215686 0.0901961
0.886275 0.215686 0.0980392
0.921569 0.215686 0.0941176
0.00784314 0.168627 0.0117647
0.0235294 0.160784 0.0156863
0.054902 0.164706 0.00784314
0.0823529 0.164706 0.0117647
0.121569 0.160784 0.0156863
0.176471 0.168627 0.0156863
0.239216 0.180392 0.0196078
0.32549 0.196078 0.027451
0.4 0.2 0.0313725
0.501961 0.223529 0.0431373
0.580392 0.231373 0.0588235
0.670588 0.247059 0.0666667
0.741176 0.25098 0.0784314
0.803922 0.262745 0.0823529
0.847059 0.262745 0.0941176
0.890196 0.270588 0.0941176
0.92549 0.270588 0.0980392
0.0117647 0.239216 0.0117647
0.0352941 0.235294 0.0156863
0.054902 0.231373 0.0156863
0.0901961 0.239216 0.0156863
0.129412 0.243137 0.0156863
0.180392 0.239216 0.0156863
0.247059 0.243137 0.0235294
0.317647 0.254902 0.0235294
0.407843 0.270588 0.0431373
0.494118 0.282353 0.0470588
0.584314 0.294118 0.054902
0.67451 0.305882 0.0666667
0.745098 0.313725 0.0823529
0.803922 0.321569 0.0862745
0.85098 0.32549 0.0862745
0.894118 0.333333 0.0980392
0.921569 0.333333 0.0980392
0.0196078 0.329412 0.0196078
0.0470588 0.333333 0.0235294
0.0627451 0.329412 0.027451
0.0941176 0.321569 0.0196078
0.137255 0.329412 0.0196078
0.188235 0.333333 0.027451
0.25098 0.341176 0.0352941
0.321569 0.337255 0.0352941
0.403922 0.341176 0.0352941
0.498039 0.356863 0.0509804
0.588235 0.368627 0.0666667
0.666667 0.380392 0.0705882
0.745098 0.396078 0.0823529
0.8 0.396078 0.0862745
0.847059 0.403922 0.0901961
0.894118 0.411765 0.0980392
0.921569 0.407843 0.101961
0.0313725 0.415686 0.027451
0.0509804 0.407843 0.0313725
0.0666667 0.419608 0.027451
0.105882 0.419608 0.0313725
0.141176 0.415686 0.027451
0.192157 0.415686 0.0352941
0.254902 0.431373 0.0352941
0.329412 0.431373 0.0352941
0.407843 0.423529 0.0431373
0.494118 0.431373 0.054902
0.584314 0.443137 0.0627451
0.67451 0.454902 0.0745098
0.745098 0.470588 0.0862745
0.8 0.470588 0.0862745
0.854902 0.47451 0.0941176
0.898039 0.478431 0.101961
0.929412 0.47451 0.0980392
0.0392157 0.498039 0.0392157
0.0588235 0.490196 0.0392157
0.0784314 0.501961 0.0352941
0.113725 0.501961 0.0431373
0.156863 0.498039 0.0392157
0.211765 0.505882 0.0431373
0.266667 0.505882 0.0470588
0.341176 0.509804 0.0470588
0.423529 0.513725 0.054902
0.505882 0.517647 0.054902
0.588235 0.521569 0.0666667
0.678431 0.533333 0.0745098
0.74902 0.541176 0.0862745
0.811765 0.54902 0.0980392
0.862745 0.54902 0.0980392
0.901961 0.54902 0.101961
0.929412 0.556863 0.101961
0.0470588 0.580392 0.0470588
0.0705882 0.580392 0.0470588
0.0901961 0.580392 0.0470588
0.12549 0.580392 0.0509804
0.164706 0.580392 0.0470588
0.215686 0.584314 0.0509804
0.278431 0.584314 0.0509804
0.345098 0.588235 0.0588235
0.431373 0.588235 0.0588235
0.509804 0.596078 0.0666667
0.6 0.6 0.0745098
0.678431 0.615686 0.0784314
0.752941 0.615686 0.0941176
0.811765 0.623529 0.0980392
0.854902 0.627451 0.101961
0.898039 0.631373 0.109804
0.933333 0.631373 0.105882
0.0588235 0.666667 0.0627451
0.0823529 0.666667 0.0627451
0.0980392 0.666667 0.0588235
0.137255 0.666667 0.0627451
0.172549 0.67451 0.0588235
0.223529 0.67451 0.0588235
0.290196 0.670588 0.0627451
0.364706 0.67451 0.0745098
0.443137 0.682353 0.0745098
0.521569 0.682353 0.0784314
0.603922 0.686275 0.0862745
0.686275 0.690196 0.0862745
0.760784 0.701961 0.101961
0.811765 0.705882 0.105882
0.862745 0.709804 0.109804
0.901961 0.705882 0.113725
0.937255 0.705882 0.113725
0.0745098 0.729412 0.0705882
0.0941176 0.733333 0.0705882
0.113725 0.729412 0.0745098
0.141176 0.737255 0.0705882
0.184314 0.733333 0.0705882
0.239216 0.737255 0.0745098
0.298039 0.733333 0.0784314
0.368627 0.733333 0.0784314
0.454902 0.741176 0.0784314
0.537255 0.745098 0.0862745
0.619608 0.74902 0.0941176
0.698039 0.74902 0.0941176
0.760784 0.756863 0.105882
0.827451 0.760784 0.109804
0.870588 0.764706 0.117647
0.913725 0.768627 0.117647
0.941176 0.768627 0.121569
0.0745098 0.788235 0.0784314
0.101961 0.788235 0.0784314
0.113725 0.788235 0.0745098
0.14902 0.784314 0.0745098
0.188235 0.792157 0.0784314
0.247059 0.792157 0.0823529
0.305882 0.792157 0.0784314
0.384314 0.796078 0.0862745
0.45098 0.796078 0.0823529
0.537255 0.803922 0.0941176
0.615686 0.803922 0.0980392
0.698039 0.807843 0.101961
0.768627 0.811765 0.105882
0.815686 0.811765 0.113725
0.866667 0.815686 0.121569
0.909804 0.819608 0.121569
0.937255 0.819608 0.121569
0.0745098 0.835294 0.0784314
0.0980392 0.831373 0.0823529
0.121569 0.831373 0.0823529
0.14902 0.831373 0.0745098
0.196078 0.839216 0.0823529
0.243137 0.835294 0.0862745
0.305882 0.835294 0.0862745
0.380392 0.839216 0.0941176
0.458824 0.839216 0.0901961
0.541176 0.843137 0.0980392
0.615686 0.847059 0.101961
0.698039 0.85098 0.109804
0.768627 0.85098 0.109804
0.819608 0.854902 0.113725
0.862745 0.858824 0.117647
0.913725 0.858824 0.12549
0.937255 0.858824 0.12549
0.0862745 0.87451 0.0823529
0.101961 0.87451 0.0823529
0.12549 0.87451 0.0823529
0.156863 0.87451 0.0823529
0.203922 0.87451 0.0823529
0.254902 0.87451 0.0862745
0.313725 0.87451 0.0901961
0.384314 0.87451 0.0901961
0.470588 0.87451 0.0980392
0.54902 0.886275 0.105882
0.627451 0.886275 0.109804
0.705882 0.886275 0.113725
0.764706 0.890196 0.117647
0.827451 0.898039 0.121569
0.87451 0.898039 0.121569
0.917647 0.901961 0.133333
0.945098 0.901961 0.133333
0.0862745 0.905882 0.0862745
0.101961 0.901961 0.0823529
0.12549 0.901961 0.0823529
0.160784 0.905882 0.0823529
0.203922 0.905882 0.0862745
0.254902 0.901961 0.0862745
0.305882 0.905882 0.0862745
0.380392 0.909804 0.0941176
0.470588 0.913725 0.0980392
0.54902 0.913725 0.101961
0.627451 0.917647 0.109804
0.698039 0.921569 0.109804
0.768627 0.921569 0.117647
0.827451 0.92549 0.121569
0.87451 0.929412 0.12549
0.913725 0.929412 0.12549
0.945098 0.929412 0.12549
0 0 0
0.0196078 0.00392157 0.00784314
0.0392157 0 0.00392157
0.0745098 0 0.00784314
0.117647 0.00392157 0.0156863
0.172549 0.00784314 0.0156863
0.239216 0.0196078 0.0313725
0.313725 0.0196078 0.0392157
0.4 0.027451 0.0588235
0.494118 0.0431373 0.0705882
0.580392 0.0509804 0.0745098
0.670588 0.0627451 0.0862745
0.737255 0.0745098 0.101961
0.8 0.0784314 0.109804
0.85098 0.0862745 0.109804
0.894118 0.0901961 0.117647
0.921569 0.0901961 0.113725
0.00392157 0.00392157 0.00392157
0.0196078 0.00392157 0
0.0431373 0.00392157 0
0.0784314 0.00784314 0.00784314
0.113725 0.0117647 0.0156863
0.176471 0.0196078 0.0235294
0.235294 0.0196078 0.0313725
0.309804 0.0352941 0.0431373
0.403922 0.0509804 0.0509804
0.486275 0.0627451 0.0627451
0.576471 0.0666667 0.0745098
0.666667 0.0823529 0.0862745
0.737255 0.0941176 0.0980392
0.796078 0.0941176 0.105882
0.847059 0.109804 0.113725
0.890196 0.113725 0.117647
0.921569 0.105882 0.117647
0 0.0196078 0.00392157
0.0156863 0.0117647 0.00392157
0.0470588 0.00784314 0.00392157
0.0745098 0.0117647 0.0117647
0.117647 0.0156863 0.0117647
0.172549 0.0352941 0.027451
0.231373 0.0431373 0.027451
0.305882 0.0588235 0.0392157
0.4 0.0745098 0.0509804
0.486275 0.0862745 0.0666667
0.580392 0.0980392 0.0705882
0.658824 0.105882 0.0784314
0.741176 0.117647 0.0941176
0.8 0.129412 0.101961
0.847059 0.137255 0.109804
0.886275 0.133333 0.113725
0.921569 0.133333 0.109804
0.00784314 0.054902 0.00784314
0.0196078 0.0509804 0.00784314
0.0470588 0.0470588 0.00784314
0.0745098 0.0470588 0.00784314
0.117647 0.054902 0.0117647
0.176471 0.0666667 0.0235294
0.239216 0.0823529 0.0352941
0.317647 0.0901961 0.0352941
0.396078 0.109804 0.0509804
0.490196 0.12549 0.0588235
0.580392 0.137255 0.0745098
0.666667 0.145098 0.0862745
0.741176 0.152941 0.0941176
0.796078 0.160784 0.101961
0.847059 0.168627 0.105882
0.890196 0.172549 0.117647
0.921569 0.172549 0.113725
0.00392157 0.101961 0.0156863
0.0235294 0.0980392 0.0117647
0.0470588 0.101961 0.0117647
0.0784314 0.0980392 0.0117647
0.121569 0.101961 0.0156863
0.172549 0.109804 0.0117647
0.239216 0.121569 0.027451
0.317647 0.137255 0.0431373
0.396078 0.156863 0.0470588
0.498039 0.168627 0.0666667
0.584314 0.176471 0.0784314
0.666667 0.192157 0.0862745
0.745098 0.196078 0.0901961
0.8 0.207843 0.101961
0.843137 0.211765 0.101961
0.886275 0.215686 0.113725
0.921569 0.215686 0.117647
0.00392157 0.168627 0.0196078
0.027451 0.168627 0.0196078
0.0470588 0.164706 0.0235294
0.0784314 0.164706 0.0156863
0.121569 0.168627 0.027451
0.176471 0.168627 0.0196078
0.239216 0.184314 0.0313725
0.309804 0.192157 0.0431373
0.4 0.207843 0.0509804
0.494118 0.223529 0.0627451
0.580392 0.235294 0.0784314
0.662745 0.247059 0.0901961
0.741176 0.258824 0.0980392
0.8 0.262745 0.0980392
0.85098 0.266667 0.109804
0.890196 0.27451 0.113725
0.921569 0.27451 0.113725
0.0156863 0.239216 0.0235294
0.0313725 0.239216 0.027451
0.0627451 0.235294 0.027451
0.0901961 0.243137 0.027451
0.12549 0.239216 0.0196078
0.184314 0.239216 0.027451
0.247059 0.243137 0.0313725
0.329412 0.25098 0.0431373
0.407843 0.270588 0.0588235
0.498039 0.282353 0.0627451
0.588235 0.294118 0.0705882
0.678431 0.305882 0.0941176
0.745098 0.317647 0.0980392
0.803922 0.321569 0.0980392
0.854902 0.32549 0.105882
0.894118 0.333333 0.113725
0.929412 0.333333 0.109804
0.027451 0.333333 0.0392157
0.0392157 0.329412 0.0352941
0.0627451 0.329412 0.0431373
0.0941176 0.329412 0.0392157
0.141176 0.329412 0.0392157
0.192157 0.333333 0.0431373
0.247059 0.32549 0.0431373
0.321569 0.337255 0.0470588
0.4 0.345098 0.0588235
0.501961 0.360784 0.0705882
0.584314 0.364706 0.0745098
0.670588 0.380392 0.0862745
0.74902 0.392157 0.105882
0.803922 0.396078 0.109804
0.858824 0.403922 0.117647
0.894118 0.407843 0.117647
0.92549 0.407843 0.117647
0.0352941 0.415686 0.0509804
0.0470588 0.415686 0.0470588
0.0666667 0.415686 0.0470588
0.105882 0.415686 0.054902
0.145098 0.415686 0.0509804
0.2 0.415686 0.0509804
0.254902 0.427451 0.054902
0.333333 0.431373 0.0627451
0.411765 0.427451 0.0588235
0.494118 0.427451 0.0666667
0.588235 0.443137 0.0862745
0.67451 0.45098 0.0980392
0.737255 0.458824 0.0980392
0.803922 0.470588 0.113725
0.854902 0.470588 0.113725
0.898039 0.47451 0.117647
0.92549 0.47451 0.117647
0.0392157 0.505882 0.0509804
0.0588235 0.505882 0.0588235
0.0784314 0.494118 0.0588235
0.113725 0.505882 0.0588235
0.152941 0.505882 0.0627451
0.203922 0.505882 0.0588235
0.266667 0.501961 0.0588235
0.341176 0.513725 0.0627451
0.423529 0.517647 0.0705882
0.501961 0.517647 0.0745098
0.588235 0.517647 0.0784314
0.678431 0.537255 0.0980392
0.74902 0.545098 0.105882
0.811765 0.552941 0.113725
0.85098 0.552941 0.121569
0.894118 0.556863 0.121569
0.933333 0.556863 0.121569
0.0509804 0.584314 0.0588235
0.0705882 0.580392 0.0627451
0.0901961 0.584314 0.0627451
0.121569 0.580392 0.0627451
0.168627 0.584314 0.0666667
0.219608 0.580392 0.0666667
0.282353 0.584314 0.0745098
0.34902 0.588235 0.0784314
0.431373 0.592157 0.0745098
0.517647 0.596078 0.0823529
0.6 0.6 0.0901961
0.682353 0.607843 0.0941176
0.756863 0.619608 0.109804
0.815686 0.623529 0.117647
0.858824 0.627451 0.117647
0.901961 0.631373 0.12549
0.937255 0.631373 0.12549
0.0666667 0.67451 0.0745098
0.0823529 0.666667 0.0705882
0.101961 0.666667 0.0784314
0.129412 0.666667 0.0784314
0.172549 0.670588 0.0784314
0.223529 0.67451 0.0784314
0.290196 0.678431 0.0823529
0.360784 0.67451 0.0901961
0.443137 0.678431 0.0901961
0.52549 0.682353 0.0901961
0.607843 0.686275 0.101961
0.690196 0.690196 0.109804
0.756863 0.701961 0.109804
0.811765 0.705882 0.121569
0.862745 0.705882 0.121569
0.905882 0.709804 0.133333
0.937255 0.705882 0.133333
0.0705882 0.737255 0.0823529
0.0862745 0.733333 0.0862745
0.109804 0.733333 0.0862745
0.141176 0.733333 0.0862745
0.180392 0.733333 0.0823529
0.235294 0.741176 0.0941176
0.294118 0.737255 0.0862745
0.364706 0.737255 0.0941176
0.447059 0.741176 0.101961
0.533333 0.74902 0.105882
0.611765 0.74902 0.105882
0.690196 0.756863 0.113725
0.760784 0.752941 0.117647
0.815686 0.764706 0.121569
0.866667 0.768627 0.133333
0.905882 0.768627 0.133333
0.937255 0.768627 0.133333
0.0784314 0.792157 0.0862745
0.101961 0.788235 0.0862745
0.12549 0.788235 0.0941176
0.145098 0.784314 0.0901961
0.192157 0.792157 0.0901961
0.247059 0.792157 0.0980392
0.309804 0.792157 0.0980392
0.372549 0.792157 0.0941176
0.45098 0.792157 0.0980392
0.537255 0.8 0.109804
0.619608 0.803922 0.113725
0.701961 0.807843 0.121569
0.768627 0.807843 0.121569
0.819608 0.811765 0.133333
0.866667 0.815686 0.129412
0.909804 0.819608 0.137255
0.937255 0.815686 0.137255
0.0745098 0.831373 0.0901961
0.101961 0.831373 0.0901961
0.121569 0.831373 0.0901961
0.152941 0.831373 0.0941176
0.196078 0.835294 0.101961
0.25098 0.835294 0.0980392
0.305882 0.835294 0.0980392
0.380392 0.835294 0.101961
0.462745 0.839216 0.109804
0.545098 0.843137 0.113725
0.615686 0.847059 0.117647
0.698039 0.85098 0.117647
0.764706 0.85098 0.121569
0.823529 0.854902 0.133333
0.866667 0.862745 0.133333
0.909804 0.854902 0.129412
0.941176 0.854902 0.133333
0.0823529 0.87451 0.0980392
0.105882 0.878431 0.0901961
0.12549 0.870588 0.0941176
0.160784 0.87451 0.0941176
0.2 0.87451 0.0980392
0.258824 0.878431 0.0980392
0.309804 0.878431 0.0980392
0.384314 0.878431 0.109804
0.466667 0.882353 0.105882
0.54902 0.886275 0.121569
0.627451 0.886275 0.12549
0.701961 0.886275 0.12549
0.768627 0.894118 0.129412
0.827451 0.898039 0.129412
0.87451 0.901961 0.141176
0.913725 0.905882 0.137255
0.94902 0.901961 0.141176
0.0862745 0.901961 0.0980392
0.105882 0.898039 0.0901961
0.12549 0.901961 0.0941176
0.160784 0.901961 0.0941176
0.196078 0.905882 0.0980392
0.254902 0.909804 0.0980392
0.309804 0.905882 0.0980392
0.380392 0.909804 0.105882
0.466667 0.913725 0.109804
0.54902 0.913725 0.121569
0.627451 0.917647 0.121569
0.705882 0.921569 0.12549
0.768627 0.929412 0.129412
0.823529 0.92549 0.129412
0.87451 0.92549 0.141176
0.913725 0.92549 0.137255
0.941176 0.92549 0.141176
0 0.00392157 0.0196078
0.0117647 0.00392157 0.0156863
0.0431373 0 0.0235294
0.0745098 0 0.0156863
0.121569 0.00392157 0.0352941
0.168627 0.00784314 0.0392157
0.235294 0.0156863 0.0509804
0.305882 0.0196078 0.0627451
0.396078 0.0313725 0.0745098
0.490196 0.0392157 0.0901961
0.576471 0.0509804 0.0941176
0.666667 0.0627451 0.109804
0.737255 0.0705882 0.121569
0.8 0.0745098 0.129412
0.85098 0.0862745 0.137255
0.890196 0.0901961 0.137255
0.92549 0.0901961 0.137255
0 0.00392157 0.0117647
0.0235294 0.00392157 0.0196078
0.0470588 0.00392157 0.0196078
0.0705882 0.00784314 0.0196078
0.113725 0.00784314 0.027451
0.172549 0.0196078 0.0392157
0.243137 0.027451 0.0509804
0.321569 0.0352941 0.0627451
0.4 0.0470588 0.0823529
0.486275 0.0588235 0.0823529
0.584314 0.0705882 0.101961
0.670588 0.0823529 0.117647
0.741176 0.0941176 0.121569
0.796078 0.101961 0.133333
0.847059 0.105882 0.133333
0.890196 0.109804 0.137255
0.917647 0.109804 0.137255
0 0.0156863 0.0117647
0.0196078 0.0117647 0.0156863
0.0431373 0.00784314 0.0117647
0.0745098 0.0117647 0.0156863
0.117647 0.0196078 0.0313725
0.168627 0.027451 0.0352941
0.239216 0.0431373 0.0470588
0.313725 0.054902 0.0588235
0.403922 0.0745098 0.0745098
0.494118 0.0941176 0.0862745
0.580392 0.0941176 0.0941176
0.670588 0.113725 0.109804
0.737255 0.117647 0.113725
0.792157 0.12549 0.12549
0.847059 0.133333 0.129412
0.890196 0.133333 0.137255
0.917647 0.133333 0.141176
0 0.0627451 0.0196078
0.0196078 0.0588235 0.0156863
0.0392157 0.0509804 0.0156863
0.0666667 0.0470588 0.0235294
0.121569 0.054902 0.027451
0.172549 0.0666667 0.0392157
0.239216 0.0823529 0.0509804
0.305882 0.0941176 0.054902
0.396078 0.109804 0.0745098
0.490196 0.129412 0.0862745
0.576471 0.133333 0.101961
0.662745 0.14902 0.109804
0.733333 0.152941 0.113725
0.796078 0.164706 0.12549
0.847059 0.172549 0.133333
0.890196 0.172549 0.141176
0.921569 0.168627 0.141176
0 0.109804 0.0235294
0.0196078 0.105882 0.0235294
0.0431373 0.101961 0.0196078
0.0823529 0.0980392 0.0313725
0.121569 0.101961 0.027451
0.176471 0.109804 0.0313725
0.247059 0.12549 0.0470588
0.32549 0.141176 0.0627451
0.4 0.156863 0.0745098
0.490196 0.168627 0.0862745
0.588235 0.176471 0.0941176
0.670588 0.192157 0.109804
0.745098 0.2 0.12549
0.8 0.2 0.129412
0.847059 0.211765 0.129412
0.890196 0.215686 0.129412
0.921569 0.219608 0.133333
0.00784314 0.172549 0.0313725
0.0235294 0.160784 0.0313725
0.0470588 0.168627 0.0352941
0.0823529 0.164706 0.0352941
0.121569 0.164706 0.0313725
0.180392 0.168627 0.0392157
0.239216 0.180392 0.0509804
0.313725 0.192157 0.0627451
0.403922 0.211765 0.0823529
0.494118 0.227451 0.0901961
0.584314 0.235294 0.101961
0.670588 0.243137 0.113725
0.741176 0.254902 0.121569
0.8 0.262745 0.121569
0.854902 0.266667 0.137255
0.890196 0.266667 0.141176
0.92549 0.270588 0.141176
0.0117647 0.239216 0.0392157
0.0313725 0.235294 0.0431373
0.054902 0.243137 0.0470588
0.0862745 0.235294 0.0352941
0.129412 0.239216 0.0470588
0.184314 0.239216 0.0470588
0.243137 0.239216 0.0509804
0.321569 0.258824 0.0588235
0.4 0.266667 0.0745098
0.490196 0.282353 0.0862745
0.580392 0.290196 0.0980392
0.666667 0.305882 0.105882
0.737255 0.313725 0.121569
0.8 0.321569 0.129412
0.85098 0.321569 0.133333
0.890196 0.333333 0.137255
0.92549 0.333333 0.137255
0.0156863 0.329412 0.0509804
0.0431373 0.329412 0.0509804
0.0666667 0.329412 0.0509804
0.0980392 0.329412 0.0627451
0.145098 0.329412 0.0627451
0.192157 0.317647 0.054902
0.25098 0.32549 0.0666667
0.333333 0.337255 0.0705882
0.411765 0.352941 0.0823529
0.505882 0.360784 0.0941176
0.588235 0.364706 0.101961
0.678431 0.384314 0.117647
0.74902 0.388235 0.12549
0.803922 0.392157 0.133333
0.847059 0.396078 0.133333
0.894118 0.403922 0.141176
0.92549 0.403922 0.141176
0.0313725 0.419608 0.0666667
0.0470588 0.419608 0.0666667
0.0666667 0.411765 0.0705882
0.101961 0.415686 0.0745098
0.145098 0.411765 0.0705882
0.2 0.415686 0.0745098
0.270588 0.427451 0.0784314
0.329412 0.415686 0.0823529
0.411765 0.427451 0.0862745
0.494118 0.431373 0.0901961
0.588235 0.439216 0.105882
0.67451 0.447059 0.117647
0.745098 0.462745 0.129412
0.807843 0.470588 0.137255
0.858824 0.470588 0.137255
0.894118 0.478431 0.141176
0.929412 0.478431 0.141176
0.0431373 0.505882 0.0745098
0.0588235 0.505882 0.0705882
0.0784314 0.501961 0.0745098
0.117647 0.505882 0.0823529
0.156863 0.505882 0.0823529
0.207843 0.513725 0.0862745
0.262745 0.505882 0.0862745
0.341176 0.509804 0.0901961
0.415686 0.517647 0.0901961
0.501961 0.513725 0.0941176
0.592157 0.52549 0.101961
0.682353 0.537255 0.121569
0.752941 0.545098 0.137255
0.8 0.54902 0.133333
0.854902 0.552941 0.145098
0.898039 0.556863 0.145098
0.929412 0.552941 0.145098
0.0509804 0.588235 0.0784314
0.0588235 0.580392 0.0784314
0.0862745 0.580392 0.0862745
0.12549 0.580392 0.0901961
0.168627 0.584314 0.0901961
0.219608 0.592157 0.0980392
0.278431 0.588235 0.0901961
0.345098 0.588235 0.0901961
0.431373 0.596078 0.101961
0.517647 0.596078 0.105882
0.592157 0.6 0.109804
0.67451 0.615686 0.12549
0.752941 0.619608 0.133333
0.811765 0.623529 0.137255
0.858824 0.631373 0.141176
0.898039 0.631373 0.14902
0.933333 0.627451 0.14902
0.0588235 0.67451 0.0901961
0.0862745 0.67451 0.0901961
0.101961 0.662745 0.0980392
0.129412 0.662745 0.0980392
0.176471 0.670588 0.105882
0.231373 0.670588 0.105882
0.294118 0.678431 0.109804
0.364706 0.67451 0.105882
0.447059 0.678431 0.113725
0.529412 0.682353 0.113725
0.611765 0.686275 0.129412
0.694118 0.690196 0.12549
0.760784 0.701961 0.141176
0.811765 0.701961 0.141176
0.866667 0.705882 0.14902
0.909804 0.709804 0.156863
0.937255 0.709804 0.156863
0.0705882 0.741176 0.0980392
0.0862745 0.733333 0.0980392
0.109804 0.729412 0.105882
0.141176 0.733333 0.105882
0.184314 0.733333 0.109804
0.235294 0.737255 0.113725
0.298039 0.737255 0.109804
0.368627 0.737255 0.113725
0.447059 0.737255 0.113725
0.533333 0.745098 0.117647
0.615686 0.74902 0.12549
0.690196 0.752941 0.133333
0.756863 0.756863 0.137255
0.819608 0.768627 0.14902
0.866667 0.764706 0.14902
0.901961 0.764706 0.152941
0.941176 0.764706 0.156863
0.0745098 0.796078 0.105882
0.0941176 0.792157 0.109804
0.117647 0.788235 0.105882
0.145098 0.788235 0.113725
0.192157 0.788235 0.117647
0.243137 0.796078 0.113725
0.309804 0.796078 0.121569
0.372549 0.796078 0.121569
0.45098 0.796078 0.121569
0.537255 0.803922 0.133333
0.619608 0.807843 0.141176
0.694118 0.807843 0.141176
0.764706 0.811765 0.145098
0.819608 0.811765 0.145098
0.866667 0.819608 0.152941
0.909804 0.819608 0.160784
0.941176 0.815686 0.160784
0.0784314 0.831373 0.109804
0.0941176 0.831373 0.113725
0.12549 0.831373 0.113725
0.156863 0.831373 0.117647
0.192157 0.835294 0.117647
0.247059 0.835294 0.117647
0.313725 0.839216 0.129412
0.388235 0.831373 0.121569
0.462745 0.835294 0.129412
0.537255 0.843137 0.137255
0.623529 0.85098 0.137255
0.701961 0.85098 0.141176
0.768627 0.85098 0.145098
0.823529 0.85098 0.152941
0.870588 0.862745 0.160784
0.909804 0.862745 0.156863
0.941176 0.862745 0.156863
0.0862745 0.878431 0.109804
0.101961 0.87451 0.113725
0.12549 0.87451 0.121569
0.152941 0.87451 0.113725
0.203922 0.87451 0.121569
0.258824 0.87451 0.12549
0.309804 0.878431 0.121569
0.388235 0.878431 0.133333
0.462745 0.882353 0.137255
0.552941 0.886275 0.137255
0.631373 0.886275 0.141176
0.705882 0.890196 0.145098
0.772549 0.894118 0.152941
0.823529 0.898039 0.160784
0.87451 0.898039 0.160784
0.913725 0.901961 0.160784
0.941176 0.901961 0.160784
0.0862745 0.905882 0.109804
0.101961 0.901961 0.113725
0.12549 0.901961 0.117647
0.152941 0.901961 0.117647
0.203922 0.909804 0.121569
0.25098 0.901961 0.117647
0.313725 0.913725 0.121569
0.392157 0.909804 0.133333
0.466667 0.913725 0.129412
0.552941 0.909804 0.137255
0.627451 0.913725 0.141176
0.709804 0.921569 0.145098
0.776471 0.92549 0.152941
0.823529 0.92549 0.156863
0.87451 0.929412 0.160784
0.913725 0.92549 0.160784
0.941176 0.92549 0.160784
0.00392157 0.00392157 0.0509804
0.0196078 0.00784314 0.0509804
0.0431373 0 0.054902
0.0745098 0.00392157 0.0509804
0.113725 0.00392157 0.0588235
