luts/CineMagic_NT_Film2P.cube
#Generated by Picture Instruments - Unlimited Filters
TITLE "CineMagic NT Film2P"
LUT_3D_SIZE 5
0 0 0
0.121569 0.00392157 0.00392157
0.4 0.027451 0.0352941
0.737255 0.0705882 0.0745098
0.921569 0.0901961 0.0980392
0.00392157 0.105882 0.00784314
0.121569 0.105882 0.00784314
0.4 0.152941 0.0313725
0.741176 0.196078 0.0745098
0.921569 0.215686 0.0941176
0.0313725 0.415686 0.027451
0.141176 0.415686 0.027451
0.407843 0.423529 0.0431373
0.745098 0.470588 0.0862745
0.929412 0.47451 0.0980392
0.0745098 0.729412 0.0705882
0.184314 0.733333 0.0705882
0.454902 0.741176 0.0784314
0.760784 0.756863 0.105882
0.941176 0.768627 0.121569
0.0862745 0.905882 0.0862745
0.203922 0.905882 0.0862745
0.470588 0.913725 0.0980392
0.768627 0.921569 0.117647
0.945098 0.929412 0.12549
0.00392157 0.00784314 0.0862745
0.117647 0.00784314 0.0941176
0.4 0.0313725 0.137255
0.741176 0.0745098 0.188235
0.92549 0.0901961 0.207843
0.00784314 0.117647 0.0627451
0.117647 0.101961 0.0901961
0.403922 0.156863 0.137255
0.741176 0.203922 0.180392
0.92549 0.215686 0.203922
0.027451 0.423529 0.109804
0.145098 0.427451 0.141176
0.415686 0.427451 0.14902
0.752941 0.466667 0.196078
0.929412 0.482353 0.207843
0.0705882 0.737255 0.145098
0.180392 0.737255 0.172549
0.447059 0.741176 0.184314
0.760784 0.756863 0.207843
0.941176 0.768627 0.215686
0.0823529 0.901961 0.156863
0.2 0.905882 0.180392
0.466667 0.913725 0.2
0.768627 0.921569 0.211765
0.945098 0.929412 0.231373
0.00784314 0.0431373 0.313725
0.105882 0.0352941 0.32549
0.419608 0.0470588 0.364706
0.756863 0.0941176 0.419608
0.929412 0.109804 0.427451
0.0156863 0.168627 0.290196
0.101961 0.160784 0.313725
0.419608 0.168627 0.364706
0.756863 0.215686 0.403922
0.929412 0.235294 0.419608
0.0392157 0.447059 0.301961
0.121569 0.439216 0.313725
0.431373 0.443137 0.368627
0.760784 0.482353 0.411765
0.937255 0.498039 0.423529
0.0745098 0.74902 0.317647
0.156863 0.74902 0.345098
0.466667 0.756863 0.407843
0.772549 0.768627 0.415686
0.94902 0.776471 0.431373
0.0901961 0.901961 0.341176
0.172549 0.905882 0.356863
0.482353 0.92549 0.411765
0.784314 0.937255 0.423529
0.956863 0.941176 0.447059
0.027451 0.0980392 0.6
0.0862745 0.0784314 0.6
0.407843 0.0823529 0.631373
0.776471 0.12549 0.690196
0.952941 0.141176 0.701961
0.0313725 0.223529 0.588235
0.101961 0.211765 0.6
0.419608 0.219608 0.631373
0.772549 0.25098 0.678431
0.956863 0.266667 0.694118
0.054902 0.486275 0.584314
0.117647 0.47451 0.596078
0.423529 0.47451 0.639216
0.784314 0.505882 0.670588
0.956863 0.521569 0.690196
0.0941176 0.772549 0.592157
0.141176 0.764706 0.607843
0.419608 0.772549 0.635294
0.803922 0.835294 0.752941
0.972549 0.839216 0.756863
0.105882 0.917647 0.6
0.156863 0.917647 0.615686
0.435294 0.929412 0.647059
0.811765 0.956863 0.74902
0.972549 0.960784 0.756863
0.0431373 0.121569 0.792157
0.0823529 0.105882 0.796078
0.396078 0.105882 0.819608
0.776471 0.14902 0.858824
0.960784 0.160784 0.87451
0.0470588 0.254902 0.796078
0.0941176 0.243137 0.792157
0.407843 0.243137 0.815686
0.784314 0.278431 0.854902
0.960784 0.286275 0.866667
0.0705882 0.509804 0.8
0.105882 0.498039 0.792157
0.415686 0.498039 0.819608
0.792157 0.529412 0.862745
0.972549 0.54902 0.870588
0.109804 0.780392 0.807843
0.133333 0.776471 0.811765
0.396078 0.780392 0.827451
0.811765 0.862745 0.898039
0.980392 0.870588 0.913725
0.117647 0.921569 0.811765
0.14902 0.92549 0.819608
0.392157 0.929412 0.827451
0.807843 0.968627 0.898039
0.984314 0.976471 0.921569
