luts/CineMagic_NT_Film2P.cube
#Generated by Picture Instruments - Unlimited Filters
TITLE "CineMagic NT Film2P"
LUT_3D_SIZE 9
0 0 0
0.0392157 0 0.00392157
0.121569 0.00392157 0.00392157
0.235294 0.0156863 0.0196078
0.4 0.027451 0.0352941
0.576471 0.0509804 0.054902
0.737255 0.0705882 0.0745098
0.847059 0.0862745 0.0901961
0.921569 0.0901961 0.0980392
0.00392157 0.0117647 0
0.0470588 0.00784314 0.00392157
0.117647 0.0196078 0.00392157
0.235294 0.0431373 0.0235294
0.4 0.0784314 0.0352941
0.580392 0.101961 0.0588235
0.737255 0.117647 0.0745098
0.847059 0.133333 0.0901961
0.921569 0.137255 0.0941176
0.00392157 0.105882 0.00784314
0.0470588 0.101961 0.00392157
0.121569 0.105882 0.00784314
0.239216 0.121569 0.0196078
0.4 0.152941 0.0313725
0.572549 0.180392 0.054902
0.741176 0.196078 0.0745098
0.843137 0.215686 0.0901961
0.921569 0.215686 0.0941176
0.0117647 0.239216 0.0117647
0.054902 0.231373 0.0156863
0.129412 0.243137 0.0156863
0.247059 0.243137 0.0235294
0.407843 0.270588 0.0431373
0.584314 0.294118 0.054902
0.745098 0.313725 0.0823529
0.85098 0.32549 0.0862745
0.921569 0.333333 0.0980392
0.0313725 0.415686 0.027451
0.0666667 0.419608 0.027451
0.141176 0.415686 0.027451
0.254902 0.431373 0.0352941
0.407843 0.423529 0.0431373
0.584314 0.443137 0.0627451
0.745098 0.470588 0.0862745
0.854902 0.47451 0.0941176
0.929412 0.47451 0.0980392
0.0470588 0.580392 0.0470588
0.0901961 0.580392 0.0470588
0.164706 0.580392 0.0470588
0.278431 0.584314 0.0509804
0.431373 0.588235 0.0588235
0.6 0.6 0.0745098
0.752941 0.615686 0.0941176
0.854902 0.627451 0.101961
0.933333 0.631373 0.105882
0.0745098 0.729412 0.0705882
0.113725 0.729412 0.0745098
0.184314 0.733333 0.0705882
0.298039 0.733333 0.0784314
0.454902 0.741176 0.0784314
0.619608 0.74902 0.0941176
0.760784 0.756863 0.105882
0.870588 0.764706 0.117647
0.941176 0.768627 0.121569
0.0745098 0.835294 0.0784314
0.121569 0.831373 0.0823529
0.196078 0.839216 0.0823529
0.305882 0.835294 0.0862745
0.458824 0.839216 0.0901961
0.615686 0.847059 0.101961
0.768627 0.85098 0.109804
0.862745 0.858824 0.117647
0.937255 0.858824 0.12549
0.0862745 0.905882 0.0862745
0.12549 0.901961 0.0823529
0.203922 0.905882 0.0862745
0.305882 0.905882 0.0862745
0.470588 0.913725 0.0980392
0.627451 0.917647 0.109804
0.768627 0.921569 0.117647
0.87451 0.929412 0.12549
0.945098 0.929412 0.12549
0 0.00392157 0.0196078
0.0431373 0 0.0235294
0.121569 0.00392157 0.0352941
0.235294 0.0156863 0.0509804
0.396078 0.0313725 0.0745098
0.576471 0.0509804 0.0941176
0.737255 0.0705882 0.121569
0.85098 0.0862745 0.137255
0.92549 0.0901961 0.137255
0 0.0156863 0.0117647
0.0431373 0.00784314 0.0117647
0.117647 0.0196078 0.0313725
0.239216 0.0431373 0.0470588
0.403922 0.0745098 0.0745098
0.580392 0.0941176 0.0941176
0.737255 0.117647 0.113725
0.847059 0.133333 0.129412
0.917647 0.133333 0.141176
0 0.109804 0.0235294
0.0431373 0.101961 0.0196078
0.121569 0.101961 0.027451
0.247059 0.12549 0.0470588
0.4 0.156863 0.0745098
0.588235 0.176471 0.0941176
0.745098 0.2 0.12549
0.847059 0.211765 0.129412
0.921569 0.219608 0.133333
0.0117647 0.239216 0.0392157
0.054902 0.243137 0.0470588
0.129412 0.239216 0.0470588
0.243137 0.239216 0.0509804
0.4 0.266667 0.0745098
0.580392 0.290196 0.0980392
0.737255 0.313725 0.121569
0.85098 0.321569 0.133333
0.92549 0.333333 0.137255
0.0313725 0.419608 0.0666667
0.0666667 0.411765 0.0705882
0.145098 0.411765 0.0705882
0.270588 0.427451 0.0784314
0.411765 0.427451 0.0862745
0.588235 0.439216 0.105882
0.745098 0.462745 0.129412
0.858824 0.470588 0.137255
0.929412 0.478431 0.141176
0.0509804 0.588235 0.0784314
0.0862745 0.580392 0.0862745
0.168627 0.584314 0.0901961
0.278431 0.588235 0.0901961
0.431373 0.596078 0.101961
0.592157 0.6 0.109804
0.752941 0.619608 0.133333
0.858824 0.631373 0.141176
0.933333 0.627451 0.14902
0.0705882 0.741176 0.0980392
0.109804 0.729412 0.105882
0.184314 0.733333 0.109804
0.298039 0.737255 0.109804
0.447059 0.737255 0.113725
0.615686 0.74902 0.12549
0.756863 0.756863 0.137255
0.866667 0.764706 0.14902
0.941176 0.764706 0.156863
0.0784314 0.831373 0.109804
0.12549 0.831373 0.113725
0.192157 0.835294 0.117647
0.313725 0.839216 0.129412
0.462745 0.835294 0.129412
0.623529 0.85098 0.137255
0.768627 0.85098 0.145098
0.870588 0.862745 0.160784
0.941176 0.862745 0.156863
0.0862745 0.905882 0.109804
0.12549 0.901961 0.117647
0.203922 0.909804 0.121569
0.313725 0.913725 0.121569
0.466667 0.913725 0.129412
0.627451 0.913725 0.141176
0.776471 0.92549 0.152941
0.87451 0.929412 0.160784
0.941176 0.92549 0.160784
0.00392157 0.00784314 0.0862745
0.0392157 0.00784314 0.0901961
0.117647 0.00784314 0.0941176
0.235294 0.0156863 0.113725
0.4 0.0313725 0.137255
0.576471 0.054902 0.168627
0.741176 0.0745098 0.188235
0.847059 0.0823529 0.2
0.92549 0.0901961 0.207843
0 0.0313725 0.0666667
0.0392157 0.0313725 0.0862745
0.113725 0.0235294 0.0941176
0.235294 0.0470588 0.109804
0.396078 0.0784314 0.137255
0.580392 0.101961 0.160784
0.741176 0.12549 0.192157
0.843137 0.133333 0.2
0.92549 0.137255 0.2
0.00784314 0.117647 0.0627451
0.0431373 0.109804 0.0705882
0.117647 0.101961 0.0901961
0.243137 0.12549 0.117647
0.403922 0.156863 0.137255
0.584314 0.176471 0.164706
0.741176 0.203922 0.180392
0.85098 0.215686 0.196078
0.92549 0.215686 0.203922
0.0156863 0.254902 0.0901961
0.0509804 0.25098 0.0901961
0.129412 0.247059 0.113725
0.243137 0.243137 0.109804
0.411765 0.27451 0.14902
0.592157 0.298039 0.172549
0.74902 0.317647 0.188235
0.854902 0.32549 0.2
0.921569 0.333333 0.203922
0.027451 0.423529 0.109804
0.0666667 0.423529 0.113725
0.145098 0.427451 0.141176
0.262745 0.419608 0.141176
0.415686 0.427451 0.14902
0.592157 0.447059 0.172549
0.752941 0.466667 0.196078
0.854902 0.47451 0.203922
0.929412 0.482353 0.207843
0.0509804 0.592157 0.12549
0.0862745 0.588235 0.145098
0.164706 0.588235 0.152941
0.286275 0.592157 0.160784
0.435294 0.6 0.168627
0.596078 0.603922 0.176471
0.764706 0.619608 0.203922
0.858824 0.631373 0.207843
0.937255 0.635294 0.223529
0.0705882 0.737255 0.145098
0.113725 0.741176 0.160784
0.180392 0.737255 0.172549
0.301961 0.741176 0.176471
0.447059 0.741176 0.184314
0.619608 0.756863 0.192157
0.760784 0.756863 0.207843
0.862745 0.760784 0.215686
0.941176 0.768627 0.215686
0.0823529 0.835294 0.152941
0.121569 0.835294 0.164706
0.196078 0.835294 0.180392
0.313725 0.831373 0.188235
0.462745 0.843137 0.188235
0.627451 0.847059 0.207843
0.768627 0.854902 0.215686
0.870588 0.858824 0.219608
0.945098 0.862745 0.223529
0.0823529 0.901961 0.156863
0.121569 0.909804 0.164706
0.2 0.905882 0.180392
0.317647 0.909804 0.192157
0.466667 0.913725 0.2
0.627451 0.917647 0.207843
0.768627 0.921569 0.211765
0.870588 0.929412 0.227451
0.945098 0.929412 0.231373
0.00784314 0.0196078 0.180392
0.0313725 0.0196078 0.192157
0.105882 0.0156863 0.196078
0.25098 0.0235294 0.219608
0.407843 0.0392157 0.243137
0.588235 0.0627451 0.270588
0.741176 0.0823529 0.286275
0.85098 0.0980392 0.298039
0.929412 0.0980392 0.301961
0.00784314 0.0627451 0.176471
0.0392157 0.0588235 0.184314
0.105882 0.0470588 0.2
0.239216 0.0509804 0.207843
0.407843 0.0862745 0.243137
0.588235 0.109804 0.262745
0.741176 0.129412 0.282353
0.854902 0.141176 0.298039
0.929412 0.145098 0.301961
0.00784314 0.137255 0.164706
0.0392157 0.129412 0.160784
0.105882 0.129412 0.184314
0.243137 0.129412 0.207843
0.403922 0.164706 0.235294
0.584314 0.184314 0.266667
0.74902 0.211765 0.282353
0.854902 0.223529 0.294118
0.92549 0.223529 0.301961
0.0196078 0.266667 0.160784
0.0509804 0.262745 0.172549
0.117647 0.25098 0.184314
0.247059 0.25098 0.211765
0.411765 0.278431 0.243137
0.588235 0.301961 0.266667
0.74902 0.32549 0.286275
0.85098 0.333333 0.286275
0.929412 0.337255 0.298039
0.0352941 0.435294 0.188235
0.0666667 0.435294 0.2
0.133333 0.423529 0.215686
0.27451 0.427451 0.243137
0.419608 0.427451 0.243137
0.6 0.458824 0.270588
0.752941 0.470588 0.282353
0.862745 0.486275 0.298039
0.937255 0.486275 0.305882
0.0509804 0.596078 0.203922
0.0862745 0.596078 0.211765
0.152941 0.6 0.227451
0.290196 0.596078 0.258824
0.443137 0.6 0.262745
0.6 0.607843 0.278431
0.760784 0.623529 0.294118
0.870588 0.631373 0.305882
0.937255 0.639216 0.313725
0.0745098 0.741176 0.219608
0.101961 0.745098 0.231373
0.168627 0.741176 0.25098
0.305882 0.741176 0.270588
0.458824 0.745098 0.282353
0.627451 0.760784 0.286275
0.764706 0.760784 0.298039
0.87451 0.768627 0.309804
0.945098 0.772549 0.313725
0.0862745 0.835294 0.227451
0.113725 0.839216 0.231373
0.184314 0.839216 0.254902
0.309804 0.843137 0.286275
0.466667 0.847059 0.290196
0.627451 0.85098 0.298039
0.772549 0.862745 0.301961
0.87451 0.862745 0.317647
0.945098 0.862745 0.317647
0.0862745 0.905882 0.235294
0.117647 0.905882 0.239216
0.180392 0.905882 0.258824
0.321569 0.913725 0.286275
0.470588 0.913725 0.294118
0.635294 0.921569 0.301961
0.772549 0.929412 0.309804
0.878431 0.937255 0.321569
0.94902 0.929412 0.321569
0.00784314 0.0431373 0.313725
0.0352941 0.0470588 0.32549
0.105882 0.0352941 0.32549
0.239216 0.0392157 0.333333
0.419608 0.0470588 0.364706
0.592157 0.0705882 0.388235
0.756863 0.0941176 0.419608
0.858824 0.101961 0.419608
0.929412 0.109804 0.427451
0.00784314 0.0901961 0.298039
0.0352941 0.0823529 0.309804
0.0980392 0.0784314 0.329412
0.239216 0.0784314 0.337255
0.415686 0.0901961 0.372549
0.6 0.117647 0.380392
0.752941 0.137255 0.407843
0.854902 0.152941 0.411765
0.933333 0.152941 0.419608
0.0156863 0.168627 0.290196
0.0470588 0.164706 0.305882
0.101961 0.160784 0.313725
0.243137 0.156863 0.341176
0.419608 0.168627 0.364706
0.596078 0.196078 0.384314
0.756863 0.215686 0.403922
0.858824 0.231373 0.419608
0.929412 0.235294 0.419608
0.027451 0.286275 0.282353
0.0509804 0.282353 0.298039
0.105882 0.27451 0.298039
0.243137 0.282353 0.329412
0.415686 0.286275 0.360784
0.603922 0.317647 0.384314
0.752941 0.333333 0.403922
0.862745 0.34902 0.411765
0.929412 0.34902 0.423529
0.0392157 0.447059 0.301961
0.0666667 0.447059 0.301961
0.121569 0.439216 0.313725
0.243137 0.439216 0.333333
0.431373 0.443137 0.368627
0.607843 0.462745 0.392157
0.760784 0.482353 0.411765
0.870588 0.498039 0.427451
0.937255 0.498039 0.423529
0.0627451 0.603922 0.301961
0.0823529 0.607843 0.329412
0.145098 0.603922 0.329412
0.254902 0.6 0.360784
0.45098 0.603922 0.380392
0.615686 0.619608 0.392157
0.768627 0.631373 0.419608
0.87451 0.643137 0.423529
0.941176 0.639216 0.423529
0.0745098 0.74902 0.317647
0.0980392 0.745098 0.333333
0.156863 0.74902 0.345098
0.278431 0.74902 0.368627
0.466667 0.756863 0.407843
0.627451 0.764706 0.403922
0.772549 0.768627 0.415686
0.87451 0.772549 0.427451
0.94902 0.776471 0.431373
0.0901961 0.839216 0.333333
0.113725 0.839216 0.341176
0.172549 0.839216 0.356863
0.282353 0.843137 0.380392
0.470588 0.85098 0.4
0.635294 0.858824 0.415686
0.776471 0.866667 0.419608
0.878431 0.866667 0.423529
0.952941 0.870588 0.431373
0.0901961 0.901961 0.341176
0.117647 0.909804 0.34902
0.172549 0.905882 0.356863
0.294118 0.913725 0.380392
0.482353 0.92549 0.411765
0.643137 0.92549 0.427451
0.784314 0.937255 0.423529
0.882353 0.941176 0.439216
0.956863 0.941176 0.447059
0.0156863 0.0666667 0.45098
0.0392157 0.0705882 0.466667
0.0980392 0.054902 0.454902
0.227451 0.0588235 0.482353
0.423529 0.0745098 0.505882
0.607843 0.0901961 0.529412
0.760784 0.109804 0.54902
0.870588 0.117647 0.552941
0.945098 0.121569 0.564706
0.0196078 0.121569 0.45098
0.0352941 0.113725 0.454902
0.0901961 0.105882 0.462745
0.239216 0.105882 0.478431
0.419608 0.113725 0.509804
0.611765 0.133333 0.521569
0.764706 0.152941 0.541176
0.870588 0.168627 0.560784
0.945098 0.168627 0.556863
0.0235294 0.203922 0.439216
0.0470588 0.196078 0.443137
0.0980392 0.188235 0.454902
0.235294 0.188235 0.478431
0.419608 0.196078 0.498039
0.607843 0.211765 0.52549
0.768627 0.231373 0.537255
0.866667 0.247059 0.54902
0.941176 0.25098 0.552941
0.027451 0.317647 0.431373
0.054902 0.305882 0.443137
0.101961 0.305882 0.458824
0.235294 0.301961 0.47451
0.423529 0.313725 0.505882
0.611765 0.321569 0.513725
0.764706 0.34902 0.537255
0.878431 0.360784 0.552941
0.94902 0.360784 0.552941
0.0470588 0.466667 0.435294
0.0666667 0.462745 0.439216
0.113725 0.470588 0.45098
0.219608 0.45098 0.466667
0.427451 0.466667 0.501961
0.615686 0.47451 0.521569
0.768627 0.501961 0.545098
0.870588 0.505882 0.54902
0.945098 0.505882 0.560784
0.0627451 0.619608 0.431373
0.0862745 0.615686 0.447059
0.133333 0.611765 0.458824
0.231373 0.611765 0.47451
0.427451 0.619608 0.501961
0.631373 0.647059 0.556863
0.776471 0.666667 0.580392
0.882353 0.670588 0.576471
0.952941 0.67451 0.580392
0.0823529 0.760784 0.45098
0.105882 0.756863 0.458824
0.145098 0.74902 0.47451
0.25098 0.756863 0.494118
0.447059 0.760784 0.521569
0.643137 0.780392 0.560784
0.784314 0.784314 0.572549
0.890196 0.8 0.588235
0.956863 0.792157 0.576471
0.0941176 0.847059 0.458824
0.117647 0.847059 0.458824
0.156863 0.843137 0.470588
0.254902 0.843137 0.490196
0.454902 0.854902 0.52549
0.65098 0.87451 0.572549
0.788235 0.878431 0.564706
0.890196 0.878431 0.576471
0.960784 0.878431 0.580392
0.0980392 0.909804 0.462745
0.121569 0.913725 0.466667
0.164706 0.909804 0.482353
0.262745 0.917647 0.494118
0.454902 0.92549 0.52549
0.654902 0.937255 0.576471
0.788235 0.941176 0.568627
0.894118 0.94902 0.584314
0.960784 0.945098 0.588235
0.027451 0.0980392 0.6
0.0392157 0.0901961 0.603922
0.0862745 0.0784314 0.6
0.223529 0.0823529 0.615686
0.407843 0.0823529 0.631373
0.611765 0.105882 0.670588
0.776471 0.12549 0.690196
0.878431 0.137255 0.694118
0.952941 0.141176 0.701961
0.027451 0.145098 0.592157
0.0470588 0.133333 0.6
0.0901961 0.129412 0.603922
0.223529 0.121569 0.611765
0.411765 0.133333 0.635294
0.615686 0.156863 0.666667
0.776471 0.172549 0.682353
0.878431 0.184314 0.694118
0.952941 0.188235 0.690196
0.0313725 0.223529 0.588235
0.0470588 0.215686 0.584314
0.101961 0.211765 0.6
0.231373 0.203922 0.611765
0.419608 0.219608 0.631373
0.615686 0.227451 0.654902
0.772549 0.25098 0.678431
0.878431 0.258824 0.690196
0.956863 0.266667 0.694118
0.0470588 0.337255 0.576471
0.0588235 0.329412 0.592157
0.0980392 0.321569 0.592157
0.227451 0.321569 0.603922
0.411765 0.329412 0.631373
0.615686 0.345098 0.658824
0.776471 0.368627 0.678431
0.87451 0.368627 0.682353
0.952941 0.380392 0.690196
0.054902 0.486275 0.584314
0.0705882 0.478431 0.584314
0.117647 0.47451 0.596078
0.219608 0.470588 0.607843
0.423529 0.47451 0.639216
0.619608 0.490196 0.658824
0.784314 0.505882 0.670588
0.890196 0.517647 0.682353
0.956863 0.521569 0.690196
0.0823529 0.639216 0.592157
0.0941176 0.631373 0.592157
0.129412 0.627451 0.6
0.211765 0.627451 0.611765
0.411765 0.631373 0.627451
0.647059 0.705882 0.717647
0.796078 0.721569 0.737255
0.898039 0.733333 0.74902
0.968627 0.733333 0.752941
0.0941176 0.772549 0.592157
0.109804 0.764706 0.596078
0.141176 0.764706 0.607843
0.219608 0.764706 0.603922
0.419608 0.772549 0.635294
0.654902 0.811765 0.717647
0.803922 0.835294 0.752941
0.905882 0.839216 0.760784
0.972549 0.839216 0.756863
0.101961 0.847059 0.596078
0.121569 0.85098 0.596078
0.156863 0.854902 0.611765
0.231373 0.85098 0.623529
0.431373 0.858824 0.643137
0.658824 0.890196 0.717647
0.807843 0.905882 0.74902
0.913725 0.905882 0.752941
0.976471 0.909804 0.756863
0.105882 0.917647 0.6
0.121569 0.917647 0.6
0.156863 0.917647 0.615686
0.239216 0.921569 0.615686
0.435294 0.929412 0.647059
0.658824 0.941176 0.72549
0.811765 0.956863 0.74902
0.909804 0.964706 0.756863
0.972549 0.960784 0.756863
0.0352941 0.109804 0.713725
0.0470588 0.101961 0.721569
0.0941176 0.0941176 0.721569
0.227451 0.0901961 0.72549
0.403922 0.0980392 0.733333
0.611765 0.121569 0.772549
0.780392 0.141176 0.796078
0.894118 0.152941 0.8
0.964706 0.156863 0.807843
0.0313725 0.152941 0.701961
0.0470588 0.152941 0.713725
0.0901961 0.145098 0.72549
0.219608 0.141176 0.72549
0.403922 0.14902 0.745098
0.611765 0.168627 0.764706
0.780392 0.188235 0.788235
0.882353 0.196078 0.796078
0.960784 0.2 0.8
0.0470588 0.247059 0.709804
0.0588235 0.239216 0.709804
0.0941176 0.227451 0.713725
0.227451 0.223529 0.72549
0.415686 0.231373 0.741176
0.611765 0.247059 0.764706
0.784314 0.270588 0.788235
0.886275 0.27451 0.796078
0.960784 0.27451 0.796078
0.054902 0.356863 0.709804
0.0666667 0.352941 0.721569
0.105882 0.345098 0.709804
0.231373 0.341176 0.729412
0.415686 0.345098 0.745098
0.619608 0.356863 0.768627
0.788235 0.388235 0.788235
0.894118 0.388235 0.792157
0.960784 0.396078 0.8
0.0705882 0.505882 0.717647
0.0745098 0.494118 0.713725
0.113725 0.490196 0.72549
0.211765 0.478431 0.717647
0.415686 0.494118 0.741176
0.623529 0.509804 0.772549
0.796078 0.52549 0.788235
0.894118 0.529412 0.803922
0.968627 0.533333 0.8
0.0862745 0.647059 0.713725
0.0941176 0.647059 0.717647
0.12549 0.635294 0.721569
0.211765 0.639216 0.729412
0.419608 0.643137 0.74902
0.643137 0.705882 0.803922
0.807843 0.729412 0.827451
0.909804 0.737255 0.827451
0.980392 0.737255 0.839216
0.101961 0.776471 0.713725
0.113725 0.772549 0.713725
0.133333 0.768627 0.717647
0.203922 0.768627 0.729412
0.403922 0.776471 0.752941
0.627451 0.807843 0.796078
0.815686 0.862745 0.854902
0.909804 0.866667 0.858824
0.984314 0.866667 0.862745
0.109804 0.862745 0.717647
0.12549 0.862745 0.72549
0.14902 0.858824 0.729412
0.215686 0.854902 0.733333
0.415686 0.866667 0.745098
0.643137 0.894118 0.8
0.819608 0.913725 0.85098
0.917647 0.921569 0.858824
0.988235 0.929412 0.866667
0.113725 0.921569 0.729412
0.129412 0.921569 0.72549
0.152941 0.921569 0.729412
0.219608 0.92549 0.737255
0.411765 0.933333 0.756863
0.631373 0.952941 0.803922
0.819608 0.972549 0.854902
0.917647 0.976471 0.862745
0.984314 0.972549 0.862745
0.0431373 0.121569 0.792157
0.0431373 0.117647 0.796078
0.0823529 0.105882 0.796078
0.223529 0.105882 0.803922
0.396078 0.105882 0.819608
0.607843 0.129412 0.839216
0.776471 0.14902 0.858824
0.894118 0.156863 0.87451
0.960784 0.160784 0.87451
0.0392157 0.168627 0.792157
0.0509804 0.164706 0.792157
0.0862745 0.156863 0.8
0.223529 0.14902 0.803922
0.4 0.156863 0.819608
0.607843 0.176471 0.839216
0.780392 0.2 0.862745
0.890196 0.203922 0.870588
0.956863 0.203922 0.87451
0.0470588 0.254902 0.796078
0.054902 0.247059 0.788235
0.0941176 0.243137 0.792157
0.223529 0.231373 0.796078
0.407843 0.243137 0.815686
0.615686 0.258824 0.843137
0.784314 0.278431 0.854902
0.898039 0.282353 0.870588
0.960784 0.286275 0.866667
0.054902 0.368627 0.792157
0.0627451 0.360784 0.792157
0.0980392 0.352941 0.796078
0.219608 0.34902 0.8
0.411765 0.34902 0.815686
0.611765 0.368627 0.835294
0.780392 0.392157 0.858824
0.898039 0.396078 0.870588
0.968627 0.396078 0.870588
0.0705882 0.509804 0.8
0.0784314 0.505882 0.8
0.105882 0.498039 0.792157
0.215686 0.490196 0.803922
0.415686 0.498039 0.819608
0.619608 0.521569 0.847059
0.792157 0.529412 0.862745
0.898039 0.537255 0.866667
0.972549 0.54902 0.870588
0.0862745 0.654902 0.807843
0.0980392 0.658824 0.803922
0.117647 0.65098 0.807843
0.207843 0.647059 0.811765
0.403922 0.65098 0.819608
0.639216 0.709804 0.866667
0.8 0.733333 0.878431
0.905882 0.737255 0.886275
0.980392 0.741176 0.890196
0.109804 0.780392 0.807843
0.117647 0.776471 0.815686
0.133333 0.776471 0.811765
0.207843 0.772549 0.815686
0.396078 0.780392 0.827451
0.631373 0.815686 0.862745
0.811765 0.862745 0.898039
0.917647 0.866667 0.905882
0.980392 0.870588 0.913725
0.109804 0.858824 0.807843
0.12549 0.858824 0.811765
0.14902 0.858824 0.811765
0.207843 0.858824 0.819608
0.392157 0.866667 0.827451
0.619608 0.890196 0.858824
0.815686 0.921569 0.901961
0.917647 0.933333 0.917647
0.988235 0.933333 0.921569
0.117647 0.921569 0.811765
0.12549 0.917647 0.815686
0.14902 0.92549 0.819608
0.207843 0.92549 0.819608
0.392157 0.929412 0.827451
0.627451 0.952941 0.862745
0.807843 0.968627 0.898039
0.917647 0.976471 0.917647
0.984314 0.976471 0.921569
